( Made using CamBam - http://www.cambam.co.uk )
( vacuum plate16x20 9/16/2016 4:23:53 PM )
( T0 : 2.0 )
G21 G90 G64 G40
G0 Z3.0
( T0 : 2.0 )
T0 M6
( matrice vacuum )
G17
M3 S10000
G0 X-90.0 Y70.0
G98
G81 X-90.0 Y70.0 Z-3.0 R3.0 F50.0
G81 X-70.0 Z-3.0
G81 X-50.0 Z-3.0
G81 X-30.0 Z-3.0
G81 X-10.0 Z-3.0
G81 X10.0 Z-3.0
G81 X30.0 Z-3.0
G81 X50.0 Z-3.0
G81 X70.0 Z-3.0
G81 X90.0 Z-3.0
G81 X-90.0 Y50.0 Z-3.0
G81 X-70.0 Z-3.0
G81 X-50.0 Z-3.0
G81 X-30.0 Z-3.0
G81 X-10.0 Z-3.0
G81 X10.0 Z-3.0
G81 X30.0 Z-3.0
G81 X50.0 Z-3.0
G81 X70.0 Z-3.0
G81 X90.0 Z-3.0
G81 X-90.0 Y30.0 Z-3.0
G81 X-70.0 Z-3.0
G81 X-50.0 Z-3.0
G81 X-30.0 Z-3.0
G81 X-10.0 Z-3.0
G81 X10.0 Z-3.0
G81 X30.0 Z-3.0
G81 X50.0 Z-3.0
G81 X70.0 Z-3.0
G81 X90.0 Z-3.0
G81 X-90.0 Y10.0 Z-3.0
G81 X-70.0 Z-3.0
G81 X-50.0 Z-3.0
G81 X-30.0 Z-3.0
G81 X-10.0 Z-3.0
G81 X10.0 Z-3.0
G81 X30.0 Z-3.0
G81 X50.0 Z-3.0
G81 X70.0 Z-3.0
G81 X90.0 Z-3.0
G81 X-90.0 Y-10.0 Z-3.0
G81 X-70.0 Z-3.0
G81 X-50.0 Z-3.0
G81 X-30.0 Z-3.0
G81 X-10.0 Z-3.0
G81 X10.0 Z-3.0
G81 X30.0 Z-3.0
G81 X50.0 Z-3.0
G81 X70.0 Z-3.0
G81 X90.0 Z-3.0
G81 X-90.0 Y-30.0 Z-3.0
G81 X-70.0 Z-3.0
G81 X-50.0 Z-3.0
G81 X-30.0 Z-3.0
G81 X-10.0 Z-3.0
G81 X10.0 Z-3.0
G81 X30.0 Z-3.0
G81 X50.0 Z-3.0
G81 X70.0 Z-3.0
G81 X90.0 Z-3.0
G81 X-90.0 Y-50.0 Z-3.0
G81 X-70.0 Z-3.0
G81 X-50.0 Z-3.0
G81 X-30.0 Z-3.0
G81 X-10.0 Z-3.0
G81 X10.0 Z-3.0
G81 X30.0 Z-3.0
G81 X50.0 Z-3.0
G81 X70.0 Z-3.0
G81 X90.0 Z-3.0
G81 X-90.0 Y-70.0 Z-3.0
G81 X-70.0 Z-3.0
G81 X-50.0 Z-3.0
G81 X-30.0 Z-3.0
G81 X-10.0 Z-3.0
G81 X10.0 Z-3.0
G81 X30.0 Z-3.0
G81 X50.0 Z-3.0
G81 X70.0 Z-3.0
G81 X90.0 Z-3.0
G81 X-80.0 Y0.0 Z-3.0
G81 X-60.0 Z-3.0
G81 X-40.0 Z-3.0
G81 X80.0 Z-3.0
G81 X60.0 Z-3.0
G81 X40.0 Z-3.0
G80
G0 Z3.0
M5
M30
