( Made using CamBam - http://www.cambam.co.uk )
( vacuum table20x20 9/15/2016 4:37:35 PM )
( T0 : 6.0 )
G21 G90 G64 G40
G0 Z50.0
( T0 : 6.0 )
T0 M6
( vacuum_path )
G17
M3 S8000
G0 X-90.0 Y50.0
G0 Z1.0
G1 F200.0 Z-3.5
G1 F800.0 X90.0
G1 Y30.0
G1 X-90.0
G1 Y10.0
G1 X90.0
G1 Y-10.0
G1 X-90.0
G1 Y-30.0
G1 X90.0
G1 Y-50.0
G1 X-90.0
G1 Y-70.0
G1 X-70.0
G1 Y70.0
G1 X-50.0
G1 Y-70.0
G1 X-30.0
G1 Y70.0
G1 X-10.0
G1 Y-70.0
G1 X10.0
G1 Y70.0
G1 X30.0
G1 Y-70.0
G1 X50.0
G1 Y70.0
G1 X70.0
G1 Y-70.0
G1 F200.0 Z-7.0
G1 F800.0 Y70.0
G1 X50.0
G1 Y-70.0
G1 X30.0
G1 Y70.0
G1 X10.0
G1 Y-70.0
G1 X-10.0
G1 Y70.0
G1 X-30.0
G1 Y-70.0
G1 X-50.0
G1 Y70.0
G1 X-70.0
G1 Y-70.0
G1 X-90.0
G1 Y-50.0
G1 X90.0
G1 Y-30.0
G1 X-90.0
G1 Y-10.0
G1 X90.0
G1 Y10.0
G1 X-90.0
G1 Y30.0
G1 X90.0
G1 Y50.0
G1 X-90.0
G1 F200.0 Z-10.0
G1 F800.0 X90.0
G1 Y30.0
G1 X-90.0
G1 Y10.0
G1 X90.0
G1 Y-10.0
G1 X-90.0
G1 Y-30.0
G1 X90.0
G1 Y-50.0
G1 X-90.0
G1 Y-70.0
G1 X-70.0
G1 Y70.0
G1 X-50.0
G1 Y-70.0
G1 X-30.0
G1 Y70.0
G1 X-10.0
G1 Y-70.0
G1 X10.0
G1 Y70.0
G1 X30.0
G1 Y-70.0
G1 X50.0
G1 Y70.0
G1 X70.0
G1 Y-70.0
G0 Z50.0
M5
M30
