( Made using CamBam - http://www.cambam.co.uk )
( vacuum table20x20 9/15/2016 4:37:07 PM )
( T0 : 9.0 )
G21 G90 G64 G40
G0 Z30.0
( T0 : 9.0 )
T0 M6
( surfacage_pour_plateau_alu )
G17
M3 S5000
G0 X98.0607 Y-78.0607
G0 Z1.0
G1 F200.0 Z-1.4
G2 F800.0 X98.5 Y-80.0 I-4.0607 J-1.9393
G3 X100.0 Y-78.5 I1.5 J0.0
G2 X98.0607 Y-78.0607 I0.0 J4.5
G0 Z30.0
G0 X23.05 Y-3.05
G0 Z1.0
G1 F200.0 Z-1.4
G1 F800.0 Y3.05
G1 X-23.05
G1 Y-3.05
G1 X23.05
G1 F200.0 Y-6.2
G1 F800.0 X26.2
G1 Y6.2
G1 X-26.2
G1 Y-6.2
G1 X23.05
G1 F200.0 Y-12.5
G1 F800.0 X32.5
G1 Y12.5
G1 X-32.5
G1 Y-12.5
G1 X23.05
G1 F200.0 Y-18.8
G1 F800.0 X38.8
G1 Y18.8
G1 X-38.8
G1 Y-18.8
G1 X23.05
G1 F200.0 Y-25.1
G1 F800.0 X45.1
G1 Y25.1
G1 X-45.1
G1 Y-25.1
G1 X23.05
G1 F200.0 Y-31.4
G1 F800.0 X51.4
G1 Y31.4
G1 X-51.4
G1 Y-31.4
G1 X23.05
G1 F200.0 Y-37.7
G1 F800.0 X57.7
G1 Y37.7
G1 X-57.7
G1 Y-37.7
G1 X23.05
G1 F200.0 Y-44.0
G1 F800.0 X64.0
G1 Y44.0
G1 X-64.0
G1 Y-44.0
G1 X23.05
G1 F200.0 Y-50.3
G1 F800.0 X70.3
G1 Y50.3
G1 X-70.3
G1 Y-50.3
G1 X23.05
G1 F200.0 Y-56.6
G1 F800.0 X76.6
G1 Y56.6
G1 X-76.6
G1 Y-56.6
G1 X23.05
G1 F200.0 Y-62.9
G1 F800.0 X82.9
G1 Y62.9
G1 X-82.9
G1 Y-62.9
G1 X23.05
G1 F200.0 Y-69.2
G1 F800.0 X89.2
G1 Y69.2
G1 X-89.2
G1 Y-69.2
G1 X23.05
G1 F200.0 Y-75.5
G1 F800.0 X-94.0
G3 X-95.9393 Y-75.9393 I0.0 J-4.5
G3 X-95.5 Y-74.0 I-4.0607 J1.9393
G1 Y74.0
G3 X-95.9393 Y75.9393 I-4.5 J0.0
G3 X-94.0 Y75.5 I1.9393 J4.0607
G1 X94.0
G3 X95.9393 Y75.9393 I0.0 J4.5
G3 X95.5 Y74.0 I4.0607 J-1.9393
G1 Y-74.0
G3 X95.9393 Y-75.9393 I4.5 J0.0
G3 X94.0 Y-75.5 I-1.9393 J-4.0607
G1 X23.05
G0 Z30.0
G0 X98.0607 Y-78.0607
G0 Z-0.4
G1 F200.0 Z-2.8
G2 F800.0 X98.5 Y-80.0 I-4.0607 J-1.9393
G3 X100.0 Y-78.5 I1.5 J0.0
G2 X98.0607 Y-78.0607 I0.0 J4.5
G0 Z30.0
G0 Y78.0607
G0 Z1.0
G1 F200.0 Z-1.4
G2 F800.0 X100.0 Y78.5 I1.9393 J-4.0607
G3 X98.5 Y80.0 I0.0 J1.5
G2 X98.0607 Y78.0607 I-4.5 J0.0
G1 F200.0 Z-2.8
G2 F800.0 X100.0 Y78.5 I1.9393 J-4.0607
G3 X98.5 Y80.0 I0.0 J1.5
G2 X98.0607 Y78.0607 I-4.5 J0.0
G0 Z30.0
G0 X-98.0607
G0 Z1.0
G1 F200.0 Z-1.4
G2 F800.0 X-98.5 Y80.0 I4.0607 J1.9393
G3 X-100.0 Y78.5 I-1.5 J0.0
G2 X-98.0607 Y78.0607 I0.0 J-4.5
G1 F200.0 Z-2.8
G2 F800.0 X-98.5 Y80.0 I4.0607 J1.9393
G3 X-100.0 Y78.5 I-1.5 J0.0
G2 X-98.0607 Y78.0607 I0.0 J-4.5
G0 Z30.0
G0 Y-78.0607
G0 Z1.0
G1 F200.0 Z-1.4
G3 F800.0 X-98.5 Y-80.0 I4.0607 J-1.9393
G2 X-100.0 Y-78.5 I-1.5 J0.0
G3 X-98.0607 Y-78.0607 I0.0 J4.5
G1 F200.0 Z-2.8
G3 F800.0 X-98.5 Y-80.0 I4.0607 J-1.9393
G2 X-100.0 Y-78.5 I-1.5 J0.0
G3 X-98.0607 Y-78.0607 I0.0 J4.5
G0 Z30.0
G0 X-23.05 Y-3.05
G0 Z-0.4
G1 F200.0 Z-2.8
G1 F800.0 X23.05
G1 Y3.05
G1 X-23.05
G1 Y-3.05
G1 F200.0 Y-6.2
G1 F800.0 X26.2
G1 Y6.2
G1 X-26.2
G1 Y-6.2
G1 X-23.05
G1 F200.0 Y-12.5
G1 F800.0 X32.5
G1 Y12.5
G1 X-32.5
G1 Y-12.5
G1 X-23.05
G1 F200.0 Y-18.8
G1 F800.0 X38.8
G1 Y18.8
G1 X-38.8
G1 Y-18.8
G1 X-23.05
G1 F200.0 Y-25.1
G1 F800.0 X45.1
G1 Y25.1
G1 X-45.1
G1 Y-25.1
G1 X-23.05
G1 F200.0 Y-31.4
G1 F800.0 X51.4
G1 Y31.4
G1 X-51.4
G1 Y-31.4
G1 X-23.05
G1 F200.0 Y-37.7
G1 F800.0 X57.7
G1 Y37.7
G1 X-57.7
G1 Y-37.7
G1 X-23.05
G1 F200.0 Y-44.0
G1 F800.0 X64.0
G1 Y44.0
G1 X-64.0
G1 Y-44.0
G1 X-23.05
G1 F200.0 Y-50.3
G1 F800.0 X70.3
G1 Y50.3
G1 X-70.3
G1 Y-50.3
G1 X-23.05
G1 F200.0 Y-56.6
G1 F800.0 X76.6
G1 Y56.6
G1 X-76.6
G1 Y-56.6
G1 X-23.05
G1 F200.0 Y-62.9
G1 F800.0 X82.9
G1 Y62.9
G1 X-82.9
G1 Y-62.9
G1 X-23.05
G1 F200.0 Y-69.2
G1 F800.0 X89.2
G1 Y69.2
G1 X-89.2
G1 Y-69.2
G1 X-23.05
G1 F200.0 Y-75.5
G1 F800.0 X-94.0
G3 X-95.9393 Y-75.9393 I0.0 J-4.5
G3 X-95.5 Y-74.0 I-4.0607 J1.9393
G1 Y74.0
G3 X-95.9393 Y75.9393 I-4.5 J0.0
G3 X-94.0 Y75.5 I1.9393 J4.0607
G1 X94.0
G3 X95.9393 Y75.9393 I0.0 J4.5
G3 X95.5 Y74.0 I4.0607 J-1.9393
G1 Y-74.0
G3 X95.9393 Y-75.9393 I4.5 J0.0
G3 X94.0 Y-75.5 I-1.9393 J-4.0607
G1 X-23.05
G0 Z30.0
G0 Y-3.05
G0 Z-1.8
G1 F200.0 Z-3.0
G1 F800.0 X23.05
G1 Y3.05
G1 X-23.05
G1 Y-3.05
G1 F200.0 Y-6.2
G1 F800.0 X26.2
G1 Y6.2
G1 X-26.2
G1 Y-6.2
G1 X-23.05
G1 F200.0 Y-12.5
G1 F800.0 X32.5
G1 Y12.5
G1 X-32.5
G1 Y-12.5
G1 X-23.05
G1 F200.0 Y-18.8
G1 F800.0 X38.8
G1 Y18.8
G1 X-38.8
G1 Y-18.8
G1 X-23.05
G1 F200.0 Y-25.1
G1 F800.0 X45.1
G1 Y25.1
G1 X-45.1
G1 Y-25.1
G1 X-23.05
G1 F200.0 Y-31.4
G1 F800.0 X51.4
G1 Y31.4
G1 X-51.4
G1 Y-31.4
G1 X-23.05
G1 F200.0 Y-37.7
G1 F800.0 X57.7
G1 Y37.7
G1 X-57.7
G1 Y-37.7
G1 X-23.05
G1 F200.0 Y-44.0
G1 F800.0 X64.0
G1 Y44.0
G1 X-64.0
G1 Y-44.0
G1 X-23.05
G1 F200.0 Y-50.3
G1 F800.0 X70.3
G1 Y50.3
G1 X-70.3
G1 Y-50.3
G1 X-23.05
G1 F200.0 Y-56.6
G1 F800.0 X76.6
G1 Y56.6
G1 X-76.6
G1 Y-56.6
G1 X-23.05
G1 F200.0 Y-62.9
G1 F800.0 X82.9
G1 Y62.9
G1 X-82.9
G1 Y-62.9
G1 X-23.05
G1 F200.0 Y-69.2
G1 F800.0 X89.2
G1 Y69.2
G1 X-89.2
G1 Y-69.2
G1 X-23.05
G1 F200.0 Y-75.5
G1 F800.0 X-94.0
G3 X-95.9393 Y-75.9393 I0.0 J-4.5
G3 X-95.5 Y-74.0 I-4.0607 J1.9393
G1 Y74.0
G3 X-95.9393 Y75.9393 I-4.5 J0.0
G3 X-94.0 Y75.5 I1.9393 J4.0607
G1 X94.0
G3 X95.9393 Y75.9393 I0.0 J4.5
G3 X95.5 Y74.0 I4.0607 J-1.9393
G1 Y-74.0
G3 X95.9393 Y-75.9393 I4.5 J0.0
G3 X94.0 Y-75.5 I-1.9393 J-4.0607
G1 X-23.05
G0 Z30.0
G0 X-98.0607 Y-78.0607
G0 Z-1.8
G1 F200.0 Z-3.0
G3 F800.0 X-98.5 Y-80.0 I4.0607 J-1.9393
G2 X-100.0 Y-78.5 I-1.5 J0.0
G3 X-98.0607 Y-78.0607 I0.0 J4.5
G0 Z30.0
G0 Y78.0607
G0 Z-1.8
G1 F200.0 Z-3.0
G2 F800.0 X-98.5 Y80.0 I4.0607 J1.9393
G3 X-100.0 Y78.5 I-1.5 J0.0
G2 X-98.0607 Y78.0607 I0.0 J-4.5
G0 Z30.0
G0 X98.0607
G0 Z-1.8
G1 F200.0 Z-3.0
G2 F800.0 X100.0 Y78.5 I1.9393 J-4.0607
G3 X98.5 Y80.0 I0.0 J1.5
G2 X98.0607 Y78.0607 I-4.5 J0.0
G0 Z30.0
G0 Y-78.0607
G0 Z-1.8
G1 F200.0 Z-3.0
G2 F800.0 X98.5 Y-80.0 I-4.0607 J-1.9393
G3 X100.0 Y-78.5 I1.5 J0.0
G2 X98.0607 Y-78.0607 I0.0 J4.5
G0 Z30.0
M5
M30
