( Made using CamBam - http://www.cambam.co.uk )
( lens_support 7/17/2015 11:17:04 PM )
( T0 : 3.0 )
G21 G90 G64 G40
G0 Z5.0
( T0 : 3.0 )
T0 M6
( rainure1 )
G17
M3 S7000
G0 X14.5 Y18.3
G0 Z1.0
G1 F80.0 Z-0.5
G1 F400.0 X26.5
G2 Y17.7 I0.0 J-0.3
G1 X14.5
G2 Y18.3 I0.0 J0.3
G1 F80.0 Z-0.9
G1 F400.0 X26.5
G2 Y17.7 I0.0 J-0.3
G1 X14.5
G2 Y18.3 I0.0 J0.3
G1 F80.0 Z-1.6
G1 F400.0 X26.5
G2 Y17.7 I0.0 J-0.3
G1 X14.5
G2 Y18.3 I0.0 J0.3
G1 F80.0 Y18.5
G1 F400.0 X26.5
G2 Y17.5 I0.0 J-0.5
G1 X14.5
G2 Y18.5 I0.0 J0.5
G0 Z5.0
G0 Y-15.2
G0 Z1.0
G1 F80.0 Z-0.5
G3 F400.0 Y-15.8 I0.0 J-0.3
G1 X26.5
G3 Y-15.2 I0.0 J0.3
G1 X14.5
G1 F80.0 Z-0.9
G1 F400.0 X26.5
G2 Y-15.8 I0.0 J-0.3
G1 X14.5
G2 Y-15.2 I0.0 J0.3
G1 F80.0 Z-1.6
G1 F400.0 X26.5
G2 Y-15.8 I0.0 J-0.3
G1 X14.5
G2 Y-15.2 I0.0 J0.3
G1 F80.0 Y-15.0
G1 F400.0 X26.5
G2 Y-16.0 I0.0 J-0.5
G1 X14.5
G2 Y-15.0 I0.0 J0.5
G0 Z5.0
G0 X57.2329 Y6.8634
G0 Z1.0
G1 F80.0 Z-0.5
G3 F400.0 X57.5 Y6.7 I0.2671 J0.1366
G1 X69.5
G3 Y7.3 I0.0 J0.3
G1 X57.5
G3 X57.2329 Y6.8634 I0.0 J-0.3
G1 F80.0 Z-0.9
G3 F400.0 X57.5 Y6.7 I0.2671 J0.1366
G1 X69.5
G3 Y7.3 I0.0 J0.3
G1 X57.5
G3 X57.2329 Y6.8634 I0.0 J-0.3
G1 F80.0 Z-1.6
G2 F400.0 X57.5 Y7.3 I0.2671 J0.1366
G1 X69.5
G2 Y6.7 I0.0 J-0.3
G1 X57.5
G2 X57.2329 Y6.8634 I0.0 J0.3
G1 F80.0 X57.0549 Y6.7723
G2 F400.0 X57.5 Y7.5 I0.4451 J0.2277
G1 X69.5
G2 Y6.5 I0.0 J-0.5
G1 X57.5
G2 X57.0549 Y6.7723 I0.0 J0.5
( lens )
S1000
G0 Z5.0
G0 X0.3 Y0.0
G0 Z1.0
G1 F80.0 Z-0.5
G2 F400.0 X-0.15 Y-0.2598 I-0.3 J0.0
G2 Y0.2598 I0.15 J0.2598
G2 X0.3 Y0.0 I0.15 J-0.2598
G1 F80.0 X3.3
G2 F400.0 X-1.65 Y-2.8579 I-3.3 J0.0
G2 Y2.8579 I1.65 J2.8579
G2 X3.3 Y0.0 I1.65 J-2.8579
G1 F80.0 X6.3
G2 F400.0 X-3.15 Y-5.456 I-6.3 J0.0
G2 Y5.456 I3.15 J5.456
G2 X6.3 Y0.0 I3.15 J-5.456
G1 F80.0 X9.3
G2 F400.0 X-4.65 Y-8.054 I-9.3 J0.0
G2 Y8.054 I4.65 J8.054
G2 X9.3 Y0.0 I4.65 J-8.054
G1 F80.0 X9.5
G2 F400.0 X-4.75 Y-8.2272 I-9.5 J0.0
G2 Y8.2272 I4.75 J8.2272
G2 X9.5 Y0.0 I4.75 J-8.2272
G0 Z5.0
G0 X0.3
G0 Z0.5
G1 F80.0 Z-0.9
G2 F400.0 X-0.15 Y-0.2598 I-0.3 J0.0
G2 Y0.2598 I0.15 J0.2598
G2 X0.3 Y0.0 I0.15 J-0.2598
G1 F80.0 X3.3
G2 F400.0 X-1.65 Y-2.8579 I-3.3 J0.0
G2 Y2.8579 I1.65 J2.8579
G2 X3.3 Y0.0 I1.65 J-2.8579
G1 F80.0 X6.3
G2 F400.0 X-3.15 Y-5.456 I-6.3 J0.0
G2 Y5.456 I3.15 J5.456
G2 X6.3 Y0.0 I3.15 J-5.456
G1 F80.0 X9.3
G2 F400.0 X-4.65 Y-8.054 I-9.3 J0.0
G2 Y8.054 I4.65 J8.054
G2 X9.3 Y0.0 I4.65 J-8.054
G1 F80.0 X9.5
G2 F400.0 X-4.75 Y-8.2272 I-9.5 J0.0
G2 Y8.2272 I4.75 J8.2272
G2 X9.5 Y0.0 I4.75 J-8.2272
G0 Z5.0
G0 X0.3
G0 Z-0.1
G1 F80.0 Z-1.6
G2 F400.0 X-0.15 Y-0.2598 I-0.3 J0.0
G2 Y0.2598 I0.15 J0.2598
G2 X0.3 Y0.0 I0.15 J-0.2598
G1 F80.0 X3.3
G2 F400.0 X-1.65 Y-2.8579 I-3.3 J0.0
G2 Y2.8579 I1.65 J2.8579
G2 X3.3 Y0.0 I1.65 J-2.8579
G1 F80.0 X6.3
G2 F400.0 X-3.15 Y-5.456 I-6.3 J0.0
G2 Y5.456 I3.15 J5.456
G2 X6.3 Y0.0 I3.15 J-5.456
G1 F80.0 X9.3
G2 F400.0 X-4.65 Y-8.054 I-9.3 J0.0
G2 Y8.054 I4.65 J8.054
G2 X9.3 Y0.0 I4.65 J-8.054
G1 F80.0 X9.5
G2 F400.0 X-4.75 Y-8.2272 I-9.5 J0.0
G2 Y8.2272 I4.75 J8.2272
G2 X9.5 Y0.0 I4.75 J-8.2272
( contours )
S7000
G0 Z5.0
G0 X69.1556 Y-4.1525
G0 Z1.0
G1 F80.0 Z-0.5
G1 F400.0 X29.1036 Y-22.4592
G2 X24.3229 Y-23.5 I-4.7806 J10.4592
G1 X15.9438
G2 X12.6909 Y-23.0303 I0.0 J11.5
G1 X-5.233 Y-17.7445
G2 X-7.1442 Y17.0649 I5.233 J17.7445
G1 X12.0678 Y25.1079
G2 X16.5088 Y26.0 I4.441 J-10.6079
G1 X25.4847
G2 X27.7961 Y25.7653 I0.0 J-11.5
G1 X71.51 Y16.7959
G2 X73.6571 Y-2.095 I-2.01 J-9.7959
G1 X69.1556 Y-4.1525
G1 F80.0 Z-0.9
G1 F400.0 X42.812 Y-16.1935
G0 Z-0.6
G1 X38.2645 Y-18.272
G1 F80.0 Z-0.9
G1 F400.0 X29.1036 Y-22.4592
G2 X24.3229 Y-23.5 I-4.7806 J10.4592
G1 X15.9438
G2 X12.6909 Y-23.0303 I0.0 J11.5
G1 X-5.233 Y-17.7445
G2 X-17.8096 Y5.0067 I5.233 J17.7445
G0 Z-0.6
G2 X-15.8184 Y9.5931 I17.8096 J-5.0067
G1 F80.0 Z-0.9
G2 F400.0 X-7.1442 Y17.0649 I15.8184 J-9.5931
G1 X12.0678 Y25.1079
G2 X16.5088 Y26.0 I4.441 J-10.6079
G1 X25.4847
G2 X27.7961 Y25.7653 I0.0 J-11.5
G1 X51.5933 Y20.8825
G0 Z-0.6
G1 X56.4913 Y19.8775
G1 F80.0 Z-0.9
G1 F400.0 X71.51 Y16.7959
G2 X73.6571 Y-2.095 I-2.01 J-9.7959
G1 X69.1556 Y-4.1525
G1 F80.0 Z-1.6
G1 F400.0 X42.812 Y-16.1935
G0 Z-0.6
G1 X38.2645 Y-18.272
G1 F80.0 Z-1.6
G1 F400.0 X29.1036 Y-22.4592
G2 X24.3229 Y-23.5 I-4.7806 J10.4592
G1 X15.9438
G2 X12.6909 Y-23.0303 I0.0 J11.5
G1 X-5.233 Y-17.7445
G2 X-17.8096 Y5.0067 I5.233 J17.7445
G0 Z-0.6
G2 X-15.8184 Y9.5931 I17.8096 J-5.0067
G1 F80.0 Z-1.6
G2 F400.0 X-7.1442 Y17.0649 I15.8184 J-9.5931
G1 X12.0678 Y25.1079
G2 X16.5088 Y26.0 I4.441 J-10.6079
G1 X25.4847
G2 X27.7961 Y25.7653 I0.0 J-11.5
G1 X51.5933 Y20.8825
G0 Z-0.6
G1 X56.4913 Y19.8775
G1 F80.0 Z-1.6
G1 F400.0 X71.51 Y16.7959
G2 X73.6571 Y-2.095 I-2.01 J-9.7959
G1 X69.1556 Y-4.1525
G0 Z5.0
M5
M30
