( Made using CamBam - http://www.cambam.co.uk )
( vacuum plate16x20 8/11/2016 5:51:32 PM )
( T0 : 2.0 )
G21 G90 G64 G40
G0 Z36.0
( T0 : 2.0 )
T0 M6
( alu_matrice_trous )
G17
M3 S1000
G0 X-90.0 Y70.0
G98
G81 X-90.0 Y70.0 Z-3.3 R3.0 F100.0
G81 X-70.0 Z-3.3
G81 X-50.0 Z-3.3
G81 X-30.0 Z-3.3
G81 X-10.0 Z-3.3
G81 X10.0 Z-3.3
G81 X30.0 Z-3.3
G81 X50.0 Z-3.3
G81 X70.0 Z-3.3
G81 X90.0 Z-3.3
G81 X-90.0 Y50.0 Z-3.3
G81 X-70.0 Z-3.3
G81 X-50.0 Z-3.3
G81 X-30.0 Z-3.3
G81 X-10.0 Z-3.3
G81 X10.0 Z-3.3
G81 X30.0 Z-3.3
G81 X50.0 Z-3.3
G81 X70.0 Z-3.3
G81 X90.0 Z-3.3
G81 X-90.0 Y30.0 Z-3.3
G81 X-70.0 Z-3.3
G81 X-50.0 Z-3.3
G81 X-30.0 Z-3.3
G81 X-10.0 Z-3.3
G81 X10.0 Z-3.3
G81 X30.0 Z-3.3
G81 X50.0 Z-3.3
G81 X70.0 Z-3.3
G81 X90.0 Z-3.3
G81 X-90.0 Y10.0 Z-3.3
G81 X-70.0 Z-3.3
G81 X-50.0 Z-3.3
G81 X-30.0 Z-3.3
G81 X-10.0 Z-3.3
G81 X10.0 Z-3.3
G81 X30.0 Z-3.3
G81 X50.0 Z-3.3
G81 X70.0 Z-3.3
G81 X90.0 Z-3.3
G81 X-90.0 Y-10.0 Z-3.3
G81 X-70.0 Z-3.3
G81 X-50.0 Z-3.3
G81 X-30.0 Z-3.3
G81 X-10.0 Z-3.3
G81 X10.0 Z-3.3
G81 X30.0 Z-3.3
G81 X50.0 Z-3.3
G81 X70.0 Z-3.3
G81 X90.0 Z-3.3
G81 X-90.0 Y-30.0 Z-3.3
G81 X-70.0 Z-3.3
G81 X-50.0 Z-3.3
G81 X-30.0 Z-3.3
G81 X-10.0 Z-3.3
G81 X10.0 Z-3.3
G81 X30.0 Z-3.3
G81 X50.0 Z-3.3
G81 X70.0 Z-3.3
G81 X90.0 Z-3.3
G81 X-90.0 Y-50.0 Z-3.3
G81 X-70.0 Z-3.3
G81 X-50.0 Z-3.3
G81 X-30.0 Z-3.3
G81 X-10.0 Z-3.3
G81 X10.0 Z-3.3
G81 X30.0 Z-3.3
G81 X50.0 Z-3.3
G81 X70.0 Z-3.3
G81 X90.0 Z-3.3
G81 X-90.0 Y-70.0 Z-3.3
G81 X-70.0 Z-3.3
G81 X-50.0 Z-3.3
G81 X-30.0 Z-3.3
G81 X-10.0 Z-3.3
G81 X10.0 Z-3.3
G81 X30.0 Z-3.3
G81 X50.0 Z-3.3
G81 X70.0 Z-3.3
G81 X90.0 Z-3.3
G80
G0 Z36.0
M5
M30
