( Made using CamBam - http://www.cambam.co.uk )
( vacuum20x20 7/10/2016 7:48:17 PM )
( T4 : 3.0 )
G21 G90 G64 G40
G0 Z10.0
( T4 : 3.0 )
T4 M6
( path )
G17
M3 S6000
G0 X-90.0 Y50.0
G0 Z1.0
G1 F100.0 Z-4.0
G1 F800.0 X90.0
G1 Y30.0
G1 X-90.0
G1 Y10.0
G1 X90.0
G1 Y-10.0
G1 X-90.0
G1 Y-30.0
G1 X90.0
G1 Y-50.0
G1 X-90.0
G1 Y-70.0
G1 X-70.0
G1 Y70.0
G1 X-50.0
G1 Y-70.0
G1 X-30.0
G1 Y70.0
G1 X-10.0
G1 Y-70.0
G1 X10.0
G1 Y70.0
G1 X30.0
G1 Y-70.0
G1 X50.0
G1 Y70.0
G1 X70.0
G1 Y-70.0
G1 F100.0 Z-8.0
G1 F800.0 Y70.0
G1 X50.0
G1 Y-70.0
G1 X30.0
G1 Y70.0
G1 X10.0
G1 Y-70.0
G1 X-10.0
G1 Y70.0
G1 X-30.0
G1 Y-70.0
G1 X-50.0
G1 Y70.0
G1 X-70.0
G1 Y-70.0
G1 X-90.0
G1 Y-50.0
G1 X90.0
G1 Y-30.0
G1 X-90.0
G1 Y-10.0
G1 X90.0
G1 Y10.0
G1 X-90.0
G1 Y30.0
G1 X90.0
G1 Y50.0
G1 X-90.0
G1 F100.0 Z-10.0
G1 F800.0 X90.0
G1 Y30.0
G1 X-90.0
G1 Y10.0
G1 X90.0
G1 Y-10.0
G1 X-90.0
G1 Y-30.0
G1 X90.0
G1 Y-50.0
G1 X-90.0
G1 Y-70.0
G1 X-70.0
G1 Y70.0
G1 X-50.0
G1 Y-70.0
G1 X-30.0
G1 Y70.0
G1 X-10.0
G1 Y-70.0
G1 X10.0
G1 Y70.0
G1 X30.0
G1 Y-70.0
G1 X50.0
G1 Y70.0
G1 X70.0
G1 Y-70.0
G0 Z10.0
M5
M30
