( Made using CamBam - http://www.cambam.co.uk )
( vacuum plate16x20 8/11/2016 5:54:34 PM )
( T0 : 4.0 )
G21 G90 G64 G40
G0 Z36.0
( T0 : 4.0 )
T0 M6
( decoupe_contour )
G17
M3 S9000
G0 X-120.0 Y78.0
G0 Z1.0
G1 F250.0 Z-0.4
G1 F1100.0 X-68.5
G1 X-67.0 Z0.0
G1 X-63.0
G1 X-61.5 Z-0.4
G1 X41.5
G1 X43.0 Z0.0
G1 X47.0
G1 X48.5 Z-0.4
G1 X100.0
G0 Z36.0
G0 X98.0 Y80.0
G0 Z1.0
G1 F250.0 Z-0.4
G1 F1100.0 Y39.5
G1 Y38.0 Z0.0
G1 Y34.0
G1 Y32.5 Z-0.4
G1 Y-48.5
G1 Y-50.0 Z0.0
G1 Y-54.0
G1 Y-55.5 Z-0.4
G1 Y-96.0
G0 Z36.0
G0 Y80.0
G0 Z0.6
G1 F250.0 Z-0.8
G1 F1100.0 Y39.5
G1 Y38.0 Z0.0
G1 Y34.0
G1 Y32.5 Z-0.8
G1 Y-48.5
G1 Y-50.0 Z0.0
G1 Y-54.0
G1 Y-55.5 Z-0.8
G1 Y-96.0
G0 Z36.0
G0 X-120.0 Y78.0
G0 Z0.6
G1 F250.0 Z-0.8
G1 F1100.0 X-68.5
G1 X-67.0 Z0.0
G1 X-63.0
G1 X-61.5 Z-0.8
G1 X41.5
G1 X43.0 Z0.0
G1 X47.0
G1 X48.5 Z-0.8
G1 X100.0
G0 Z36.0
G0 X98.0 Y80.0
G0 Z0.2
G1 F250.0 Z-1.2
G1 F1100.0 Y39.5
G1 Y38.0 Z0.0
G1 Y34.0
G1 Y32.5 Z-1.2
G1 Y-48.5
G1 Y-50.0 Z0.0
G1 Y-54.0
G1 Y-55.5 Z-1.2
G1 Y-96.0
G0 Z36.0
G0 X-120.0 Y78.0
G0 Z0.2
G1 F250.0 Z-1.2
G1 F1100.0 X-68.5
G1 X-67.0 Z0.0
G1 X-63.0
G1 X-61.5 Z-1.2
G1 X41.5
G1 X43.0 Z0.0
G1 X47.0
G1 X48.5 Z-1.2
G1 X100.0
G0 Z36.0
G0 X98.0 Y80.0
G0 Z-0.2
G1 F250.0 Z-1.6
G1 F1100.0 Y39.5
G1 Y38.0 Z0.0
G1 Y34.0
G1 Y32.5 Z-1.6
G1 Y-48.5
G1 Y-50.0 Z0.0
G1 Y-54.0
G1 Y-55.5 Z-1.6
G1 Y-96.0
G0 Z36.0
G0 X-120.0 Y78.0
G0 Z-0.2
G1 F250.0 Z-1.6
G1 F1100.0 X-68.5
G1 X-67.0 Z0.0
G1 X-63.0
G1 X-61.5 Z-1.6
G1 X41.5
G1 X43.0 Z0.0
G1 X47.0
G1 X48.5 Z-1.6
G1 X100.0
G0 Z36.0
G0 X98.0 Y80.0
G0 Z-0.6
G1 F250.0 Z-2.0
G1 F1100.0 Y39.5
G1 Y38.0 Z0.0
G1 Y34.0
G1 Y32.5 Z-2.0
G1 Y-48.5
G1 Y-50.0 Z0.0
G1 Y-54.0
G1 Y-55.5 Z-2.0
G1 Y-96.0
G0 Z36.0
G0 X-120.0 Y78.0
G0 Z-0.6
G1 F250.0 Z-2.0
G1 F1100.0 X-68.5
G1 X-67.0 Z0.0
G1 X-63.0
G1 X-61.5 Z-2.0
G1 X41.5
G1 X43.0 Z0.0
G1 X47.0
G1 X48.5 Z-2.0
G1 X100.0
G0 Z36.0
G0 X98.0 Y80.0
G0 Z-1.0
G1 F250.0 Z-2.4
G1 F1100.0 Y39.5
G1 Y38.0 Z0.0
G1 Y34.0
G1 Y32.5 Z-2.4
G1 Y-48.5
G1 Y-50.0 Z0.0
G1 Y-54.0
G1 Y-55.5 Z-2.4
G1 Y-96.0
G0 Z36.0
G0 X-120.0 Y78.0
G0 Z-1.0
G1 F250.0 Z-2.4
G1 F1100.0 X-68.5
G1 X-67.0 Z0.0
G1 X-63.0
G1 X-61.5 Z-2.4
G1 X41.5
G1 X43.0 Z0.0
G1 X47.0
G1 X48.5 Z-2.4
G1 X100.0
G0 Z36.0
G0 X98.0 Y80.0
G0 Z-1.4
G1 F250.0 Z-2.8
G1 F1100.0 Y39.5
G1 Y38.0 Z0.0
G1 Y34.0
G1 Y32.5 Z-2.8
G1 Y-48.5
G1 Y-50.0 Z0.0
G1 Y-54.0
G1 Y-55.5 Z-2.8
G1 Y-96.0
G0 Z36.0
G0 X-120.0 Y78.0
G0 Z-1.4
G1 F250.0 Z-2.8
G1 F1100.0 X-68.5
G1 X-67.0 Z0.0
G1 X-63.0
G1 X-61.5 Z-2.8
G1 X41.5
G1 X43.0 Z0.0
G1 X47.0
G1 X48.5 Z-2.8
G1 X100.0
G0 Z36.0
G0 X98.0 Y80.0
G0 Z-1.8
G1 F250.0 Z-3.0
G1 F1100.0 Y39.5
G1 Y38.0 Z0.0
G1 Y34.0
G1 Y32.5 Z-3.0
G1 Y-48.5
G1 Y-50.0 Z0.0
G1 Y-54.0
G1 Y-55.5 Z-3.0
G1 Y-96.0
G0 Z36.0
G0 X-120.0 Y78.0
G0 Z-1.8
G1 F250.0 Z-3.0
G1 F1100.0 X-68.5
G1 X-67.0 Z0.0
G1 X-63.0
G1 X-61.5 Z-3.0
G1 X41.5
G1 X43.0 Z0.0
G1 X47.0
G1 X48.5 Z-3.0
G1 X100.0
G0 Z36.0
M5
M30
