( Made using CamBam - http://www.cambam.co.uk )
( vacuum table20x20 7/10/2016 8:25:58 PM )
( T0 : 6.0 )
G21 G90 G64 G40
G0 Z40.0
( T0 : 6.0 )
T0 M6
( out_shape )
G17
M3 S12000
G0 X-140.0 Y-103.0
G0 Z1.0
G1 F300.0 Z-4.0
G1 F800.0 X140.0
G3 X143.0 Y-100.0 I0.0 J3.0
G1 Y100.0
G3 X140.0 Y103.0 I-3.0 J0.0
G1 X-140.0
G3 X-143.0 Y100.0 I0.0 J-3.0
G1 Y-100.0
G3 X-140.0 Y-103.0 I3.0 J0.0
G1 F300.0 Z-8.0
G1 F800.0 X-64.5
G1 X-63.0 Z-7.0
G1 X-57.0
G1 X-55.5 Z-8.0
G1 X95.5
G1 X97.0 Z-7.0
G1 X103.0
G1 X104.5 Z-8.0
G1 X140.0
G3 X143.0 Y-100.0 I0.0 J3.0
G1 Y15.5
G1 Y17.0 Z-7.0
G1 Y23.0
G1 Y24.5 Z-8.0
G1 Y100.0
G3 X140.0 Y103.0 I-3.0 J0.0
G1 X64.5
G1 X63.0 Z-7.0
G1 X57.0
G1 X55.5 Z-8.0
G1 X-95.5
G1 X-97.0 Z-7.0
G1 X-103.0
G1 X-104.5 Z-8.0
G1 X-140.0
G3 X-143.0 Y100.0 I0.0 J-3.0
G1 Y-15.5
G1 Y-17.0 Z-7.0
G1 Y-23.0
G1 Y-24.5 Z-8.0
G1 Y-100.0
G3 X-140.0 Y-103.0 I3.0 J0.0
G1 F300.0 Z-10.0
G1 F800.0 X-64.5
G1 X-63.0 Z-7.0
G1 X-57.0
G1 X-55.5 Z-10.0
G1 X95.5
G1 X97.0 Z-7.0
G1 X103.0
G1 X104.5 Z-10.0
G1 X140.0
G3 X143.0 Y-100.0 I0.0 J3.0
G1 Y15.5
G1 Y17.0 Z-7.0
G1 Y23.0
G1 Y24.5 Z-10.0
G1 Y100.0
G3 X140.0 Y103.0 I-3.0 J0.0
G1 X64.5
G1 X63.0 Z-7.0
G1 X57.0
G1 X55.5 Z-10.0
G1 X-95.5
G1 X-97.0 Z-7.0
G1 X-103.0
G1 X-104.5 Z-10.0
G1 X-140.0
G3 X-143.0 Y100.0 I0.0 J-3.0
G1 Y-15.5
G1 Y-17.0 Z-7.0
G1 Y-23.0
G1 Y-24.5 Z-10.0
G1 Y-100.0
G3 X-140.0 Y-103.0 I3.0 J0.0
G0 Z40.0
M5
M30
