( Made using CamBam - http://www.cambam.co.uk )
( vacuum table20x20 8/5/2016 8:48:36 PM )
( T0 : 2.9 )
G21 G90 G64 G40
G0 Z25.0
( T0 : 2.9 )
T0 M6
( drill_head )
G17
M3 S6000
G0 X-119.5 Y90.0
G0 Z25.0
G0 X-119.45 Y90.0
G0 Z1.0
G1 F300.0 Z0.0
G2 F800.0 X-119.525 Y89.9567 Z-0.1333 I-0.05 J0.0
G2 Y90.0433 Z-0.2667 I0.025 J0.0433
G2 X-119.45 Y90.0 Z-0.4 I0.025 J-0.0433
G2 X-119.525 Y89.9567 Z-0.5333 I-0.05 J0.0
G2 Y90.0433 Z-0.6667 I0.025 J0.0433
G2 X-119.45 Y90.0 Z-0.8 I0.025 J-0.0433
G2 X-119.525 Y89.9567 Z-0.9333 I-0.05 J0.0
G2 Y90.0433 Z-1.0667 I0.025 J0.0433
G2 X-119.45 Y90.0 Z-1.2 I0.025 J-0.0433
G2 X-119.525 Y89.9567 Z-1.3333 I-0.05 J0.0
G2 Y90.0433 Z-1.4667 I0.025 J0.0433
G2 X-119.45 Y90.0 Z-1.6 I0.025 J-0.0433
G2 X-119.525 Y89.9567 Z-1.7333 I-0.05 J0.0
G2 Y90.0433 Z-1.8667 I0.025 J0.0433
G2 X-119.45 Y90.0 Z-2.0 I0.025 J-0.0433
G2 X-119.525 Y89.9567 Z-2.1333 I-0.05 J0.0
G2 Y90.0433 Z-2.2667 I0.025 J0.0433
G2 X-119.45 Y90.0 Z-2.4 I0.025 J-0.0433
G2 X-119.525 Y89.9567 Z-2.5333 I-0.05 J0.0
G2 Y90.0433 Z-2.6667 I0.025 J0.0433
G2 X-119.45 Y90.0 Z-2.8 I0.025 J-0.0433
G2 X-119.525 Y89.9567 Z-2.9333 I-0.05 J0.0
G2 Y90.0433 Z-3.0667 I0.025 J0.0433
G2 X-119.45 Y90.0 Z-3.2 I0.025 J-0.0433
G2 X-119.525 Y89.9567 Z-3.3333 I-0.05 J0.0
G2 Y90.0433 Z-3.4667 I0.025 J0.0433
G2 X-119.45 Y90.0 Z-3.6 I0.025 J-0.0433
G2 X-119.525 Y89.9567 Z-3.7333 I-0.05 J0.0
G2 Y90.0433 Z-3.8667 I0.025 J0.0433
G2 X-119.45 Y90.0 Z-4.0 I0.025 J-0.0433
G2 X-119.525 Y89.9567 Z-4.1333 I-0.05 J0.0
G2 Y90.0433 Z-4.2667 I0.025 J0.0433
G2 X-119.45 Y90.0 Z-4.4 I0.025 J-0.0433
G2 X-119.525 Y89.9567 Z-4.5333 I-0.05 J0.0
G2 Y90.0433 Z-4.6667 I0.025 J0.0433
G2 X-119.45 Y90.0 Z-4.8 I0.025 J-0.0433
G2 X-119.525 Y89.9567 Z-4.9333 I-0.05 J0.0
G2 Y90.0433 Z-5.0667 I0.025 J0.0433
G2 X-119.45 Y90.0 Z-5.2 I0.025 J-0.0433
G2 X-119.5 Y89.95 Z-5.3 I-0.05 J0.0
G2 X-119.5433 Y90.025 I0.0 J0.05
G2 X-119.4567 I0.0433 J-0.025
G2 X-119.5 Y89.95 I-0.0433 J-0.025
G0 Z25.0
G0 X-119.45 Y70.0
G0 Z1.0
G1 F300.0 Z0.0
G2 F800.0 X-119.525 Y69.9567 Z-0.1333 I-0.05 J0.0
G2 Y70.0433 Z-0.2667 I0.025 J0.0433
G2 X-119.45 Y70.0 Z-0.4 I0.025 J-0.0433
G2 X-119.525 Y69.9567 Z-0.5333 I-0.05 J0.0
G2 Y70.0433 Z-0.6667 I0.025 J0.0433
G2 X-119.45 Y70.0 Z-0.8 I0.025 J-0.0433
G2 X-119.525 Y69.9567 Z-0.9333 I-0.05 J0.0
G2 Y70.0433 Z-1.0667 I0.025 J0.0433
G2 X-119.45 Y70.0 Z-1.2 I0.025 J-0.0433
G2 X-119.525 Y69.9567 Z-1.3333 I-0.05 J0.0
G2 Y70.0433 Z-1.4667 I0.025 J0.0433
G2 X-119.45 Y70.0 Z-1.6 I0.025 J-0.0433
G2 X-119.525 Y69.9567 Z-1.7333 I-0.05 J0.0
G2 Y70.0433 Z-1.8667 I0.025 J0.0433
G2 X-119.45 Y70.0 Z-2.0 I0.025 J-0.0433
G2 X-119.525 Y69.9567 Z-2.1333 I-0.05 J0.0
G2 Y70.0433 Z-2.2667 I0.025 J0.0433
G2 X-119.45 Y70.0 Z-2.4 I0.025 J-0.0433
G2 X-119.525 Y69.9567 Z-2.5333 I-0.05 J0.0
G2 Y70.0433 Z-2.6667 I0.025 J0.0433
G2 X-119.45 Y70.0 Z-2.8 I0.025 J-0.0433
G2 X-119.525 Y69.9567 Z-2.9333 I-0.05 J0.0
G2 Y70.0433 Z-3.0667 I0.025 J0.0433
G2 X-119.45 Y70.0 Z-3.2 I0.025 J-0.0433
G2 X-119.525 Y69.9567 Z-3.3333 I-0.05 J0.0
G2 Y70.0433 Z-3.4667 I0.025 J0.0433
G2 X-119.45 Y70.0 Z-3.6 I0.025 J-0.0433
G2 X-119.525 Y69.9567 Z-3.7333 I-0.05 J0.0
G2 Y70.0433 Z-3.8667 I0.025 J0.0433
G2 X-119.45 Y70.0 Z-4.0 I0.025 J-0.0433
G2 X-119.525 Y69.9567 Z-4.1333 I-0.05 J0.0
G2 Y70.0433 Z-4.2667 I0.025 J0.0433
G2 X-119.45 Y70.0 Z-4.4 I0.025 J-0.0433
G2 X-119.525 Y69.9567 Z-4.5333 I-0.05 J0.0
G2 Y70.0433 Z-4.6667 I0.025 J0.0433
G2 X-119.45 Y70.0 Z-4.8 I0.025 J-0.0433
G2 X-119.525 Y69.9567 Z-4.9333 I-0.05 J0.0
G2 Y70.0433 Z-5.0667 I0.025 J0.0433
G2 X-119.45 Y70.0 Z-5.2 I0.025 J-0.0433
G2 X-119.5 Y69.95 Z-5.3 I-0.05 J0.0
G2 X-119.5433 Y70.025 I0.0 J0.05
G2 X-119.4567 I0.0433 J-0.025
G2 X-119.5 Y69.95 I-0.0433 J-0.025
G0 Z25.0
G0 X-80.45 Y90.0
G0 Z1.0
G1 F300.0 Z0.0
G2 F800.0 X-80.525 Y89.9567 Z-0.1333 I-0.05 J0.0
G2 Y90.0433 Z-0.2667 I0.025 J0.0433
G2 X-80.45 Y90.0 Z-0.4 I0.025 J-0.0433
G2 X-80.525 Y89.9567 Z-0.5333 I-0.05 J0.0
G2 Y90.0433 Z-0.6667 I0.025 J0.0433
G2 X-80.45 Y90.0 Z-0.8 I0.025 J-0.0433
G2 X-80.525 Y89.9567 Z-0.9333 I-0.05 J0.0
G2 Y90.0433 Z-1.0667 I0.025 J0.0433
G2 X-80.45 Y90.0 Z-1.2 I0.025 J-0.0433
G2 X-80.525 Y89.9567 Z-1.3333 I-0.05 J0.0
G2 Y90.0433 Z-1.4667 I0.025 J0.0433
G2 X-80.45 Y90.0 Z-1.6 I0.025 J-0.0433
G2 X-80.525 Y89.9567 Z-1.7333 I-0.05 J0.0
G2 Y90.0433 Z-1.8667 I0.025 J0.0433
G2 X-80.45 Y90.0 Z-2.0 I0.025 J-0.0433
G2 X-80.525 Y89.9567 Z-2.1333 I-0.05 J0.0
G2 Y90.0433 Z-2.2667 I0.025 J0.0433
G2 X-80.45 Y90.0 Z-2.4 I0.025 J-0.0433
G2 X-80.525 Y89.9567 Z-2.5333 I-0.05 J0.0
G2 Y90.0433 Z-2.6667 I0.025 J0.0433
G2 X-80.45 Y90.0 Z-2.8 I0.025 J-0.0433
G2 X-80.525 Y89.9567 Z-2.9333 I-0.05 J0.0
G2 Y90.0433 Z-3.0667 I0.025 J0.0433
G2 X-80.45 Y90.0 Z-3.2 I0.025 J-0.0433
G2 X-80.525 Y89.9567 Z-3.3333 I-0.05 J0.0
G2 Y90.0433 Z-3.4667 I0.025 J0.0433
G2 X-80.45 Y90.0 Z-3.6 I0.025 J-0.0433
G2 X-80.525 Y89.9567 Z-3.7333 I-0.05 J0.0
G2 Y90.0433 Z-3.8667 I0.025 J0.0433
G2 X-80.45 Y90.0 Z-4.0 I0.025 J-0.0433
G2 X-80.525 Y89.9567 Z-4.1333 I-0.05 J0.0
G2 Y90.0433 Z-4.2667 I0.025 J0.0433
G2 X-80.45 Y90.0 Z-4.4 I0.025 J-0.0433
G2 X-80.525 Y89.9567 Z-4.5333 I-0.05 J0.0
G2 Y90.0433 Z-4.6667 I0.025 J0.0433
G2 X-80.45 Y90.0 Z-4.8 I0.025 J-0.0433
G2 X-80.525 Y89.9567 Z-4.9333 I-0.05 J0.0
G2 Y90.0433 Z-5.0667 I0.025 J0.0433
G2 X-80.45 Y90.0 Z-5.2 I0.025 J-0.0433
G2 X-80.5 Y89.95 Z-5.3 I-0.05 J0.0
G2 X-80.5433 Y90.025 I0.0 J0.05
G2 X-80.4567 I0.0433 J-0.025
G2 X-80.5 Y89.95 I-0.0433 J-0.025
G0 Z25.0
G0 X80.55 Y90.0
G0 Z1.0
G1 F300.0 Z0.0
G2 F800.0 X80.475 Y89.9567 Z-0.1333 I-0.05 J0.0
G2 Y90.0433 Z-0.2667 I0.025 J0.0433
G2 X80.55 Y90.0 Z-0.4 I0.025 J-0.0433
G2 X80.475 Y89.9567 Z-0.5333 I-0.05 J0.0
G2 Y90.0433 Z-0.6667 I0.025 J0.0433
G2 X80.55 Y90.0 Z-0.8 I0.025 J-0.0433
G2 X80.475 Y89.9567 Z-0.9333 I-0.05 J0.0
G2 Y90.0433 Z-1.0667 I0.025 J0.0433
G2 X80.55 Y90.0 Z-1.2 I0.025 J-0.0433
G2 X80.475 Y89.9567 Z-1.3333 I-0.05 J0.0
G2 Y90.0433 Z-1.4667 I0.025 J0.0433
G2 X80.55 Y90.0 Z-1.6 I0.025 J-0.0433
G2 X80.475 Y89.9567 Z-1.7333 I-0.05 J0.0
G2 Y90.0433 Z-1.8667 I0.025 J0.0433
G2 X80.55 Y90.0 Z-2.0 I0.025 J-0.0433
G2 X80.475 Y89.9567 Z-2.1333 I-0.05 J0.0
G2 Y90.0433 Z-2.2667 I0.025 J0.0433
G2 X80.55 Y90.0 Z-2.4 I0.025 J-0.0433
G2 X80.475 Y89.9567 Z-2.5333 I-0.05 J0.0
G2 Y90.0433 Z-2.6667 I0.025 J0.0433
G2 X80.55 Y90.0 Z-2.8 I0.025 J-0.0433
G2 X80.475 Y89.9567 Z-2.9333 I-0.05 J0.0
G2 Y90.0433 Z-3.0667 I0.025 J0.0433
G2 X80.55 Y90.0 Z-3.2 I0.025 J-0.0433
G2 X80.475 Y89.9567 Z-3.3333 I-0.05 J0.0
G2 Y90.0433 Z-3.4667 I0.025 J0.0433
G2 X80.55 Y90.0 Z-3.6 I0.025 J-0.0433
G2 X80.475 Y89.9567 Z-3.7333 I-0.05 J0.0
G2 Y90.0433 Z-3.8667 I0.025 J0.0433
G2 X80.55 Y90.0 Z-4.0 I0.025 J-0.0433
G2 X80.475 Y89.9567 Z-4.1333 I-0.05 J0.0
G2 Y90.0433 Z-4.2667 I0.025 J0.0433
G2 X80.55 Y90.0 Z-4.4 I0.025 J-0.0433
G2 X80.475 Y89.9567 Z-4.5333 I-0.05 J0.0
G2 Y90.0433 Z-4.6667 I0.025 J0.0433
G2 X80.55 Y90.0 Z-4.8 I0.025 J-0.0433
G2 X80.475 Y89.9567 Z-4.9333 I-0.05 J0.0
G2 Y90.0433 Z-5.0667 I0.025 J0.0433
G2 X80.55 Y90.0 Z-5.2 I0.025 J-0.0433
G2 X80.5 Y89.95 Z-5.3 I-0.05 J0.0
G2 X80.4567 Y90.025 I0.0 J0.05
G2 X80.5433 I0.0433 J-0.025
G2 X80.5 Y89.95 I-0.0433 J-0.025
G0 Z25.0
G0 X119.55 Y90.0
G0 Z1.0
G1 F300.0 Z0.0
G2 F800.0 X119.475 Y89.9567 Z-0.1333 I-0.05 J0.0
G2 Y90.0433 Z-0.2667 I0.025 J0.0433
G2 X119.55 Y90.0 Z-0.4 I0.025 J-0.0433
G2 X119.475 Y89.9567 Z-0.5333 I-0.05 J0.0
G2 Y90.0433 Z-0.6667 I0.025 J0.0433
G2 X119.55 Y90.0 Z-0.8 I0.025 J-0.0433
G2 X119.475 Y89.9567 Z-0.9333 I-0.05 J0.0
G2 Y90.0433 Z-1.0667 I0.025 J0.0433
G2 X119.55 Y90.0 Z-1.2 I0.025 J-0.0433
G2 X119.475 Y89.9567 Z-1.3333 I-0.05 J0.0
G2 Y90.0433 Z-1.4667 I0.025 J0.0433
G2 X119.55 Y90.0 Z-1.6 I0.025 J-0.0433
G2 X119.475 Y89.9567 Z-1.7333 I-0.05 J0.0
G2 Y90.0433 Z-1.8667 I0.025 J0.0433
G2 X119.55 Y90.0 Z-2.0 I0.025 J-0.0433
G2 X119.475 Y89.9567 Z-2.1333 I-0.05 J0.0
G2 Y90.0433 Z-2.2667 I0.025 J0.0433
G2 X119.55 Y90.0 Z-2.4 I0.025 J-0.0433
G2 X119.475 Y89.9567 Z-2.5333 I-0.05 J0.0
G2 Y90.0433 Z-2.6667 I0.025 J0.0433
G2 X119.55 Y90.0 Z-2.8 I0.025 J-0.0433
G2 X119.475 Y89.9567 Z-2.9333 I-0.05 J0.0
G2 Y90.0433 Z-3.0667 I0.025 J0.0433
G2 X119.55 Y90.0 Z-3.2 I0.025 J-0.0433
G2 X119.475 Y89.9567 Z-3.3333 I-0.05 J0.0
G2 Y90.0433 Z-3.4667 I0.025 J0.0433
G2 X119.55 Y90.0 Z-3.6 I0.025 J-0.0433
G2 X119.475 Y89.9567 Z-3.7333 I-0.05 J0.0
G2 Y90.0433 Z-3.8667 I0.025 J0.0433
G2 X119.55 Y90.0 Z-4.0 I0.025 J-0.0433
G2 X119.475 Y89.9567 Z-4.1333 I-0.05 J0.0
G2 Y90.0433 Z-4.2667 I0.025 J0.0433
G2 X119.55 Y90.0 Z-4.4 I0.025 J-0.0433
G2 X119.475 Y89.9567 Z-4.5333 I-0.05 J0.0
G2 Y90.0433 Z-4.6667 I0.025 J0.0433
G2 X119.55 Y90.0 Z-4.8 I0.025 J-0.0433
G2 X119.475 Y89.9567 Z-4.9333 I-0.05 J0.0
G2 Y90.0433 Z-5.0667 I0.025 J0.0433
G2 X119.55 Y90.0 Z-5.2 I0.025 J-0.0433
G2 X119.5 Y89.95 Z-5.3 I-0.05 J0.0
G2 X119.4567 Y90.025 I0.0 J0.05
G2 X119.5433 I0.0433 J-0.025
G2 X119.5 Y89.95 I-0.0433 J-0.025
G0 Z25.0
G0 X119.55 Y70.0
G0 Z1.0
G1 F300.0 Z0.0
G2 F800.0 X119.475 Y69.9567 Z-0.1333 I-0.05 J0.0
G2 Y70.0433 Z-0.2667 I0.025 J0.0433
G2 X119.55 Y70.0 Z-0.4 I0.025 J-0.0433
G2 X119.475 Y69.9567 Z-0.5333 I-0.05 J0.0
G2 Y70.0433 Z-0.6667 I0.025 J0.0433
G2 X119.55 Y70.0 Z-0.8 I0.025 J-0.0433
G2 X119.475 Y69.9567 Z-0.9333 I-0.05 J0.0
G2 Y70.0433 Z-1.0667 I0.025 J0.0433
G2 X119.55 Y70.0 Z-1.2 I0.025 J-0.0433
G2 X119.475 Y69.9567 Z-1.3333 I-0.05 J0.0
G2 Y70.0433 Z-1.4667 I0.025 J0.0433
G2 X119.55 Y70.0 Z-1.6 I0.025 J-0.0433
G2 X119.475 Y69.9567 Z-1.7333 I-0.05 J0.0
G2 Y70.0433 Z-1.8667 I0.025 J0.0433
G2 X119.55 Y70.0 Z-2.0 I0.025 J-0.0433
G2 X119.475 Y69.9567 Z-2.1333 I-0.05 J0.0
G2 Y70.0433 Z-2.2667 I0.025 J0.0433
G2 X119.55 Y70.0 Z-2.4 I0.025 J-0.0433
G2 X119.475 Y69.9567 Z-2.5333 I-0.05 J0.0
G2 Y70.0433 Z-2.6667 I0.025 J0.0433
G2 X119.55 Y70.0 Z-2.8 I0.025 J-0.0433
G2 X119.475 Y69.9567 Z-2.9333 I-0.05 J0.0
G2 Y70.0433 Z-3.0667 I0.025 J0.0433
G2 X119.55 Y70.0 Z-3.2 I0.025 J-0.0433
G2 X119.475 Y69.9567 Z-3.3333 I-0.05 J0.0
G2 Y70.0433 Z-3.4667 I0.025 J0.0433
G2 X119.55 Y70.0 Z-3.6 I0.025 J-0.0433
G2 X119.475 Y69.9567 Z-3.7333 I-0.05 J0.0
G2 Y70.0433 Z-3.8667 I0.025 J0.0433
G2 X119.55 Y70.0 Z-4.0 I0.025 J-0.0433
G2 X119.475 Y69.9567 Z-4.1333 I-0.05 J0.0
G2 Y70.0433 Z-4.2667 I0.025 J0.0433
G2 X119.55 Y70.0 Z-4.4 I0.025 J-0.0433
G2 X119.475 Y69.9567 Z-4.5333 I-0.05 J0.0
G2 Y70.0433 Z-4.6667 I0.025 J0.0433
G2 X119.55 Y70.0 Z-4.8 I0.025 J-0.0433
G2 X119.475 Y69.9567 Z-4.9333 I-0.05 J0.0
G2 Y70.0433 Z-5.0667 I0.025 J0.0433
G2 X119.55 Y70.0 Z-5.2 I0.025 J-0.0433
G2 X119.5 Y69.95 Z-5.3 I-0.05 J0.0
G2 X119.4567 Y70.025 I0.0 J0.05
G2 X119.5433 I0.0433 J-0.025
G2 X119.5 Y69.95 I-0.0433 J-0.025
G0 Z25.0
G0 X119.55 Y-70.0
G0 Z1.0
G1 F300.0 Z0.0
G2 F800.0 X119.475 Y-70.0433 Z-0.1333 I-0.05 J0.0
G2 Y-69.9567 Z-0.2667 I0.025 J0.0433
G2 X119.55 Y-70.0 Z-0.4 I0.025 J-0.0433
G2 X119.475 Y-70.0433 Z-0.5333 I-0.05 J0.0
G2 Y-69.9567 Z-0.6667 I0.025 J0.0433
G2 X119.55 Y-70.0 Z-0.8 I0.025 J-0.0433
G2 X119.475 Y-70.0433 Z-0.9333 I-0.05 J0.0
G2 Y-69.9567 Z-1.0667 I0.025 J0.0433
G2 X119.55 Y-70.0 Z-1.2 I0.025 J-0.0433
G2 X119.475 Y-70.0433 Z-1.3333 I-0.05 J0.0
G2 Y-69.9567 Z-1.4667 I0.025 J0.0433
G2 X119.55 Y-70.0 Z-1.6 I0.025 J-0.0433
G2 X119.475 Y-70.0433 Z-1.7333 I-0.05 J0.0
G2 Y-69.9567 Z-1.8667 I0.025 J0.0433
G2 X119.55 Y-70.0 Z-2.0 I0.025 J-0.0433
G2 X119.475 Y-70.0433 Z-2.1333 I-0.05 J0.0
G2 Y-69.9567 Z-2.2667 I0.025 J0.0433
G2 X119.55 Y-70.0 Z-2.4 I0.025 J-0.0433
G2 X119.475 Y-70.0433 Z-2.5333 I-0.05 J0.0
G2 Y-69.9567 Z-2.6667 I0.025 J0.0433
G2 X119.55 Y-70.0 Z-2.8 I0.025 J-0.0433
G2 X119.475 Y-70.0433 Z-2.9333 I-0.05 J0.0
G2 Y-69.9567 Z-3.0667 I0.025 J0.0433
G2 X119.55 Y-70.0 Z-3.2 I0.025 J-0.0433
G2 X119.475 Y-70.0433 Z-3.3333 I-0.05 J0.0
G2 Y-69.9567 Z-3.4667 I0.025 J0.0433
G2 X119.55 Y-70.0 Z-3.6 I0.025 J-0.0433
G2 X119.475 Y-70.0433 Z-3.7333 I-0.05 J0.0
G2 Y-69.9567 Z-3.8667 I0.025 J0.0433
G2 X119.55 Y-70.0 Z-4.0 I0.025 J-0.0433
G2 X119.475 Y-70.0433 Z-4.1333 I-0.05 J0.0
G2 Y-69.9567 Z-4.2667 I0.025 J0.0433
G2 X119.55 Y-70.0 Z-4.4 I0.025 J-0.0433
G2 X119.475 Y-70.0433 Z-4.5333 I-0.05 J0.0
G2 Y-69.9567 Z-4.6667 I0.025 J0.0433
G2 X119.55 Y-70.0 Z-4.8 I0.025 J-0.0433
G2 X119.475 Y-70.0433 Z-4.9333 I-0.05 J0.0
G2 Y-69.9567 Z-5.0667 I0.025 J0.0433
G2 X119.55 Y-70.0 Z-5.2 I0.025 J-0.0433
G2 X119.5 Y-70.05 Z-5.3 I-0.05 J0.0
G2 X119.4567 Y-69.975 I0.0 J0.05
G2 X119.5433 I0.0433 J-0.025
G2 X119.5 Y-70.05 I-0.0433 J-0.025
G0 Z25.0
G0 X119.55 Y-90.0
G0 Z1.0
G1 F300.0 Z0.0
G2 F800.0 X119.475 Y-90.0433 Z-0.1333 I-0.05 J0.0
G2 Y-89.9567 Z-0.2667 I0.025 J0.0433
G2 X119.55 Y-90.0 Z-0.4 I0.025 J-0.0433
G2 X119.475 Y-90.0433 Z-0.5333 I-0.05 J0.0
G2 Y-89.9567 Z-0.6667 I0.025 J0.0433
G2 X119.55 Y-90.0 Z-0.8 I0.025 J-0.0433
G2 X119.475 Y-90.0433 Z-0.9333 I-0.05 J0.0
G2 Y-89.9567 Z-1.0667 I0.025 J0.0433
G2 X119.55 Y-90.0 Z-1.2 I0.025 J-0.0433
G2 X119.475 Y-90.0433 Z-1.3333 I-0.05 J0.0
G2 Y-89.9567 Z-1.4667 I0.025 J0.0433
G2 X119.55 Y-90.0 Z-1.6 I0.025 J-0.0433
G2 X119.475 Y-90.0433 Z-1.7333 I-0.05 J0.0
G2 Y-89.9567 Z-1.8667 I0.025 J0.0433
G2 X119.55 Y-90.0 Z-2.0 I0.025 J-0.0433
G2 X119.475 Y-90.0433 Z-2.1333 I-0.05 J0.0
G2 Y-89.9567 Z-2.2667 I0.025 J0.0433
G2 X119.55 Y-90.0 Z-2.4 I0.025 J-0.0433
G2 X119.475 Y-90.0433 Z-2.5333 I-0.05 J0.0
G2 Y-89.9567 Z-2.6667 I0.025 J0.0433
G2 X119.55 Y-90.0 Z-2.8 I0.025 J-0.0433
G2 X119.475 Y-90.0433 Z-2.9333 I-0.05 J0.0
G2 Y-89.9567 Z-3.0667 I0.025 J0.0433
G2 X119.55 Y-90.0 Z-3.2 I0.025 J-0.0433
G2 X119.475 Y-90.0433 Z-3.3333 I-0.05 J0.0
G2 Y-89.9567 Z-3.4667 I0.025 J0.0433
G2 X119.55 Y-90.0 Z-3.6 I0.025 J-0.0433
G2 X119.475 Y-90.0433 Z-3.7333 I-0.05 J0.0
G2 Y-89.9567 Z-3.8667 I0.025 J0.0433
G2 X119.55 Y-90.0 Z-4.0 I0.025 J-0.0433
G2 X119.475 Y-90.0433 Z-4.1333 I-0.05 J0.0
G2 Y-89.9567 Z-4.2667 I0.025 J0.0433
G2 X119.55 Y-90.0 Z-4.4 I0.025 J-0.0433
G2 X119.475 Y-90.0433 Z-4.5333 I-0.05 J0.0
G2 Y-89.9567 Z-4.6667 I0.025 J0.0433
G2 X119.55 Y-90.0 Z-4.8 I0.025 J-0.0433
G2 X119.475 Y-90.0433 Z-4.9333 I-0.05 J0.0
G2 Y-89.9567 Z-5.0667 I0.025 J0.0433
G2 X119.55 Y-90.0 Z-5.2 I0.025 J-0.0433
G2 X119.5 Y-90.05 Z-5.3 I-0.05 J0.0
G2 X119.4567 Y-89.975 I0.0 J0.05
G2 X119.5433 I0.0433 J-0.025
G2 X119.5 Y-90.05 I-0.0433 J-0.025
G0 Z25.0
G0 X80.55 Y-90.0
G0 Z1.0
G1 F300.0 Z0.0
G2 F800.0 X80.475 Y-90.0433 Z-0.1333 I-0.05 J0.0
G2 Y-89.9567 Z-0.2667 I0.025 J0.0433
G2 X80.55 Y-90.0 Z-0.4 I0.025 J-0.0433
G2 X80.475 Y-90.0433 Z-0.5333 I-0.05 J0.0
G2 Y-89.9567 Z-0.6667 I0.025 J0.0433
G2 X80.55 Y-90.0 Z-0.8 I0.025 J-0.0433
G2 X80.475 Y-90.0433 Z-0.9333 I-0.05 J0.0
G2 Y-89.9567 Z-1.0667 I0.025 J0.0433
G2 X80.55 Y-90.0 Z-1.2 I0.025 J-0.0433
G2 X80.475 Y-90.0433 Z-1.3333 I-0.05 J0.0
G2 Y-89.9567 Z-1.4667 I0.025 J0.0433
G2 X80.55 Y-90.0 Z-1.6 I0.025 J-0.0433
G2 X80.475 Y-90.0433 Z-1.7333 I-0.05 J0.0
G2 Y-89.9567 Z-1.8667 I0.025 J0.0433
G2 X80.55 Y-90.0 Z-2.0 I0.025 J-0.0433
G2 X80.475 Y-90.0433 Z-2.1333 I-0.05 J0.0
G2 Y-89.9567 Z-2.2667 I0.025 J0.0433
G2 X80.55 Y-90.0 Z-2.4 I0.025 J-0.0433
G2 X80.475 Y-90.0433 Z-2.5333 I-0.05 J0.0
G2 Y-89.9567 Z-2.6667 I0.025 J0.0433
G2 X80.55 Y-90.0 Z-2.8 I0.025 J-0.0433
G2 X80.475 Y-90.0433 Z-2.9333 I-0.05 J0.0
G2 Y-89.9567 Z-3.0667 I0.025 J0.0433
G2 X80.55 Y-90.0 Z-3.2 I0.025 J-0.0433
G2 X80.475 Y-90.0433 Z-3.3333 I-0.05 J0.0
G2 Y-89.9567 Z-3.4667 I0.025 J0.0433
G2 X80.55 Y-90.0 Z-3.6 I0.025 J-0.0433
G2 X80.475 Y-90.0433 Z-3.7333 I-0.05 J0.0
G2 Y-89.9567 Z-3.8667 I0.025 J0.0433
G2 X80.55 Y-90.0 Z-4.0 I0.025 J-0.0433
G2 X80.475 Y-90.0433 Z-4.1333 I-0.05 J0.0
G2 Y-89.9567 Z-4.2667 I0.025 J0.0433
G2 X80.55 Y-90.0 Z-4.4 I0.025 J-0.0433
G2 X80.475 Y-90.0433 Z-4.5333 I-0.05 J0.0
G2 Y-89.9567 Z-4.6667 I0.025 J0.0433
G2 X80.55 Y-90.0 Z-4.8 I0.025 J-0.0433
G2 X80.475 Y-90.0433 Z-4.9333 I-0.05 J0.0
G2 Y-89.9567 Z-5.0667 I0.025 J0.0433
G2 X80.55 Y-90.0 Z-5.2 I0.025 J-0.0433
G2 X80.5 Y-90.05 Z-5.3 I-0.05 J0.0
G2 X80.4567 Y-89.975 I0.0 J0.05
G2 X80.5433 I0.0433 J-0.025
G2 X80.5 Y-90.05 I-0.0433 J-0.025
G0 Z25.0
G0 X-80.45 Y-90.0
G0 Z1.0
G1 F300.0 Z0.0
G2 F800.0 X-80.525 Y-90.0433 Z-0.1333 I-0.05 J0.0
G2 Y-89.9567 Z-0.2667 I0.025 J0.0433
G2 X-80.45 Y-90.0 Z-0.4 I0.025 J-0.0433
G2 X-80.525 Y-90.0433 Z-0.5333 I-0.05 J0.0
G2 Y-89.9567 Z-0.6667 I0.025 J0.0433
G2 X-80.45 Y-90.0 Z-0.8 I0.025 J-0.0433
G2 X-80.525 Y-90.0433 Z-0.9333 I-0.05 J0.0
G2 Y-89.9567 Z-1.0667 I0.025 J0.0433
G2 X-80.45 Y-90.0 Z-1.2 I0.025 J-0.0433
G2 X-80.525 Y-90.0433 Z-1.3333 I-0.05 J0.0
G2 Y-89.9567 Z-1.4667 I0.025 J0.0433
G2 X-80.45 Y-90.0 Z-1.6 I0.025 J-0.0433
G2 X-80.525 Y-90.0433 Z-1.7333 I-0.05 J0.0
G2 Y-89.9567 Z-1.8667 I0.025 J0.0433
G2 X-80.45 Y-90.0 Z-2.0 I0.025 J-0.0433
G2 X-80.525 Y-90.0433 Z-2.1333 I-0.05 J0.0
G2 Y-89.9567 Z-2.2667 I0.025 J0.0433
G2 X-80.45 Y-90.0 Z-2.4 I0.025 J-0.0433
G2 X-80.525 Y-90.0433 Z-2.5333 I-0.05 J0.0
G2 Y-89.9567 Z-2.6667 I0.025 J0.0433
G2 X-80.45 Y-90.0 Z-2.8 I0.025 J-0.0433
G2 X-80.525 Y-90.0433 Z-2.9333 I-0.05 J0.0
G2 Y-89.9567 Z-3.0667 I0.025 J0.0433
G2 X-80.45 Y-90.0 Z-3.2 I0.025 J-0.0433
G2 X-80.525 Y-90.0433 Z-3.3333 I-0.05 J0.0
G2 Y-89.9567 Z-3.4667 I0.025 J0.0433
G2 X-80.45 Y-90.0 Z-3.6 I0.025 J-0.0433
G2 X-80.525 Y-90.0433 Z-3.7333 I-0.05 J0.0
G2 Y-89.9567 Z-3.8667 I0.025 J0.0433
G2 X-80.45 Y-90.0 Z-4.0 I0.025 J-0.0433
G2 X-80.525 Y-90.0433 Z-4.1333 I-0.05 J0.0
G2 Y-89.9567 Z-4.2667 I0.025 J0.0433
G2 X-80.45 Y-90.0 Z-4.4 I0.025 J-0.0433
G2 X-80.525 Y-90.0433 Z-4.5333 I-0.05 J0.0
G2 Y-89.9567 Z-4.6667 I0.025 J0.0433
G2 X-80.45 Y-90.0 Z-4.8 I0.025 J-0.0433
G2 X-80.525 Y-90.0433 Z-4.9333 I-0.05 J0.0
G2 Y-89.9567 Z-5.0667 I0.025 J0.0433
G2 X-80.45 Y-90.0 Z-5.2 I0.025 J-0.0433
G2 X-80.5 Y-90.05 Z-5.3 I-0.05 J0.0
G2 X-80.5433 Y-89.975 I0.0 J0.05
G2 X-80.4567 I0.0433 J-0.025
G2 X-80.5 Y-90.05 I-0.0433 J-0.025
G0 Z25.0
G0 X-119.45 Y-90.0
G0 Z1.0
G1 F300.0 Z0.0
G2 F800.0 X-119.525 Y-90.0433 Z-0.1333 I-0.05 J0.0
G2 Y-89.9567 Z-0.2667 I0.025 J0.0433
G2 X-119.45 Y-90.0 Z-0.4 I0.025 J-0.0433
G2 X-119.525 Y-90.0433 Z-0.5333 I-0.05 J0.0
G2 Y-89.9567 Z-0.6667 I0.025 J0.0433
G2 X-119.45 Y-90.0 Z-0.8 I0.025 J-0.0433
G2 X-119.525 Y-90.0433 Z-0.9333 I-0.05 J0.0
G2 Y-89.9567 Z-1.0667 I0.025 J0.0433
G2 X-119.45 Y-90.0 Z-1.2 I0.025 J-0.0433
G2 X-119.525 Y-90.0433 Z-1.3333 I-0.05 J0.0
G2 Y-89.9567 Z-1.4667 I0.025 J0.0433
G2 X-119.45 Y-90.0 Z-1.6 I0.025 J-0.0433
G2 X-119.525 Y-90.0433 Z-1.7333 I-0.05 J0.0
G2 Y-89.9567 Z-1.8667 I0.025 J0.0433
G2 X-119.45 Y-90.0 Z-2.0 I0.025 J-0.0433
G2 X-119.525 Y-90.0433 Z-2.1333 I-0.05 J0.0
G2 Y-89.9567 Z-2.2667 I0.025 J0.0433
G2 X-119.45 Y-90.0 Z-2.4 I0.025 J-0.0433
G2 X-119.525 Y-90.0433 Z-2.5333 I-0.05 J0.0
G2 Y-89.9567 Z-2.6667 I0.025 J0.0433
G2 X-119.45 Y-90.0 Z-2.8 I0.025 J-0.0433
G2 X-119.525 Y-90.0433 Z-2.9333 I-0.05 J0.0
G2 Y-89.9567 Z-3.0667 I0.025 J0.0433
G2 X-119.45 Y-90.0 Z-3.2 I0.025 J-0.0433
G2 X-119.525 Y-90.0433 Z-3.3333 I-0.05 J0.0
G2 Y-89.9567 Z-3.4667 I0.025 J0.0433
G2 X-119.45 Y-90.0 Z-3.6 I0.025 J-0.0433
G2 X-119.525 Y-90.0433 Z-3.7333 I-0.05 J0.0
G2 Y-89.9567 Z-3.8667 I0.025 J0.0433
G2 X-119.45 Y-90.0 Z-4.0 I0.025 J-0.0433
G2 X-119.525 Y-90.0433 Z-4.1333 I-0.05 J0.0
G2 Y-89.9567 Z-4.2667 I0.025 J0.0433
G2 X-119.45 Y-90.0 Z-4.4 I0.025 J-0.0433
G2 X-119.525 Y-90.0433 Z-4.5333 I-0.05 J0.0
G2 Y-89.9567 Z-4.6667 I0.025 J0.0433
G2 X-119.45 Y-90.0 Z-4.8 I0.025 J-0.0433
G2 X-119.525 Y-90.0433 Z-4.9333 I-0.05 J0.0
G2 Y-89.9567 Z-5.0667 I0.025 J0.0433
G2 X-119.45 Y-90.0 Z-5.2 I0.025 J-0.0433
G2 X-119.5 Y-90.05 Z-5.3 I-0.05 J0.0
G2 X-119.5433 Y-89.975 I0.0 J0.05
G2 X-119.4567 I0.0433 J-0.025
G2 X-119.5 Y-90.05 I-0.0433 J-0.025
G0 Z25.0
G0 X-119.45 Y-70.0
G0 Z1.0
G1 F300.0 Z0.0
G2 F800.0 X-119.525 Y-70.0433 Z-0.1333 I-0.05 J0.0
G2 Y-69.9567 Z-0.2667 I0.025 J0.0433
G2 X-119.45 Y-70.0 Z-0.4 I0.025 J-0.0433
G2 X-119.525 Y-70.0433 Z-0.5333 I-0.05 J0.0
G2 Y-69.9567 Z-0.6667 I0.025 J0.0433
G2 X-119.45 Y-70.0 Z-0.8 I0.025 J-0.0433
G2 X-119.525 Y-70.0433 Z-0.9333 I-0.05 J0.0
G2 Y-69.9567 Z-1.0667 I0.025 J0.0433
G2 X-119.45 Y-70.0 Z-1.2 I0.025 J-0.0433
G2 X-119.525 Y-70.0433 Z-1.3333 I-0.05 J0.0
G2 Y-69.9567 Z-1.4667 I0.025 J0.0433
G2 X-119.45 Y-70.0 Z-1.6 I0.025 J-0.0433
G2 X-119.525 Y-70.0433 Z-1.7333 I-0.05 J0.0
G2 Y-69.9567 Z-1.8667 I0.025 J0.0433
G2 X-119.45 Y-70.0 Z-2.0 I0.025 J-0.0433
G2 X-119.525 Y-70.0433 Z-2.1333 I-0.05 J0.0
G2 Y-69.9567 Z-2.2667 I0.025 J0.0433
G2 X-119.45 Y-70.0 Z-2.4 I0.025 J-0.0433
G2 X-119.525 Y-70.0433 Z-2.5333 I-0.05 J0.0
G2 Y-69.9567 Z-2.6667 I0.025 J0.0433
G2 X-119.45 Y-70.0 Z-2.8 I0.025 J-0.0433
G2 X-119.525 Y-70.0433 Z-2.9333 I-0.05 J0.0
G2 Y-69.9567 Z-3.0667 I0.025 J0.0433
G2 X-119.45 Y-70.0 Z-3.2 I0.025 J-0.0433
G2 X-119.525 Y-70.0433 Z-3.3333 I-0.05 J0.0
G2 Y-69.9567 Z-3.4667 I0.025 J0.0433
G2 X-119.45 Y-70.0 Z-3.6 I0.025 J-0.0433
G2 X-119.525 Y-70.0433 Z-3.7333 I-0.05 J0.0
G2 Y-69.9567 Z-3.8667 I0.025 J0.0433
G2 X-119.45 Y-70.0 Z-4.0 I0.025 J-0.0433
G2 X-119.525 Y-70.0433 Z-4.1333 I-0.05 J0.0
G2 Y-69.9567 Z-4.2667 I0.025 J0.0433
G2 X-119.45 Y-70.0 Z-4.4 I0.025 J-0.0433
G2 X-119.525 Y-70.0433 Z-4.5333 I-0.05 J0.0
G2 Y-69.9567 Z-4.6667 I0.025 J0.0433
G2 X-119.45 Y-70.0 Z-4.8 I0.025 J-0.0433
G2 X-119.525 Y-70.0433 Z-4.9333 I-0.05 J0.0
G2 Y-69.9567 Z-5.0667 I0.025 J0.0433
G2 X-119.45 Y-70.0 Z-5.2 I0.025 J-0.0433
G2 X-119.5 Y-70.05 Z-5.3 I-0.05 J0.0
G2 X-119.5433 Y-69.975 I0.0 J0.05
G2 X-119.4567 I0.0433 J-0.025
G2 X-119.5 Y-70.05 I-0.0433 J-0.025
G0 Z25.0
M5
M30
