( Made using CamBam - http://www.cambam.co.uk )
( vacuum table20x20 8/5/2016 8:48:58 PM )
( T0 : 2.9 )
G21 G90 G64 G40
G0 Z40.0
( T0 : 2.9 )
T0 M6
( drill_holes )
G17
M3 S6000
G0 X-119.5 Y90.0
G0 Z40.0
G0 X-119.45 Y90.0
G0 Z1.0
G1 F300.0 Z0.0
G2 F800.0 X-119.525 Y89.9567 Z-0.1333 I-0.05 J0.0
G2 Y90.0433 Z-0.2667 I0.025 J0.0433
G2 X-119.45 Y90.0 Z-0.4 I0.025 J-0.0433
G2 X-119.525 Y89.9567 Z-0.5333 I-0.05 J0.0
G2 Y90.0433 Z-0.6667 I0.025 J0.0433
G2 X-119.45 Y90.0 Z-0.8 I0.025 J-0.0433
G2 X-119.525 Y89.9567 Z-0.9333 I-0.05 J0.0
G2 Y90.0433 Z-1.0667 I0.025 J0.0433
G2 X-119.45 Y90.0 Z-1.2 I0.025 J-0.0433
G2 X-119.525 Y89.9567 Z-1.3333 I-0.05 J0.0
G2 Y90.0433 Z-1.4667 I0.025 J0.0433
G2 X-119.45 Y90.0 Z-1.6 I0.025 J-0.0433
G2 X-119.525 Y89.9567 Z-1.7333 I-0.05 J0.0
G2 Y90.0433 Z-1.8667 I0.025 J0.0433
G2 X-119.45 Y90.0 Z-2.0 I0.025 J-0.0433
G2 X-119.525 Y89.9567 Z-2.1333 I-0.05 J0.0
G2 Y90.0433 Z-2.2667 I0.025 J0.0433
G2 X-119.45 Y90.0 Z-2.4 I0.025 J-0.0433
G2 X-119.525 Y89.9567 Z-2.5333 I-0.05 J0.0
G2 Y90.0433 Z-2.6667 I0.025 J0.0433
G2 X-119.45 Y90.0 Z-2.8 I0.025 J-0.0433
G2 X-119.525 Y89.9567 Z-2.9333 I-0.05 J0.0
G2 Y90.0433 Z-3.0667 I0.025 J0.0433
G2 X-119.45 Y90.0 Z-3.2 I0.025 J-0.0433
G2 X-119.525 Y89.9567 Z-3.3333 I-0.05 J0.0
G2 Y90.0433 Z-3.4667 I0.025 J0.0433
G2 X-119.45 Y90.0 Z-3.6 I0.025 J-0.0433
G2 X-119.525 Y89.9567 Z-3.7333 I-0.05 J0.0
G2 Y90.0433 Z-3.8667 I0.025 J0.0433
G2 X-119.45 Y90.0 Z-4.0 I0.025 J-0.0433
G2 X-119.525 Y89.9567 Z-4.1333 I-0.05 J0.0
G2 Y90.0433 Z-4.2667 I0.025 J0.0433
G2 X-119.45 Y90.0 Z-4.4 I0.025 J-0.0433
G2 X-119.525 Y89.9567 Z-4.5333 I-0.05 J0.0
G2 Y90.0433 Z-4.6667 I0.025 J0.0433
G2 X-119.45 Y90.0 Z-4.8 I0.025 J-0.0433
G2 X-119.525 Y89.9567 Z-4.9333 I-0.05 J0.0
G2 Y90.0433 Z-5.0667 I0.025 J0.0433
G2 X-119.45 Y90.0 Z-5.2 I0.025 J-0.0433
G2 X-119.525 Y89.9567 Z-5.3333 I-0.05 J0.0
G2 Y90.0433 Z-5.4667 I0.025 J0.0433
G2 X-119.45 Y90.0 Z-5.6 I0.025 J-0.0433
G2 X-119.525 Y89.9567 Z-5.7333 I-0.05 J0.0
G2 Y90.0433 Z-5.8667 I0.025 J0.0433
G2 X-119.45 Y90.0 Z-6.0 I0.025 J-0.0433
G2 X-119.525 Y89.9567 Z-6.1333 I-0.05 J0.0
G2 Y90.0433 Z-6.2667 I0.025 J0.0433
G2 X-119.45 Y90.0 Z-6.4 I0.025 J-0.0433
G2 X-119.525 Y89.9567 Z-6.5333 I-0.05 J0.0
G2 Y90.0433 Z-6.6667 I0.025 J0.0433
G2 X-119.45 Y90.0 Z-6.8 I0.025 J-0.0433
G2 X-119.525 Y89.9567 Z-6.9333 I-0.05 J0.0
G2 Y90.0433 Z-7.0667 I0.025 J0.0433
G2 X-119.45 Y90.0 Z-7.2 I0.025 J-0.0433
G2 X-119.525 Y89.9567 Z-7.3333 I-0.05 J0.0
G2 Y90.0433 Z-7.4667 I0.025 J0.0433
G2 X-119.45 Y90.0 Z-7.6 I0.025 J-0.0433
G2 X-119.525 Y89.9567 Z-7.7333 I-0.05 J0.0
G2 Y90.0433 Z-7.8667 I0.025 J0.0433
G2 X-119.45 Y90.0 Z-8.0 I0.025 J-0.0433
G2 X-119.525 Y89.9567 Z-8.1333 I-0.05 J0.0
G2 Y90.0433 Z-8.2667 I0.025 J0.0433
G2 X-119.45 Y90.0 Z-8.4 I0.025 J-0.0433
G2 X-119.525 Y89.9567 Z-8.5333 I-0.05 J0.0
G2 Y90.0433 Z-8.6667 I0.025 J0.0433
G2 X-119.45 Y90.0 Z-8.8 I0.025 J-0.0433
G2 X-119.525 Y89.9567 Z-8.9333 I-0.05 J0.0
G2 Y90.0433 Z-9.0667 I0.025 J0.0433
G2 X-119.45 Y90.0 Z-9.2 I0.025 J-0.0433
G2 X-119.525 Y89.9567 Z-9.3333 I-0.05 J0.0
G2 Y90.0433 Z-9.4667 I0.025 J0.0433
G2 X-119.45 Y90.0 Z-9.6 I0.025 J-0.0433
G2 X-119.525 Y89.9567 Z-9.7333 I-0.05 J0.0
G2 Y90.0433 Z-9.8667 I0.025 J0.0433
G2 X-119.45 Y90.0 Z-10.0 I0.025 J-0.0433
G2 X-119.525 Y89.9567 Z-10.1333 I-0.05 J0.0
G2 Y90.0433 Z-10.2667 I0.025 J0.0433
G2 X-119.45 Y90.0 Z-10.4 I0.025 J-0.0433
G2 X-119.525 Y89.9567 Z-10.5333 I-0.05 J0.0
G2 Y90.0433 Z-10.6667 I0.025 J0.0433
G2 X-119.45 Y90.0 Z-10.8 I0.025 J-0.0433
G2 X-119.525 Y89.9567 Z-10.9333 I-0.05 J0.0
G2 Y90.0433 Z-11.0667 I0.025 J0.0433
G2 X-119.45 Y90.0 Z-11.2 I0.025 J-0.0433
G2 X-119.525 Y89.9567 Z-11.3333 I-0.05 J0.0
G2 Y90.0433 Z-11.4667 I0.025 J0.0433
G2 X-119.45 Y90.0 Z-11.6 I0.025 J-0.0433
G2 X-119.525 Y89.9567 Z-11.7333 I-0.05 J0.0
G2 Y90.0433 Z-11.8667 I0.025 J0.0433
G2 X-119.45 Y90.0 Z-12.0 I0.025 J-0.0433
G2 X-119.525 Y89.9567 Z-12.1333 I-0.05 J0.0
G2 Y90.0433 Z-12.2667 I0.025 J0.0433
G2 X-119.45 Y90.0 Z-12.4 I0.025 J-0.0433
G2 X-119.525 Y89.9567 Z-12.5333 I-0.05 J0.0
G2 Y90.0433 Z-12.6667 I0.025 J0.0433
G2 X-119.45 Y90.0 Z-12.8 I0.025 J-0.0433
G2 X-119.525 Y89.9567 Z-12.9333 I-0.05 J0.0
G2 Y90.0433 Z-13.0667 I0.025 J0.0433
G2 X-119.45 Y90.0 Z-13.2 I0.025 J-0.0433
G2 X-119.525 Y89.9567 Z-13.3333 I-0.05 J0.0
G2 Y90.0433 Z-13.4667 I0.025 J0.0433
G2 X-119.45 Y90.0 Z-13.6 I0.025 J-0.0433
G2 X-119.525 Y89.9567 Z-13.7333 I-0.05 J0.0
G2 Y90.0433 Z-13.8667 I0.025 J0.0433
G2 X-119.45 Y90.0 Z-14.0 I0.025 J-0.0433
G2 X-119.525 Y89.9567 Z-14.1333 I-0.05 J0.0
G2 Y90.0433 Z-14.2667 I0.025 J0.0433
G2 X-119.45 Y90.0 Z-14.4 I0.025 J-0.0433
G2 X-119.525 Y89.9567 Z-14.5333 I-0.05 J0.0
G2 Y90.0433 Z-14.6667 I0.025 J0.0433
G2 X-119.45 Y90.0 Z-14.8 I0.025 J-0.0433
G2 X-119.525 Y89.9567 Z-14.9333 I-0.05 J0.0
G2 Y90.0433 Z-15.0667 I0.025 J0.0433
G2 X-119.45 Y90.0 Z-15.2 I0.025 J-0.0433
G2 X-119.525 Y89.9567 Z-15.3333 I-0.05 J0.0
G2 Y90.0433 Z-15.4667 I0.025 J0.0433
G2 X-119.45 Y90.0 Z-15.6 I0.025 J-0.0433
G2 X-119.525 Y89.9567 Z-15.7333 I-0.05 J0.0
G2 Y90.0433 Z-15.8667 I0.025 J0.0433
G2 X-119.45 Y90.0 Z-16.0 I0.025 J-0.0433
G2 X-119.525 Y89.9567 Z-16.1333 I-0.05 J0.0
G2 Y90.0433 Z-16.2667 I0.025 J0.0433
G2 X-119.45 Y90.0 Z-16.4 I0.025 J-0.0433
G2 X-119.525 Y89.9567 Z-16.5333 I-0.05 J0.0
G2 Y90.0433 Z-16.6667 I0.025 J0.0433
G2 X-119.45 Y90.0 Z-16.8 I0.025 J-0.0433
G2 X-119.525 Y89.9567 Z-16.9333 I-0.05 J0.0
G2 Y90.0433 Z-17.0667 I0.025 J0.0433
G2 X-119.45 Y90.0 Z-17.2 I0.025 J-0.0433
G2 X-119.525 Y89.9567 Z-17.3333 I-0.05 J0.0
G2 Y90.0433 Z-17.4667 I0.025 J0.0433
G2 X-119.45 Y90.0 Z-17.6 I0.025 J-0.0433
G2 X-119.525 Y89.9567 Z-17.7333 I-0.05 J0.0
G2 Y90.0433 Z-17.8667 I0.025 J0.0433
G2 X-119.45 Y90.0 Z-18.0 I0.025 J-0.0433
G2 X-119.525 Y89.9567 Z-18.1333 I-0.05 J0.0
G2 Y90.0433 Z-18.2667 I0.025 J0.0433
G2 X-119.45 Y90.0 Z-18.4 I0.025 J-0.0433
G2 X-119.525 Y89.9567 Z-18.5333 I-0.05 J0.0
G2 Y90.0433 Z-18.6667 I0.025 J0.0433
G2 X-119.45 Y90.0 Z-18.8 I0.025 J-0.0433
G2 X-119.525 Y89.9567 Z-18.9333 I-0.05 J0.0
G2 Y90.0433 Z-19.0667 I0.025 J0.0433
G2 X-119.45 Y90.0 Z-19.2 I0.025 J-0.0433
G2 X-119.525 Y89.9567 Z-19.3333 I-0.05 J0.0
G2 Y90.0433 Z-19.4667 I0.025 J0.0433
G2 X-119.45 Y90.0 Z-19.6 I0.025 J-0.0433
G2 X-119.525 Y89.9567 Z-19.7333 I-0.05 J0.0
G2 Y90.0433 Z-19.8667 I0.025 J0.0433
G2 X-119.45 Y90.0 Z-20.0 I0.025 J-0.0433
G2 X-119.525 Y89.9567 I-0.05 J0.0
G2 Y90.0433 I0.025 J0.0433
G2 X-119.45 Y90.0 I0.025 J-0.0433
G0 Z40.0
G0 Y70.0
G0 Z1.0
G1 F300.0 Z0.0
G2 F800.0 X-119.525 Y69.9567 Z-0.1333 I-0.05 J0.0
G2 Y70.0433 Z-0.2667 I0.025 J0.0433
G2 X-119.45 Y70.0 Z-0.4 I0.025 J-0.0433
G2 X-119.525 Y69.9567 Z-0.5333 I-0.05 J0.0
G2 Y70.0433 Z-0.6667 I0.025 J0.0433
G2 X-119.45 Y70.0 Z-0.8 I0.025 J-0.0433
G2 X-119.525 Y69.9567 Z-0.9333 I-0.05 J0.0
G2 Y70.0433 Z-1.0667 I0.025 J0.0433
G2 X-119.45 Y70.0 Z-1.2 I0.025 J-0.0433
G2 X-119.525 Y69.9567 Z-1.3333 I-0.05 J0.0
G2 Y70.0433 Z-1.4667 I0.025 J0.0433
G2 X-119.45 Y70.0 Z-1.6 I0.025 J-0.0433
G2 X-119.525 Y69.9567 Z-1.7333 I-0.05 J0.0
G2 Y70.0433 Z-1.8667 I0.025 J0.0433
G2 X-119.45 Y70.0 Z-2.0 I0.025 J-0.0433
G2 X-119.525 Y69.9567 Z-2.1333 I-0.05 J0.0
G2 Y70.0433 Z-2.2667 I0.025 J0.0433
G2 X-119.45 Y70.0 Z-2.4 I0.025 J-0.0433
G2 X-119.525 Y69.9567 Z-2.5333 I-0.05 J0.0
G2 Y70.0433 Z-2.6667 I0.025 J0.0433
G2 X-119.45 Y70.0 Z-2.8 I0.025 J-0.0433
G2 X-119.525 Y69.9567 Z-2.9333 I-0.05 J0.0
G2 Y70.0433 Z-3.0667 I0.025 J0.0433
G2 X-119.45 Y70.0 Z-3.2 I0.025 J-0.0433
G2 X-119.525 Y69.9567 Z-3.3333 I-0.05 J0.0
G2 Y70.0433 Z-3.4667 I0.025 J0.0433
G2 X-119.45 Y70.0 Z-3.6 I0.025 J-0.0433
G2 X-119.525 Y69.9567 Z-3.7333 I-0.05 J0.0
G2 Y70.0433 Z-3.8667 I0.025 J0.0433
G2 X-119.45 Y70.0 Z-4.0 I0.025 J-0.0433
G2 X-119.525 Y69.9567 Z-4.1333 I-0.05 J0.0
G2 Y70.0433 Z-4.2667 I0.025 J0.0433
G2 X-119.45 Y70.0 Z-4.4 I0.025 J-0.0433
G2 X-119.525 Y69.9567 Z-4.5333 I-0.05 J0.0
G2 Y70.0433 Z-4.6667 I0.025 J0.0433
G2 X-119.45 Y70.0 Z-4.8 I0.025 J-0.0433
G2 X-119.525 Y69.9567 Z-4.9333 I-0.05 J0.0
G2 Y70.0433 Z-5.0667 I0.025 J0.0433
G2 X-119.45 Y70.0 Z-5.2 I0.025 J-0.0433
G2 X-119.525 Y69.9567 Z-5.3333 I-0.05 J0.0
G2 Y70.0433 Z-5.4667 I0.025 J0.0433
G2 X-119.45 Y70.0 Z-5.6 I0.025 J-0.0433
G2 X-119.525 Y69.9567 Z-5.7333 I-0.05 J0.0
G2 Y70.0433 Z-5.8667 I0.025 J0.0433
G2 X-119.45 Y70.0 Z-6.0 I0.025 J-0.0433
G2 X-119.525 Y69.9567 Z-6.1333 I-0.05 J0.0
G2 Y70.0433 Z-6.2667 I0.025 J0.0433
G2 X-119.45 Y70.0 Z-6.4 I0.025 J-0.0433
G2 X-119.525 Y69.9567 Z-6.5333 I-0.05 J0.0
G2 Y70.0433 Z-6.6667 I0.025 J0.0433
G2 X-119.45 Y70.0 Z-6.8 I0.025 J-0.0433
G2 X-119.525 Y69.9567 Z-6.9333 I-0.05 J0.0
G2 Y70.0433 Z-7.0667 I0.025 J0.0433
G2 X-119.45 Y70.0 Z-7.2 I0.025 J-0.0433
G2 X-119.525 Y69.9567 Z-7.3333 I-0.05 J0.0
G2 Y70.0433 Z-7.4667 I0.025 J0.0433
G2 X-119.45 Y70.0 Z-7.6 I0.025 J-0.0433
G2 X-119.525 Y69.9567 Z-7.7333 I-0.05 J0.0
G2 Y70.0433 Z-7.8667 I0.025 J0.0433
G2 X-119.45 Y70.0 Z-8.0 I0.025 J-0.0433
G2 X-119.525 Y69.9567 Z-8.1333 I-0.05 J0.0
G2 Y70.0433 Z-8.2667 I0.025 J0.0433
G2 X-119.45 Y70.0 Z-8.4 I0.025 J-0.0433
G2 X-119.525 Y69.9567 Z-8.5333 I-0.05 J0.0
G2 Y70.0433 Z-8.6667 I0.025 J0.0433
G2 X-119.45 Y70.0 Z-8.8 I0.025 J-0.0433
G2 X-119.525 Y69.9567 Z-8.9333 I-0.05 J0.0
G2 Y70.0433 Z-9.0667 I0.025 J0.0433
G2 X-119.45 Y70.0 Z-9.2 I0.025 J-0.0433
G2 X-119.525 Y69.9567 Z-9.3333 I-0.05 J0.0
G2 Y70.0433 Z-9.4667 I0.025 J0.0433
G2 X-119.45 Y70.0 Z-9.6 I0.025 J-0.0433
G2 X-119.525 Y69.9567 Z-9.7333 I-0.05 J0.0
G2 Y70.0433 Z-9.8667 I0.025 J0.0433
G2 X-119.45 Y70.0 Z-10.0 I0.025 J-0.0433
G2 X-119.525 Y69.9567 Z-10.1333 I-0.05 J0.0
G2 Y70.0433 Z-10.2667 I0.025 J0.0433
G2 X-119.45 Y70.0 Z-10.4 I0.025 J-0.0433
G2 X-119.525 Y69.9567 Z-10.5333 I-0.05 J0.0
G2 Y70.0433 Z-10.6667 I0.025 J0.0433
G2 X-119.45 Y70.0 Z-10.8 I0.025 J-0.0433
G2 X-119.525 Y69.9567 Z-10.9333 I-0.05 J0.0
G2 Y70.0433 Z-11.0667 I0.025 J0.0433
G2 X-119.45 Y70.0 Z-11.2 I0.025 J-0.0433
G2 X-119.525 Y69.9567 Z-11.3333 I-0.05 J0.0
G2 Y70.0433 Z-11.4667 I0.025 J0.0433
G2 X-119.45 Y70.0 Z-11.6 I0.025 J-0.0433
G2 X-119.525 Y69.9567 Z-11.7333 I-0.05 J0.0
G2 Y70.0433 Z-11.8667 I0.025 J0.0433
G2 X-119.45 Y70.0 Z-12.0 I0.025 J-0.0433
G2 X-119.525 Y69.9567 Z-12.1333 I-0.05 J0.0
G2 Y70.0433 Z-12.2667 I0.025 J0.0433
G2 X-119.45 Y70.0 Z-12.4 I0.025 J-0.0433
G2 X-119.525 Y69.9567 Z-12.5333 I-0.05 J0.0
G2 Y70.0433 Z-12.6667 I0.025 J0.0433
G2 X-119.45 Y70.0 Z-12.8 I0.025 J-0.0433
G2 X-119.525 Y69.9567 Z-12.9333 I-0.05 J0.0
G2 Y70.0433 Z-13.0667 I0.025 J0.0433
G2 X-119.45 Y70.0 Z-13.2 I0.025 J-0.0433
G2 X-119.525 Y69.9567 Z-13.3333 I-0.05 J0.0
G2 Y70.0433 Z-13.4667 I0.025 J0.0433
G2 X-119.45 Y70.0 Z-13.6 I0.025 J-0.0433
G2 X-119.525 Y69.9567 Z-13.7333 I-0.05 J0.0
G2 Y70.0433 Z-13.8667 I0.025 J0.0433
G2 X-119.45 Y70.0 Z-14.0 I0.025 J-0.0433
G2 X-119.525 Y69.9567 Z-14.1333 I-0.05 J0.0
G2 Y70.0433 Z-14.2667 I0.025 J0.0433
G2 X-119.45 Y70.0 Z-14.4 I0.025 J-0.0433
G2 X-119.525 Y69.9567 Z-14.5333 I-0.05 J0.0
G2 Y70.0433 Z-14.6667 I0.025 J0.0433
G2 X-119.45 Y70.0 Z-14.8 I0.025 J-0.0433
G2 X-119.525 Y69.9567 Z-14.9333 I-0.05 J0.0
G2 Y70.0433 Z-15.0667 I0.025 J0.0433
G2 X-119.45 Y70.0 Z-15.2 I0.025 J-0.0433
G2 X-119.525 Y69.9567 Z-15.3333 I-0.05 J0.0
G2 Y70.0433 Z-15.4667 I0.025 J0.0433
G2 X-119.45 Y70.0 Z-15.6 I0.025 J-0.0433
G2 X-119.525 Y69.9567 Z-15.7333 I-0.05 J0.0
G2 Y70.0433 Z-15.8667 I0.025 J0.0433
G2 X-119.45 Y70.0 Z-16.0 I0.025 J-0.0433
G2 X-119.525 Y69.9567 Z-16.1333 I-0.05 J0.0
G2 Y70.0433 Z-16.2667 I0.025 J0.0433
G2 X-119.45 Y70.0 Z-16.4 I0.025 J-0.0433
G2 X-119.525 Y69.9567 Z-16.5333 I-0.05 J0.0
G2 Y70.0433 Z-16.6667 I0.025 J0.0433
G2 X-119.45 Y70.0 Z-16.8 I0.025 J-0.0433
G2 X-119.525 Y69.9567 Z-16.9333 I-0.05 J0.0
G2 Y70.0433 Z-17.0667 I0.025 J0.0433
G2 X-119.45 Y70.0 Z-17.2 I0.025 J-0.0433
G2 X-119.525 Y69.9567 Z-17.3333 I-0.05 J0.0
G2 Y70.0433 Z-17.4667 I0.025 J0.0433
G2 X-119.45 Y70.0 Z-17.6 I0.025 J-0.0433
G2 X-119.525 Y69.9567 Z-17.7333 I-0.05 J0.0
G2 Y70.0433 Z-17.8667 I0.025 J0.0433
G2 X-119.45 Y70.0 Z-18.0 I0.025 J-0.0433
G2 X-119.525 Y69.9567 Z-18.1333 I-0.05 J0.0
G2 Y70.0433 Z-18.2667 I0.025 J0.0433
G2 X-119.45 Y70.0 Z-18.4 I0.025 J-0.0433
G2 X-119.525 Y69.9567 Z-18.5333 I-0.05 J0.0
G2 Y70.0433 Z-18.6667 I0.025 J0.0433
G2 X-119.45 Y70.0 Z-18.8 I0.025 J-0.0433
G2 X-119.525 Y69.9567 Z-18.9333 I-0.05 J0.0
G2 Y70.0433 Z-19.0667 I0.025 J0.0433
G2 X-119.45 Y70.0 Z-19.2 I0.025 J-0.0433
G2 X-119.525 Y69.9567 Z-19.3333 I-0.05 J0.0
G2 Y70.0433 Z-19.4667 I0.025 J0.0433
G2 X-119.45 Y70.0 Z-19.6 I0.025 J-0.0433
G2 X-119.525 Y69.9567 Z-19.7333 I-0.05 J0.0
G2 Y70.0433 Z-19.8667 I0.025 J0.0433
G2 X-119.45 Y70.0 Z-20.0 I0.025 J-0.0433
G2 X-119.525 Y69.9567 I-0.05 J0.0
G2 Y70.0433 I0.025 J0.0433
G2 X-119.45 Y70.0 I0.025 J-0.0433
G0 Z40.0
G0 X-80.45 Y90.0
G0 Z1.0
G1 F300.0 Z0.0
G2 F800.0 X-80.525 Y89.9567 Z-0.1333 I-0.05 J0.0
G2 Y90.0433 Z-0.2667 I0.025 J0.0433
G2 X-80.45 Y90.0 Z-0.4 I0.025 J-0.0433
G2 X-80.525 Y89.9567 Z-0.5333 I-0.05 J0.0
G2 Y90.0433 Z-0.6667 I0.025 J0.0433
G2 X-80.45 Y90.0 Z-0.8 I0.025 J-0.0433
G2 X-80.525 Y89.9567 Z-0.9333 I-0.05 J0.0
G2 Y90.0433 Z-1.0667 I0.025 J0.0433
G2 X-80.45 Y90.0 Z-1.2 I0.025 J-0.0433
G2 X-80.525 Y89.9567 Z-1.3333 I-0.05 J0.0
G2 Y90.0433 Z-1.4667 I0.025 J0.0433
G2 X-80.45 Y90.0 Z-1.6 I0.025 J-0.0433
G2 X-80.525 Y89.9567 Z-1.7333 I-0.05 J0.0
G2 Y90.0433 Z-1.8667 I0.025 J0.0433
G2 X-80.45 Y90.0 Z-2.0 I0.025 J-0.0433
G2 X-80.525 Y89.9567 Z-2.1333 I-0.05 J0.0
G2 Y90.0433 Z-2.2667 I0.025 J0.0433
G2 X-80.45 Y90.0 Z-2.4 I0.025 J-0.0433
G2 X-80.525 Y89.9567 Z-2.5333 I-0.05 J0.0
G2 Y90.0433 Z-2.6667 I0.025 J0.0433
G2 X-80.45 Y90.0 Z-2.8 I0.025 J-0.0433
G2 X-80.525 Y89.9567 Z-2.9333 I-0.05 J0.0
G2 Y90.0433 Z-3.0667 I0.025 J0.0433
G2 X-80.45 Y90.0 Z-3.2 I0.025 J-0.0433
G2 X-80.525 Y89.9567 Z-3.3333 I-0.05 J0.0
G2 Y90.0433 Z-3.4667 I0.025 J0.0433
G2 X-80.45 Y90.0 Z-3.6 I0.025 J-0.0433
G2 X-80.525 Y89.9567 Z-3.7333 I-0.05 J0.0
G2 Y90.0433 Z-3.8667 I0.025 J0.0433
G2 X-80.45 Y90.0 Z-4.0 I0.025 J-0.0433
G2 X-80.525 Y89.9567 Z-4.1333 I-0.05 J0.0
G2 Y90.0433 Z-4.2667 I0.025 J0.0433
G2 X-80.45 Y90.0 Z-4.4 I0.025 J-0.0433
G2 X-80.525 Y89.9567 Z-4.5333 I-0.05 J0.0
G2 Y90.0433 Z-4.6667 I0.025 J0.0433
G2 X-80.45 Y90.0 Z-4.8 I0.025 J-0.0433
G2 X-80.525 Y89.9567 Z-4.9333 I-0.05 J0.0
G2 Y90.0433 Z-5.0667 I0.025 J0.0433
G2 X-80.45 Y90.0 Z-5.2 I0.025 J-0.0433
G2 X-80.525 Y89.9567 Z-5.3333 I-0.05 J0.0
G2 Y90.0433 Z-5.4667 I0.025 J0.0433
G2 X-80.45 Y90.0 Z-5.6 I0.025 J-0.0433
G2 X-80.525 Y89.9567 Z-5.7333 I-0.05 J0.0
G2 Y90.0433 Z-5.8667 I0.025 J0.0433
G2 X-80.45 Y90.0 Z-6.0 I0.025 J-0.0433
G2 X-80.525 Y89.9567 Z-6.1333 I-0.05 J0.0
G2 Y90.0433 Z-6.2667 I0.025 J0.0433
G2 X-80.45 Y90.0 Z-6.4 I0.025 J-0.0433
G2 X-80.525 Y89.9567 Z-6.5333 I-0.05 J0.0
G2 Y90.0433 Z-6.6667 I0.025 J0.0433
G2 X-80.45 Y90.0 Z-6.8 I0.025 J-0.0433
G2 X-80.525 Y89.9567 Z-6.9333 I-0.05 J0.0
G2 Y90.0433 Z-7.0667 I0.025 J0.0433
G2 X-80.45 Y90.0 Z-7.2 I0.025 J-0.0433
G2 X-80.525 Y89.9567 Z-7.3333 I-0.05 J0.0
G2 Y90.0433 Z-7.4667 I0.025 J0.0433
G2 X-80.45 Y90.0 Z-7.6 I0.025 J-0.0433
G2 X-80.525 Y89.9567 Z-7.7333 I-0.05 J0.0
G2 Y90.0433 Z-7.8667 I0.025 J0.0433
G2 X-80.45 Y90.0 Z-8.0 I0.025 J-0.0433
G2 X-80.525 Y89.9567 Z-8.1333 I-0.05 J0.0
G2 Y90.0433 Z-8.2667 I0.025 J0.0433
G2 X-80.45 Y90.0 Z-8.4 I0.025 J-0.0433
G2 X-80.525 Y89.9567 Z-8.5333 I-0.05 J0.0
G2 Y90.0433 Z-8.6667 I0.025 J0.0433
G2 X-80.45 Y90.0 Z-8.8 I0.025 J-0.0433
G2 X-80.525 Y89.9567 Z-8.9333 I-0.05 J0.0
G2 Y90.0433 Z-9.0667 I0.025 J0.0433
G2 X-80.45 Y90.0 Z-9.2 I0.025 J-0.0433
G2 X-80.525 Y89.9567 Z-9.3333 I-0.05 J0.0
G2 Y90.0433 Z-9.4667 I0.025 J0.0433
G2 X-80.45 Y90.0 Z-9.6 I0.025 J-0.0433
G2 X-80.525 Y89.9567 Z-9.7333 I-0.05 J0.0
G2 Y90.0433 Z-9.8667 I0.025 J0.0433
G2 X-80.45 Y90.0 Z-10.0 I0.025 J-0.0433
G2 X-80.525 Y89.9567 Z-10.1333 I-0.05 J0.0
G2 Y90.0433 Z-10.2667 I0.025 J0.0433
G2 X-80.45 Y90.0 Z-10.4 I0.025 J-0.0433
G2 X-80.525 Y89.9567 Z-10.5333 I-0.05 J0.0
G2 Y90.0433 Z-10.6667 I0.025 J0.0433
G2 X-80.45 Y90.0 Z-10.8 I0.025 J-0.0433
G2 X-80.525 Y89.9567 Z-10.9333 I-0.05 J0.0
G2 Y90.0433 Z-11.0667 I0.025 J0.0433
G2 X-80.45 Y90.0 Z-11.2 I0.025 J-0.0433
G2 X-80.525 Y89.9567 Z-11.3333 I-0.05 J0.0
G2 Y90.0433 Z-11.4667 I0.025 J0.0433
G2 X-80.45 Y90.0 Z-11.6 I0.025 J-0.0433
G2 X-80.525 Y89.9567 Z-11.7333 I-0.05 J0.0
G2 Y90.0433 Z-11.8667 I0.025 J0.0433
G2 X-80.45 Y90.0 Z-12.0 I0.025 J-0.0433
G2 X-80.525 Y89.9567 Z-12.1333 I-0.05 J0.0
G2 Y90.0433 Z-12.2667 I0.025 J0.0433
G2 X-80.45 Y90.0 Z-12.4 I0.025 J-0.0433
G2 X-80.525 Y89.9567 Z-12.5333 I-0.05 J0.0
G2 Y90.0433 Z-12.6667 I0.025 J0.0433
G2 X-80.45 Y90.0 Z-12.8 I0.025 J-0.0433
G2 X-80.525 Y89.9567 Z-12.9333 I-0.05 J0.0
G2 Y90.0433 Z-13.0667 I0.025 J0.0433
G2 X-80.45 Y90.0 Z-13.2 I0.025 J-0.0433
G2 X-80.525 Y89.9567 Z-13.3333 I-0.05 J0.0
G2 Y90.0433 Z-13.4667 I0.025 J0.0433
G2 X-80.45 Y90.0 Z-13.6 I0.025 J-0.0433
G2 X-80.525 Y89.9567 Z-13.7333 I-0.05 J0.0
G2 Y90.0433 Z-13.8667 I0.025 J0.0433
G2 X-80.45 Y90.0 Z-14.0 I0.025 J-0.0433
G2 X-80.525 Y89.9567 Z-14.1333 I-0.05 J0.0
G2 Y90.0433 Z-14.2667 I0.025 J0.0433
G2 X-80.45 Y90.0 Z-14.4 I0.025 J-0.0433
G2 X-80.525 Y89.9567 Z-14.5333 I-0.05 J0.0
G2 Y90.0433 Z-14.6667 I0.025 J0.0433
G2 X-80.45 Y90.0 Z-14.8 I0.025 J-0.0433
G2 X-80.525 Y89.9567 Z-14.9333 I-0.05 J0.0
G2 Y90.0433 Z-15.0667 I0.025 J0.0433
G2 X-80.45 Y90.0 Z-15.2 I0.025 J-0.0433
G2 X-80.525 Y89.9567 Z-15.3333 I-0.05 J0.0
G2 Y90.0433 Z-15.4667 I0.025 J0.0433
G2 X-80.45 Y90.0 Z-15.6 I0.025 J-0.0433
G2 X-80.525 Y89.9567 Z-15.7333 I-0.05 J0.0
G2 Y90.0433 Z-15.8667 I0.025 J0.0433
G2 X-80.45 Y90.0 Z-16.0 I0.025 J-0.0433
G2 X-80.525 Y89.9567 Z-16.1333 I-0.05 J0.0
G2 Y90.0433 Z-16.2667 I0.025 J0.0433
G2 X-80.45 Y90.0 Z-16.4 I0.025 J-0.0433
G2 X-80.525 Y89.9567 Z-16.5333 I-0.05 J0.0
G2 Y90.0433 Z-16.6667 I0.025 J0.0433
G2 X-80.45 Y90.0 Z-16.8 I0.025 J-0.0433
G2 X-80.525 Y89.9567 Z-16.9333 I-0.05 J0.0
G2 Y90.0433 Z-17.0667 I0.025 J0.0433
G2 X-80.45 Y90.0 Z-17.2 I0.025 J-0.0433
G2 X-80.525 Y89.9567 Z-17.3333 I-0.05 J0.0
G2 Y90.0433 Z-17.4667 I0.025 J0.0433
G2 X-80.45 Y90.0 Z-17.6 I0.025 J-0.0433
G2 X-80.525 Y89.9567 Z-17.7333 I-0.05 J0.0
G2 Y90.0433 Z-17.8667 I0.025 J0.0433
G2 X-80.45 Y90.0 Z-18.0 I0.025 J-0.0433
G2 X-80.525 Y89.9567 Z-18.1333 I-0.05 J0.0
G2 Y90.0433 Z-18.2667 I0.025 J0.0433
G2 X-80.45 Y90.0 Z-18.4 I0.025 J-0.0433
G2 X-80.525 Y89.9567 Z-18.5333 I-0.05 J0.0
G2 Y90.0433 Z-18.6667 I0.025 J0.0433
G2 X-80.45 Y90.0 Z-18.8 I0.025 J-0.0433
G2 X-80.525 Y89.9567 Z-18.9333 I-0.05 J0.0
G2 Y90.0433 Z-19.0667 I0.025 J0.0433
G2 X-80.45 Y90.0 Z-19.2 I0.025 J-0.0433
G2 X-80.525 Y89.9567 Z-19.3333 I-0.05 J0.0
G2 Y90.0433 Z-19.4667 I0.025 J0.0433
G2 X-80.45 Y90.0 Z-19.6 I0.025 J-0.0433
G2 X-80.525 Y89.9567 Z-19.7333 I-0.05 J0.0
G2 Y90.0433 Z-19.8667 I0.025 J0.0433
G2 X-80.45 Y90.0 Z-20.0 I0.025 J-0.0433
G2 X-80.525 Y89.9567 I-0.05 J0.0
G2 Y90.0433 I0.025 J0.0433
G2 X-80.45 Y90.0 I0.025 J-0.0433
G0 Z40.0
G0 X80.55
G0 Z1.0
G1 F300.0 Z0.0
G2 F800.0 X80.475 Y89.9567 Z-0.1333 I-0.05 J0.0
G2 Y90.0433 Z-0.2667 I0.025 J0.0433
G2 X80.55 Y90.0 Z-0.4 I0.025 J-0.0433
G2 X80.475 Y89.9567 Z-0.5333 I-0.05 J0.0
G2 Y90.0433 Z-0.6667 I0.025 J0.0433
G2 X80.55 Y90.0 Z-0.8 I0.025 J-0.0433
G2 X80.475 Y89.9567 Z-0.9333 I-0.05 J0.0
G2 Y90.0433 Z-1.0667 I0.025 J0.0433
G2 X80.55 Y90.0 Z-1.2 I0.025 J-0.0433
G2 X80.475 Y89.9567 Z-1.3333 I-0.05 J0.0
G2 Y90.0433 Z-1.4667 I0.025 J0.0433
G2 X80.55 Y90.0 Z-1.6 I0.025 J-0.0433
G2 X80.475 Y89.9567 Z-1.7333 I-0.05 J0.0
G2 Y90.0433 Z-1.8667 I0.025 J0.0433
G2 X80.55 Y90.0 Z-2.0 I0.025 J-0.0433
G2 X80.475 Y89.9567 Z-2.1333 I-0.05 J0.0
G2 Y90.0433 Z-2.2667 I0.025 J0.0433
G2 X80.55 Y90.0 Z-2.4 I0.025 J-0.0433
G2 X80.475 Y89.9567 Z-2.5333 I-0.05 J0.0
G2 Y90.0433 Z-2.6667 I0.025 J0.0433
G2 X80.55 Y90.0 Z-2.8 I0.025 J-0.0433
G2 X80.475 Y89.9567 Z-2.9333 I-0.05 J0.0
G2 Y90.0433 Z-3.0667 I0.025 J0.0433
G2 X80.55 Y90.0 Z-3.2 I0.025 J-0.0433
G2 X80.475 Y89.9567 Z-3.3333 I-0.05 J0.0
G2 Y90.0433 Z-3.4667 I0.025 J0.0433
G2 X80.55 Y90.0 Z-3.6 I0.025 J-0.0433
G2 X80.475 Y89.9567 Z-3.7333 I-0.05 J0.0
G2 Y90.0433 Z-3.8667 I0.025 J0.0433
G2 X80.55 Y90.0 Z-4.0 I0.025 J-0.0433
G2 X80.475 Y89.9567 Z-4.1333 I-0.05 J0.0
G2 Y90.0433 Z-4.2667 I0.025 J0.0433
G2 X80.55 Y90.0 Z-4.4 I0.025 J-0.0433
G2 X80.475 Y89.9567 Z-4.5333 I-0.05 J0.0
G2 Y90.0433 Z-4.6667 I0.025 J0.0433
G2 X80.55 Y90.0 Z-4.8 I0.025 J-0.0433
G2 X80.475 Y89.9567 Z-4.9333 I-0.05 J0.0
G2 Y90.0433 Z-5.0667 I0.025 J0.0433
G2 X80.55 Y90.0 Z-5.2 I0.025 J-0.0433
G2 X80.475 Y89.9567 Z-5.3333 I-0.05 J0.0
G2 Y90.0433 Z-5.4667 I0.025 J0.0433
G2 X80.55 Y90.0 Z-5.6 I0.025 J-0.0433
G2 X80.475 Y89.9567 Z-5.7333 I-0.05 J0.0
G2 Y90.0433 Z-5.8667 I0.025 J0.0433
G2 X80.55 Y90.0 Z-6.0 I0.025 J-0.0433
G2 X80.475 Y89.9567 Z-6.1333 I-0.05 J0.0
G2 Y90.0433 Z-6.2667 I0.025 J0.0433
G2 X80.55 Y90.0 Z-6.4 I0.025 J-0.0433
G2 X80.475 Y89.9567 Z-6.5333 I-0.05 J0.0
G2 Y90.0433 Z-6.6667 I0.025 J0.0433
G2 X80.55 Y90.0 Z-6.8 I0.025 J-0.0433
G2 X80.475 Y89.9567 Z-6.9333 I-0.05 J0.0
G2 Y90.0433 Z-7.0667 I0.025 J0.0433
G2 X80.55 Y90.0 Z-7.2 I0.025 J-0.0433
G2 X80.475 Y89.9567 Z-7.3333 I-0.05 J0.0
G2 Y90.0433 Z-7.4667 I0.025 J0.0433
G2 X80.55 Y90.0 Z-7.6 I0.025 J-0.0433
G2 X80.475 Y89.9567 Z-7.7333 I-0.05 J0.0
G2 Y90.0433 Z-7.8667 I0.025 J0.0433
G2 X80.55 Y90.0 Z-8.0 I0.025 J-0.0433
G2 X80.475 Y89.9567 Z-8.1333 I-0.05 J0.0
G2 Y90.0433 Z-8.2667 I0.025 J0.0433
G2 X80.55 Y90.0 Z-8.4 I0.025 J-0.0433
G2 X80.475 Y89.9567 Z-8.5333 I-0.05 J0.0
G2 Y90.0433 Z-8.6667 I0.025 J0.0433
G2 X80.55 Y90.0 Z-8.8 I0.025 J-0.0433
G2 X80.475 Y89.9567 Z-8.9333 I-0.05 J0.0
G2 Y90.0433 Z-9.0667 I0.025 J0.0433
G2 X80.55 Y90.0 Z-9.2 I0.025 J-0.0433
G2 X80.475 Y89.9567 Z-9.3333 I-0.05 J0.0
G2 Y90.0433 Z-9.4667 I0.025 J0.0433
G2 X80.55 Y90.0 Z-9.6 I0.025 J-0.0433
G2 X80.475 Y89.9567 Z-9.7333 I-0.05 J0.0
G2 Y90.0433 Z-9.8667 I0.025 J0.0433
G2 X80.55 Y90.0 Z-10.0 I0.025 J-0.0433
G2 X80.475 Y89.9567 Z-10.1333 I-0.05 J0.0
G2 Y90.0433 Z-10.2667 I0.025 J0.0433
G2 X80.55 Y90.0 Z-10.4 I0.025 J-0.0433
G2 X80.475 Y89.9567 Z-10.5333 I-0.05 J0.0
G2 Y90.0433 Z-10.6667 I0.025 J0.0433
G2 X80.55 Y90.0 Z-10.8 I0.025 J-0.0433
G2 X80.475 Y89.9567 Z-10.9333 I-0.05 J0.0
G2 Y90.0433 Z-11.0667 I0.025 J0.0433
G2 X80.55 Y90.0 Z-11.2 I0.025 J-0.0433
G2 X80.475 Y89.9567 Z-11.3333 I-0.05 J0.0
G2 Y90.0433 Z-11.4667 I0.025 J0.0433
G2 X80.55 Y90.0 Z-11.6 I0.025 J-0.0433
G2 X80.475 Y89.9567 Z-11.7333 I-0.05 J0.0
G2 Y90.0433 Z-11.8667 I0.025 J0.0433
G2 X80.55 Y90.0 Z-12.0 I0.025 J-0.0433
G2 X80.475 Y89.9567 Z-12.1333 I-0.05 J0.0
G2 Y90.0433 Z-12.2667 I0.025 J0.0433
G2 X80.55 Y90.0 Z-12.4 I0.025 J-0.0433
G2 X80.475 Y89.9567 Z-12.5333 I-0.05 J0.0
G2 Y90.0433 Z-12.6667 I0.025 J0.0433
G2 X80.55 Y90.0 Z-12.8 I0.025 J-0.0433
G2 X80.475 Y89.9567 Z-12.9333 I-0.05 J0.0
G2 Y90.0433 Z-13.0667 I0.025 J0.0433
G2 X80.55 Y90.0 Z-13.2 I0.025 J-0.0433
G2 X80.475 Y89.9567 Z-13.3333 I-0.05 J0.0
G2 Y90.0433 Z-13.4667 I0.025 J0.0433
G2 X80.55 Y90.0 Z-13.6 I0.025 J-0.0433
G2 X80.475 Y89.9567 Z-13.7333 I-0.05 J0.0
G2 Y90.0433 Z-13.8667 I0.025 J0.0433
G2 X80.55 Y90.0 Z-14.0 I0.025 J-0.0433
G2 X80.475 Y89.9567 Z-14.1333 I-0.05 J0.0
G2 Y90.0433 Z-14.2667 I0.025 J0.0433
G2 X80.55 Y90.0 Z-14.4 I0.025 J-0.0433
G2 X80.475 Y89.9567 Z-14.5333 I-0.05 J0.0
G2 Y90.0433 Z-14.6667 I0.025 J0.0433
G2 X80.55 Y90.0 Z-14.8 I0.025 J-0.0433
G2 X80.475 Y89.9567 Z-14.9333 I-0.05 J0.0
G2 Y90.0433 Z-15.0667 I0.025 J0.0433
G2 X80.55 Y90.0 Z-15.2 I0.025 J-0.0433
G2 X80.475 Y89.9567 Z-15.3333 I-0.05 J0.0
G2 Y90.0433 Z-15.4667 I0.025 J0.0433
G2 X80.55 Y90.0 Z-15.6 I0.025 J-0.0433
G2 X80.475 Y89.9567 Z-15.7333 I-0.05 J0.0
G2 Y90.0433 Z-15.8667 I0.025 J0.0433
G2 X80.55 Y90.0 Z-16.0 I0.025 J-0.0433
G2 X80.475 Y89.9567 Z-16.1333 I-0.05 J0.0
G2 Y90.0433 Z-16.2667 I0.025 J0.0433
G2 X80.55 Y90.0 Z-16.4 I0.025 J-0.0433
G2 X80.475 Y89.9567 Z-16.5333 I-0.05 J0.0
G2 Y90.0433 Z-16.6667 I0.025 J0.0433
G2 X80.55 Y90.0 Z-16.8 I0.025 J-0.0433
G2 X80.475 Y89.9567 Z-16.9333 I-0.05 J0.0
G2 Y90.0433 Z-17.0667 I0.025 J0.0433
G2 X80.55 Y90.0 Z-17.2 I0.025 J-0.0433
G2 X80.475 Y89.9567 Z-17.3333 I-0.05 J0.0
G2 Y90.0433 Z-17.4667 I0.025 J0.0433
G2 X80.55 Y90.0 Z-17.6 I0.025 J-0.0433
G2 X80.475 Y89.9567 Z-17.7333 I-0.05 J0.0
G2 Y90.0433 Z-17.8667 I0.025 J0.0433
G2 X80.55 Y90.0 Z-18.0 I0.025 J-0.0433
G2 X80.475 Y89.9567 Z-18.1333 I-0.05 J0.0
G2 Y90.0433 Z-18.2667 I0.025 J0.0433
G2 X80.55 Y90.0 Z-18.4 I0.025 J-0.0433
G2 X80.475 Y89.9567 Z-18.5333 I-0.05 J0.0
G2 Y90.0433 Z-18.6667 I0.025 J0.0433
G2 X80.55 Y90.0 Z-18.8 I0.025 J-0.0433
G2 X80.475 Y89.9567 Z-18.9333 I-0.05 J0.0
G2 Y90.0433 Z-19.0667 I0.025 J0.0433
G2 X80.55 Y90.0 Z-19.2 I0.025 J-0.0433
G2 X80.475 Y89.9567 Z-19.3333 I-0.05 J0.0
G2 Y90.0433 Z-19.4667 I0.025 J0.0433
G2 X80.55 Y90.0 Z-19.6 I0.025 J-0.0433
G2 X80.475 Y89.9567 Z-19.7333 I-0.05 J0.0
G2 Y90.0433 Z-19.8667 I0.025 J0.0433
G2 X80.55 Y90.0 Z-20.0 I0.025 J-0.0433
G2 X80.475 Y89.9567 I-0.05 J0.0
G2 Y90.0433 I0.025 J0.0433
G2 X80.55 Y90.0 I0.025 J-0.0433
G0 Z40.0
G0 X119.55
G0 Z1.0
G1 F300.0 Z0.0
G2 F800.0 X119.475 Y89.9567 Z-0.1333 I-0.05 J0.0
G2 Y90.0433 Z-0.2667 I0.025 J0.0433
G2 X119.55 Y90.0 Z-0.4 I0.025 J-0.0433
G2 X119.475 Y89.9567 Z-0.5333 I-0.05 J0.0
G2 Y90.0433 Z-0.6667 I0.025 J0.0433
G2 X119.55 Y90.0 Z-0.8 I0.025 J-0.0433
G2 X119.475 Y89.9567 Z-0.9333 I-0.05 J0.0
G2 Y90.0433 Z-1.0667 I0.025 J0.0433
G2 X119.55 Y90.0 Z-1.2 I0.025 J-0.0433
G2 X119.475 Y89.9567 Z-1.3333 I-0.05 J0.0
G2 Y90.0433 Z-1.4667 I0.025 J0.0433
G2 X119.55 Y90.0 Z-1.6 I0.025 J-0.0433
G2 X119.475 Y89.9567 Z-1.7333 I-0.05 J0.0
G2 Y90.0433 Z-1.8667 I0.025 J0.0433
G2 X119.55 Y90.0 Z-2.0 I0.025 J-0.0433
G2 X119.475 Y89.9567 Z-2.1333 I-0.05 J0.0
G2 Y90.0433 Z-2.2667 I0.025 J0.0433
G2 X119.55 Y90.0 Z-2.4 I0.025 J-0.0433
G2 X119.475 Y89.9567 Z-2.5333 I-0.05 J0.0
G2 Y90.0433 Z-2.6667 I0.025 J0.0433
G2 X119.55 Y90.0 Z-2.8 I0.025 J-0.0433
G2 X119.475 Y89.9567 Z-2.9333 I-0.05 J0.0
G2 Y90.0433 Z-3.0667 I0.025 J0.0433
G2 X119.55 Y90.0 Z-3.2 I0.025 J-0.0433
G2 X119.475 Y89.9567 Z-3.3333 I-0.05 J0.0
G2 Y90.0433 Z-3.4667 I0.025 J0.0433
G2 X119.55 Y90.0 Z-3.6 I0.025 J-0.0433
G2 X119.475 Y89.9567 Z-3.7333 I-0.05 J0.0
G2 Y90.0433 Z-3.8667 I0.025 J0.0433
G2 X119.55 Y90.0 Z-4.0 I0.025 J-0.0433
G2 X119.475 Y89.9567 Z-4.1333 I-0.05 J0.0
G2 Y90.0433 Z-4.2667 I0.025 J0.0433
G2 X119.55 Y90.0 Z-4.4 I0.025 J-0.0433
G2 X119.475 Y89.9567 Z-4.5333 I-0.05 J0.0
G2 Y90.0433 Z-4.6667 I0.025 J0.0433
G2 X119.55 Y90.0 Z-4.8 I0.025 J-0.0433
G2 X119.475 Y89.9567 Z-4.9333 I-0.05 J0.0
G2 Y90.0433 Z-5.0667 I0.025 J0.0433
G2 X119.55 Y90.0 Z-5.2 I0.025 J-0.0433
G2 X119.475 Y89.9567 Z-5.3333 I-0.05 J0.0
G2 Y90.0433 Z-5.4667 I0.025 J0.0433
G2 X119.55 Y90.0 Z-5.6 I0.025 J-0.0433
G2 X119.475 Y89.9567 Z-5.7333 I-0.05 J0.0
G2 Y90.0433 Z-5.8667 I0.025 J0.0433
G2 X119.55 Y90.0 Z-6.0 I0.025 J-0.0433
G2 X119.475 Y89.9567 Z-6.1333 I-0.05 J0.0
G2 Y90.0433 Z-6.2667 I0.025 J0.0433
G2 X119.55 Y90.0 Z-6.4 I0.025 J-0.0433
G2 X119.475 Y89.9567 Z-6.5333 I-0.05 J0.0
G2 Y90.0433 Z-6.6667 I0.025 J0.0433
G2 X119.55 Y90.0 Z-6.8 I0.025 J-0.0433
G2 X119.475 Y89.9567 Z-6.9333 I-0.05 J0.0
G2 Y90.0433 Z-7.0667 I0.025 J0.0433
G2 X119.55 Y90.0 Z-7.2 I0.025 J-0.0433
G2 X119.475 Y89.9567 Z-7.3333 I-0.05 J0.0
G2 Y90.0433 Z-7.4667 I0.025 J0.0433
G2 X119.55 Y90.0 Z-7.6 I0.025 J-0.0433
G2 X119.475 Y89.9567 Z-7.7333 I-0.05 J0.0
G2 Y90.0433 Z-7.8667 I0.025 J0.0433
G2 X119.55 Y90.0 Z-8.0 I0.025 J-0.0433
G2 X119.475 Y89.9567 Z-8.1333 I-0.05 J0.0
G2 Y90.0433 Z-8.2667 I0.025 J0.0433
G2 X119.55 Y90.0 Z-8.4 I0.025 J-0.0433
G2 X119.475 Y89.9567 Z-8.5333 I-0.05 J0.0
G2 Y90.0433 Z-8.6667 I0.025 J0.0433
G2 X119.55 Y90.0 Z-8.8 I0.025 J-0.0433
G2 X119.475 Y89.9567 Z-8.9333 I-0.05 J0.0
G2 Y90.0433 Z-9.0667 I0.025 J0.0433
G2 X119.55 Y90.0 Z-9.2 I0.025 J-0.0433
G2 X119.475 Y89.9567 Z-9.3333 I-0.05 J0.0
G2 Y90.0433 Z-9.4667 I0.025 J0.0433
G2 X119.55 Y90.0 Z-9.6 I0.025 J-0.0433
G2 X119.475 Y89.9567 Z-9.7333 I-0.05 J0.0
G2 Y90.0433 Z-9.8667 I0.025 J0.0433
G2 X119.55 Y90.0 Z-10.0 I0.025 J-0.0433
G2 X119.475 Y89.9567 Z-10.1333 I-0.05 J0.0
G2 Y90.0433 Z-10.2667 I0.025 J0.0433
G2 X119.55 Y90.0 Z-10.4 I0.025 J-0.0433
G2 X119.475 Y89.9567 Z-10.5333 I-0.05 J0.0
G2 Y90.0433 Z-10.6667 I0.025 J0.0433
G2 X119.55 Y90.0 Z-10.8 I0.025 J-0.0433
G2 X119.475 Y89.9567 Z-10.9333 I-0.05 J0.0
G2 Y90.0433 Z-11.0667 I0.025 J0.0433
G2 X119.55 Y90.0 Z-11.2 I0.025 J-0.0433
G2 X119.475 Y89.9567 Z-11.3333 I-0.05 J0.0
G2 Y90.0433 Z-11.4667 I0.025 J0.0433
G2 X119.55 Y90.0 Z-11.6 I0.025 J-0.0433
G2 X119.475 Y89.9567 Z-11.7333 I-0.05 J0.0
G2 Y90.0433 Z-11.8667 I0.025 J0.0433
G2 X119.55 Y90.0 Z-12.0 I0.025 J-0.0433
G2 X119.475 Y89.9567 Z-12.1333 I-0.05 J0.0
G2 Y90.0433 Z-12.2667 I0.025 J0.0433
G2 X119.55 Y90.0 Z-12.4 I0.025 J-0.0433
G2 X119.475 Y89.9567 Z-12.5333 I-0.05 J0.0
G2 Y90.0433 Z-12.6667 I0.025 J0.0433
G2 X119.55 Y90.0 Z-12.8 I0.025 J-0.0433
G2 X119.475 Y89.9567 Z-12.9333 I-0.05 J0.0
G2 Y90.0433 Z-13.0667 I0.025 J0.0433
G2 X119.55 Y90.0 Z-13.2 I0.025 J-0.0433
G2 X119.475 Y89.9567 Z-13.3333 I-0.05 J0.0
G2 Y90.0433 Z-13.4667 I0.025 J0.0433
G2 X119.55 Y90.0 Z-13.6 I0.025 J-0.0433
G2 X119.475 Y89.9567 Z-13.7333 I-0.05 J0.0
G2 Y90.0433 Z-13.8667 I0.025 J0.0433
G2 X119.55 Y90.0 Z-14.0 I0.025 J-0.0433
G2 X119.475 Y89.9567 Z-14.1333 I-0.05 J0.0
G2 Y90.0433 Z-14.2667 I0.025 J0.0433
G2 X119.55 Y90.0 Z-14.4 I0.025 J-0.0433
G2 X119.475 Y89.9567 Z-14.5333 I-0.05 J0.0
G2 Y90.0433 Z-14.6667 I0.025 J0.0433
G2 X119.55 Y90.0 Z-14.8 I0.025 J-0.0433
G2 X119.475 Y89.9567 Z-14.9333 I-0.05 J0.0
G2 Y90.0433 Z-15.0667 I0.025 J0.0433
G2 X119.55 Y90.0 Z-15.2 I0.025 J-0.0433
G2 X119.475 Y89.9567 Z-15.3333 I-0.05 J0.0
G2 Y90.0433 Z-15.4667 I0.025 J0.0433
G2 X119.55 Y90.0 Z-15.6 I0.025 J-0.0433
G2 X119.475 Y89.9567 Z-15.7333 I-0.05 J0.0
G2 Y90.0433 Z-15.8667 I0.025 J0.0433
G2 X119.55 Y90.0 Z-16.0 I0.025 J-0.0433
G2 X119.475 Y89.9567 Z-16.1333 I-0.05 J0.0
G2 Y90.0433 Z-16.2667 I0.025 J0.0433
G2 X119.55 Y90.0 Z-16.4 I0.025 J-0.0433
G2 X119.475 Y89.9567 Z-16.5333 I-0.05 J0.0
G2 Y90.0433 Z-16.6667 I0.025 J0.0433
G2 X119.55 Y90.0 Z-16.8 I0.025 J-0.0433
G2 X119.475 Y89.9567 Z-16.9333 I-0.05 J0.0
G2 Y90.0433 Z-17.0667 I0.025 J0.0433
G2 X119.55 Y90.0 Z-17.2 I0.025 J-0.0433
G2 X119.475 Y89.9567 Z-17.3333 I-0.05 J0.0
G2 Y90.0433 Z-17.4667 I0.025 J0.0433
G2 X119.55 Y90.0 Z-17.6 I0.025 J-0.0433
G2 X119.475 Y89.9567 Z-17.7333 I-0.05 J0.0
G2 Y90.0433 Z-17.8667 I0.025 J0.0433
G2 X119.55 Y90.0 Z-18.0 I0.025 J-0.0433
G2 X119.475 Y89.9567 Z-18.1333 I-0.05 J0.0
G2 Y90.0433 Z-18.2667 I0.025 J0.0433
G2 X119.55 Y90.0 Z-18.4 I0.025 J-0.0433
G2 X119.475 Y89.9567 Z-18.5333 I-0.05 J0.0
G2 Y90.0433 Z-18.6667 I0.025 J0.0433
G2 X119.55 Y90.0 Z-18.8 I0.025 J-0.0433
G2 X119.475 Y89.9567 Z-18.9333 I-0.05 J0.0
G2 Y90.0433 Z-19.0667 I0.025 J0.0433
G2 X119.55 Y90.0 Z-19.2 I0.025 J-0.0433
G2 X119.475 Y89.9567 Z-19.3333 I-0.05 J0.0
G2 Y90.0433 Z-19.4667 I0.025 J0.0433
G2 X119.55 Y90.0 Z-19.6 I0.025 J-0.0433
G2 X119.475 Y89.9567 Z-19.7333 I-0.05 J0.0
G2 Y90.0433 Z-19.8667 I0.025 J0.0433
G2 X119.55 Y90.0 Z-20.0 I0.025 J-0.0433
G2 X119.475 Y89.9567 I-0.05 J0.0
G2 Y90.0433 I0.025 J0.0433
G2 X119.55 Y90.0 I0.025 J-0.0433
G0 Z40.0
G0 Y70.0
G0 Z1.0
G1 F300.0 Z0.0
G2 F800.0 X119.475 Y69.9567 Z-0.1333 I-0.05 J0.0
G2 Y70.0433 Z-0.2667 I0.025 J0.0433
G2 X119.55 Y70.0 Z-0.4 I0.025 J-0.0433
G2 X119.475 Y69.9567 Z-0.5333 I-0.05 J0.0
G2 Y70.0433 Z-0.6667 I0.025 J0.0433
G2 X119.55 Y70.0 Z-0.8 I0.025 J-0.0433
G2 X119.475 Y69.9567 Z-0.9333 I-0.05 J0.0
G2 Y70.0433 Z-1.0667 I0.025 J0.0433
G2 X119.55 Y70.0 Z-1.2 I0.025 J-0.0433
G2 X119.475 Y69.9567 Z-1.3333 I-0.05 J0.0
G2 Y70.0433 Z-1.4667 I0.025 J0.0433
G2 X119.55 Y70.0 Z-1.6 I0.025 J-0.0433
G2 X119.475 Y69.9567 Z-1.7333 I-0.05 J0.0
G2 Y70.0433 Z-1.8667 I0.025 J0.0433
G2 X119.55 Y70.0 Z-2.0 I0.025 J-0.0433
G2 X119.475 Y69.9567 Z-2.1333 I-0.05 J0.0
G2 Y70.0433 Z-2.2667 I0.025 J0.0433
G2 X119.55 Y70.0 Z-2.4 I0.025 J-0.0433
G2 X119.475 Y69.9567 Z-2.5333 I-0.05 J0.0
G2 Y70.0433 Z-2.6667 I0.025 J0.0433
G2 X119.55 Y70.0 Z-2.8 I0.025 J-0.0433
G2 X119.475 Y69.9567 Z-2.9333 I-0.05 J0.0
G2 Y70.0433 Z-3.0667 I0.025 J0.0433
G2 X119.55 Y70.0 Z-3.2 I0.025 J-0.0433
G2 X119.475 Y69.9567 Z-3.3333 I-0.05 J0.0
G2 Y70.0433 Z-3.4667 I0.025 J0.0433
G2 X119.55 Y70.0 Z-3.6 I0.025 J-0.0433
G2 X119.475 Y69.9567 Z-3.7333 I-0.05 J0.0
G2 Y70.0433 Z-3.8667 I0.025 J0.0433
G2 X119.55 Y70.0 Z-4.0 I0.025 J-0.0433
G2 X119.475 Y69.9567 Z-4.1333 I-0.05 J0.0
G2 Y70.0433 Z-4.2667 I0.025 J0.0433
G2 X119.55 Y70.0 Z-4.4 I0.025 J-0.0433
G2 X119.475 Y69.9567 Z-4.5333 I-0.05 J0.0
G2 Y70.0433 Z-4.6667 I0.025 J0.0433
G2 X119.55 Y70.0 Z-4.8 I0.025 J-0.0433
G2 X119.475 Y69.9567 Z-4.9333 I-0.05 J0.0
G2 Y70.0433 Z-5.0667 I0.025 J0.0433
G2 X119.55 Y70.0 Z-5.2 I0.025 J-0.0433
G2 X119.475 Y69.9567 Z-5.3333 I-0.05 J0.0
G2 Y70.0433 Z-5.4667 I0.025 J0.0433
G2 X119.55 Y70.0 Z-5.6 I0.025 J-0.0433
G2 X119.475 Y69.9567 Z-5.7333 I-0.05 J0.0
G2 Y70.0433 Z-5.8667 I0.025 J0.0433
G2 X119.55 Y70.0 Z-6.0 I0.025 J-0.0433
G2 X119.475 Y69.9567 Z-6.1333 I-0.05 J0.0
G2 Y70.0433 Z-6.2667 I0.025 J0.0433
G2 X119.55 Y70.0 Z-6.4 I0.025 J-0.0433
G2 X119.475 Y69.9567 Z-6.5333 I-0.05 J0.0
G2 Y70.0433 Z-6.6667 I0.025 J0.0433
G2 X119.55 Y70.0 Z-6.8 I0.025 J-0.0433
G2 X119.475 Y69.9567 Z-6.9333 I-0.05 J0.0
G2 Y70.0433 Z-7.0667 I0.025 J0.0433
G2 X119.55 Y70.0 Z-7.2 I0.025 J-0.0433
G2 X119.475 Y69.9567 Z-7.3333 I-0.05 J0.0
G2 Y70.0433 Z-7.4667 I0.025 J0.0433
G2 X119.55 Y70.0 Z-7.6 I0.025 J-0.0433
G2 X119.475 Y69.9567 Z-7.7333 I-0.05 J0.0
G2 Y70.0433 Z-7.8667 I0.025 J0.0433
G2 X119.55 Y70.0 Z-8.0 I0.025 J-0.0433
G2 X119.475 Y69.9567 Z-8.1333 I-0.05 J0.0
G2 Y70.0433 Z-8.2667 I0.025 J0.0433
G2 X119.55 Y70.0 Z-8.4 I0.025 J-0.0433
G2 X119.475 Y69.9567 Z-8.5333 I-0.05 J0.0
G2 Y70.0433 Z-8.6667 I0.025 J0.0433
G2 X119.55 Y70.0 Z-8.8 I0.025 J-0.0433
G2 X119.475 Y69.9567 Z-8.9333 I-0.05 J0.0
G2 Y70.0433 Z-9.0667 I0.025 J0.0433
G2 X119.55 Y70.0 Z-9.2 I0.025 J-0.0433
G2 X119.475 Y69.9567 Z-9.3333 I-0.05 J0.0
G2 Y70.0433 Z-9.4667 I0.025 J0.0433
G2 X119.55 Y70.0 Z-9.6 I0.025 J-0.0433
G2 X119.475 Y69.9567 Z-9.7333 I-0.05 J0.0
G2 Y70.0433 Z-9.8667 I0.025 J0.0433
G2 X119.55 Y70.0 Z-10.0 I0.025 J-0.0433
G2 X119.475 Y69.9567 Z-10.1333 I-0.05 J0.0
G2 Y70.0433 Z-10.2667 I0.025 J0.0433
G2 X119.55 Y70.0 Z-10.4 I0.025 J-0.0433
G2 X119.475 Y69.9567 Z-10.5333 I-0.05 J0.0
G2 Y70.0433 Z-10.6667 I0.025 J0.0433
G2 X119.55 Y70.0 Z-10.8 I0.025 J-0.0433
G2 X119.475 Y69.9567 Z-10.9333 I-0.05 J0.0
G2 Y70.0433 Z-11.0667 I0.025 J0.0433
G2 X119.55 Y70.0 Z-11.2 I0.025 J-0.0433
G2 X119.475 Y69.9567 Z-11.3333 I-0.05 J0.0
G2 Y70.0433 Z-11.4667 I0.025 J0.0433
G2 X119.55 Y70.0 Z-11.6 I0.025 J-0.0433
G2 X119.475 Y69.9567 Z-11.7333 I-0.05 J0.0
G2 Y70.0433 Z-11.8667 I0.025 J0.0433
G2 X119.55 Y70.0 Z-12.0 I0.025 J-0.0433
G2 X119.475 Y69.9567 Z-12.1333 I-0.05 J0.0
G2 Y70.0433 Z-12.2667 I0.025 J0.0433
G2 X119.55 Y70.0 Z-12.4 I0.025 J-0.0433
G2 X119.475 Y69.9567 Z-12.5333 I-0.05 J0.0
G2 Y70.0433 Z-12.6667 I0.025 J0.0433
G2 X119.55 Y70.0 Z-12.8 I0.025 J-0.0433
G2 X119.475 Y69.9567 Z-12.9333 I-0.05 J0.0
G2 Y70.0433 Z-13.0667 I0.025 J0.0433
G2 X119.55 Y70.0 Z-13.2 I0.025 J-0.0433
G2 X119.475 Y69.9567 Z-13.3333 I-0.05 J0.0
G2 Y70.0433 Z-13.4667 I0.025 J0.0433
G2 X119.55 Y70.0 Z-13.6 I0.025 J-0.0433
G2 X119.475 Y69.9567 Z-13.7333 I-0.05 J0.0
G2 Y70.0433 Z-13.8667 I0.025 J0.0433
G2 X119.55 Y70.0 Z-14.0 I0.025 J-0.0433
G2 X119.475 Y69.9567 Z-14.1333 I-0.05 J0.0
G2 Y70.0433 Z-14.2667 I0.025 J0.0433
G2 X119.55 Y70.0 Z-14.4 I0.025 J-0.0433
G2 X119.475 Y69.9567 Z-14.5333 I-0.05 J0.0
G2 Y70.0433 Z-14.6667 I0.025 J0.0433
G2 X119.55 Y70.0 Z-14.8 I0.025 J-0.0433
G2 X119.475 Y69.9567 Z-14.9333 I-0.05 J0.0
G2 Y70.0433 Z-15.0667 I0.025 J0.0433
G2 X119.55 Y70.0 Z-15.2 I0.025 J-0.0433
G2 X119.475 Y69.9567 Z-15.3333 I-0.05 J0.0
G2 Y70.0433 Z-15.4667 I0.025 J0.0433
G2 X119.55 Y70.0 Z-15.6 I0.025 J-0.0433
G2 X119.475 Y69.9567 Z-15.7333 I-0.05 J0.0
G2 Y70.0433 Z-15.8667 I0.025 J0.0433
G2 X119.55 Y70.0 Z-16.0 I0.025 J-0.0433
G2 X119.475 Y69.9567 Z-16.1333 I-0.05 J0.0
G2 Y70.0433 Z-16.2667 I0.025 J0.0433
G2 X119.55 Y70.0 Z-16.4 I0.025 J-0.0433
G2 X119.475 Y69.9567 Z-16.5333 I-0.05 J0.0
G2 Y70.0433 Z-16.6667 I0.025 J0.0433
G2 X119.55 Y70.0 Z-16.8 I0.025 J-0.0433
G2 X119.475 Y69.9567 Z-16.9333 I-0.05 J0.0
G2 Y70.0433 Z-17.0667 I0.025 J0.0433
G2 X119.55 Y70.0 Z-17.2 I0.025 J-0.0433
G2 X119.475 Y69.9567 Z-17.3333 I-0.05 J0.0
G2 Y70.0433 Z-17.4667 I0.025 J0.0433
G2 X119.55 Y70.0 Z-17.6 I0.025 J-0.0433
G2 X119.475 Y69.9567 Z-17.7333 I-0.05 J0.0
G2 Y70.0433 Z-17.8667 I0.025 J0.0433
G2 X119.55 Y70.0 Z-18.0 I0.025 J-0.0433
G2 X119.475 Y69.9567 Z-18.1333 I-0.05 J0.0
G2 Y70.0433 Z-18.2667 I0.025 J0.0433
G2 X119.55 Y70.0 Z-18.4 I0.025 J-0.0433
G2 X119.475 Y69.9567 Z-18.5333 I-0.05 J0.0
G2 Y70.0433 Z-18.6667 I0.025 J0.0433
G2 X119.55 Y70.0 Z-18.8 I0.025 J-0.0433
G2 X119.475 Y69.9567 Z-18.9333 I-0.05 J0.0
G2 Y70.0433 Z-19.0667 I0.025 J0.0433
G2 X119.55 Y70.0 Z-19.2 I0.025 J-0.0433
G2 X119.475 Y69.9567 Z-19.3333 I-0.05 J0.0
G2 Y70.0433 Z-19.4667 I0.025 J0.0433
G2 X119.55 Y70.0 Z-19.6 I0.025 J-0.0433
G2 X119.475 Y69.9567 Z-19.7333 I-0.05 J0.0
G2 Y70.0433 Z-19.8667 I0.025 J0.0433
G2 X119.55 Y70.0 Z-20.0 I0.025 J-0.0433
G2 X119.475 Y69.9567 I-0.05 J0.0
G2 Y70.0433 I0.025 J0.0433
G2 X119.55 Y70.0 I0.025 J-0.0433
G0 Z40.0
G0 Y-70.0
G0 Z1.0
G1 F300.0 Z0.0
G2 F800.0 X119.475 Y-70.0433 Z-0.1333 I-0.05 J0.0
G2 Y-69.9567 Z-0.2667 I0.025 J0.0433
G2 X119.55 Y-70.0 Z-0.4 I0.025 J-0.0433
G2 X119.475 Y-70.0433 Z-0.5333 I-0.05 J0.0
G2 Y-69.9567 Z-0.6667 I0.025 J0.0433
G2 X119.55 Y-70.0 Z-0.8 I0.025 J-0.0433
G2 X119.475 Y-70.0433 Z-0.9333 I-0.05 J0.0
G2 Y-69.9567 Z-1.0667 I0.025 J0.0433
G2 X119.55 Y-70.0 Z-1.2 I0.025 J-0.0433
G2 X119.475 Y-70.0433 Z-1.3333 I-0.05 J0.0
G2 Y-69.9567 Z-1.4667 I0.025 J0.0433
G2 X119.55 Y-70.0 Z-1.6 I0.025 J-0.0433
G2 X119.475 Y-70.0433 Z-1.7333 I-0.05 J0.0
G2 Y-69.9567 Z-1.8667 I0.025 J0.0433
G2 X119.55 Y-70.0 Z-2.0 I0.025 J-0.0433
G2 X119.475 Y-70.0433 Z-2.1333 I-0.05 J0.0
G2 Y-69.9567 Z-2.2667 I0.025 J0.0433
G2 X119.55 Y-70.0 Z-2.4 I0.025 J-0.0433
G2 X119.475 Y-70.0433 Z-2.5333 I-0.05 J0.0
G2 Y-69.9567 Z-2.6667 I0.025 J0.0433
G2 X119.55 Y-70.0 Z-2.8 I0.025 J-0.0433
G2 X119.475 Y-70.0433 Z-2.9333 I-0.05 J0.0
G2 Y-69.9567 Z-3.0667 I0.025 J0.0433
G2 X119.55 Y-70.0 Z-3.2 I0.025 J-0.0433
G2 X119.475 Y-70.0433 Z-3.3333 I-0.05 J0.0
G2 Y-69.9567 Z-3.4667 I0.025 J0.0433
G2 X119.55 Y-70.0 Z-3.6 I0.025 J-0.0433
G2 X119.475 Y-70.0433 Z-3.7333 I-0.05 J0.0
G2 Y-69.9567 Z-3.8667 I0.025 J0.0433
G2 X119.55 Y-70.0 Z-4.0 I0.025 J-0.0433
G2 X119.475 Y-70.0433 Z-4.1333 I-0.05 J0.0
G2 Y-69.9567 Z-4.2667 I0.025 J0.0433
G2 X119.55 Y-70.0 Z-4.4 I0.025 J-0.0433
G2 X119.475 Y-70.0433 Z-4.5333 I-0.05 J0.0
G2 Y-69.9567 Z-4.6667 I0.025 J0.0433
G2 X119.55 Y-70.0 Z-4.8 I0.025 J-0.0433
G2 X119.475 Y-70.0433 Z-4.9333 I-0.05 J0.0
G2 Y-69.9567 Z-5.0667 I0.025 J0.0433
G2 X119.55 Y-70.0 Z-5.2 I0.025 J-0.0433
G2 X119.475 Y-70.0433 Z-5.3333 I-0.05 J0.0
G2 Y-69.9567 Z-5.4667 I0.025 J0.0433
G2 X119.55 Y-70.0 Z-5.6 I0.025 J-0.0433
G2 X119.475 Y-70.0433 Z-5.7333 I-0.05 J0.0
G2 Y-69.9567 Z-5.8667 I0.025 J0.0433
G2 X119.55 Y-70.0 Z-6.0 I0.025 J-0.0433
G2 X119.475 Y-70.0433 Z-6.1333 I-0.05 J0.0
G2 Y-69.9567 Z-6.2667 I0.025 J0.0433
G2 X119.55 Y-70.0 Z-6.4 I0.025 J-0.0433
G2 X119.475 Y-70.0433 Z-6.5333 I-0.05 J0.0
G2 Y-69.9567 Z-6.6667 I0.025 J0.0433
G2 X119.55 Y-70.0 Z-6.8 I0.025 J-0.0433
G2 X119.475 Y-70.0433 Z-6.9333 I-0.05 J0.0
G2 Y-69.9567 Z-7.0667 I0.025 J0.0433
G2 X119.55 Y-70.0 Z-7.2 I0.025 J-0.0433
G2 X119.475 Y-70.0433 Z-7.3333 I-0.05 J0.0
G2 Y-69.9567 Z-7.4667 I0.025 J0.0433
G2 X119.55 Y-70.0 Z-7.6 I0.025 J-0.0433
G2 X119.475 Y-70.0433 Z-7.7333 I-0.05 J0.0
G2 Y-69.9567 Z-7.8667 I0.025 J0.0433
G2 X119.55 Y-70.0 Z-8.0 I0.025 J-0.0433
G2 X119.475 Y-70.0433 Z-8.1333 I-0.05 J0.0
G2 Y-69.9567 Z-8.2667 I0.025 J0.0433
G2 X119.55 Y-70.0 Z-8.4 I0.025 J-0.0433
G2 X119.475 Y-70.0433 Z-8.5333 I-0.05 J0.0
G2 Y-69.9567 Z-8.6667 I0.025 J0.0433
G2 X119.55 Y-70.0 Z-8.8 I0.025 J-0.0433
G2 X119.475 Y-70.0433 Z-8.9333 I-0.05 J0.0
G2 Y-69.9567 Z-9.0667 I0.025 J0.0433
G2 X119.55 Y-70.0 Z-9.2 I0.025 J-0.0433
G2 X119.475 Y-70.0433 Z-9.3333 I-0.05 J0.0
G2 Y-69.9567 Z-9.4667 I0.025 J0.0433
G2 X119.55 Y-70.0 Z-9.6 I0.025 J-0.0433
G2 X119.475 Y-70.0433 Z-9.7333 I-0.05 J0.0
G2 Y-69.9567 Z-9.8667 I0.025 J0.0433
G2 X119.55 Y-70.0 Z-10.0 I0.025 J-0.0433
G2 X119.475 Y-70.0433 Z-10.1333 I-0.05 J0.0
G2 Y-69.9567 Z-10.2667 I0.025 J0.0433
G2 X119.55 Y-70.0 Z-10.4 I0.025 J-0.0433
G2 X119.475 Y-70.0433 Z-10.5333 I-0.05 J0.0
G2 Y-69.9567 Z-10.6667 I0.025 J0.0433
G2 X119.55 Y-70.0 Z-10.8 I0.025 J-0.0433
G2 X119.475 Y-70.0433 Z-10.9333 I-0.05 J0.0
G2 Y-69.9567 Z-11.0667 I0.025 J0.0433
G2 X119.55 Y-70.0 Z-11.2 I0.025 J-0.0433
G2 X119.475 Y-70.0433 Z-11.3333 I-0.05 J0.0
G2 Y-69.9567 Z-11.4667 I0.025 J0.0433
G2 X119.55 Y-70.0 Z-11.6 I0.025 J-0.0433
G2 X119.475 Y-70.0433 Z-11.7333 I-0.05 J0.0
G2 Y-69.9567 Z-11.8667 I0.025 J0.0433
G2 X119.55 Y-70.0 Z-12.0 I0.025 J-0.0433
G2 X119.475 Y-70.0433 Z-12.1333 I-0.05 J0.0
G2 Y-69.9567 Z-12.2667 I0.025 J0.0433
G2 X119.55 Y-70.0 Z-12.4 I0.025 J-0.0433
G2 X119.475 Y-70.0433 Z-12.5333 I-0.05 J0.0
G2 Y-69.9567 Z-12.6667 I0.025 J0.0433
G2 X119.55 Y-70.0 Z-12.8 I0.025 J-0.0433
G2 X119.475 Y-70.0433 Z-12.9333 I-0.05 J0.0
G2 Y-69.9567 Z-13.0667 I0.025 J0.0433
G2 X119.55 Y-70.0 Z-13.2 I0.025 J-0.0433
G2 X119.475 Y-70.0433 Z-13.3333 I-0.05 J0.0
G2 Y-69.9567 Z-13.4667 I0.025 J0.0433
G2 X119.55 Y-70.0 Z-13.6 I0.025 J-0.0433
G2 X119.475 Y-70.0433 Z-13.7333 I-0.05 J0.0
G2 Y-69.9567 Z-13.8667 I0.025 J0.0433
G2 X119.55 Y-70.0 Z-14.0 I0.025 J-0.0433
G2 X119.475 Y-70.0433 Z-14.1333 I-0.05 J0.0
G2 Y-69.9567 Z-14.2667 I0.025 J0.0433
G2 X119.55 Y-70.0 Z-14.4 I0.025 J-0.0433
G2 X119.475 Y-70.0433 Z-14.5333 I-0.05 J0.0
G2 Y-69.9567 Z-14.6667 I0.025 J0.0433
G2 X119.55 Y-70.0 Z-14.8 I0.025 J-0.0433
G2 X119.475 Y-70.0433 Z-14.9333 I-0.05 J0.0
G2 Y-69.9567 Z-15.0667 I0.025 J0.0433
G2 X119.55 Y-70.0 Z-15.2 I0.025 J-0.0433
G2 X119.475 Y-70.0433 Z-15.3333 I-0.05 J0.0
G2 Y-69.9567 Z-15.4667 I0.025 J0.0433
G2 X119.55 Y-70.0 Z-15.6 I0.025 J-0.0433
G2 X119.475 Y-70.0433 Z-15.7333 I-0.05 J0.0
G2 Y-69.9567 Z-15.8667 I0.025 J0.0433
G2 X119.55 Y-70.0 Z-16.0 I0.025 J-0.0433
G2 X119.475 Y-70.0433 Z-16.1333 I-0.05 J0.0
G2 Y-69.9567 Z-16.2667 I0.025 J0.0433
G2 X119.55 Y-70.0 Z-16.4 I0.025 J-0.0433
G2 X119.475 Y-70.0433 Z-16.5333 I-0.05 J0.0
G2 Y-69.9567 Z-16.6667 I0.025 J0.0433
G2 X119.55 Y-70.0 Z-16.8 I0.025 J-0.0433
G2 X119.475 Y-70.0433 Z-16.9333 I-0.05 J0.0
G2 Y-69.9567 Z-17.0667 I0.025 J0.0433
G2 X119.55 Y-70.0 Z-17.2 I0.025 J-0.0433
G2 X119.475 Y-70.0433 Z-17.3333 I-0.05 J0.0
G2 Y-69.9567 Z-17.4667 I0.025 J0.0433
G2 X119.55 Y-70.0 Z-17.6 I0.025 J-0.0433
G2 X119.475 Y-70.0433 Z-17.7333 I-0.05 J0.0
G2 Y-69.9567 Z-17.8667 I0.025 J0.0433
G2 X119.55 Y-70.0 Z-18.0 I0.025 J-0.0433
G2 X119.475 Y-70.0433 Z-18.1333 I-0.05 J0.0
G2 Y-69.9567 Z-18.2667 I0.025 J0.0433
G2 X119.55 Y-70.0 Z-18.4 I0.025 J-0.0433
G2 X119.475 Y-70.0433 Z-18.5333 I-0.05 J0.0
G2 Y-69.9567 Z-18.6667 I0.025 J0.0433
G2 X119.55 Y-70.0 Z-18.8 I0.025 J-0.0433
G2 X119.475 Y-70.0433 Z-18.9333 I-0.05 J0.0
G2 Y-69.9567 Z-19.0667 I0.025 J0.0433
G2 X119.55 Y-70.0 Z-19.2 I0.025 J-0.0433
G2 X119.475 Y-70.0433 Z-19.3333 I-0.05 J0.0
G2 Y-69.9567 Z-19.4667 I0.025 J0.0433
G2 X119.55 Y-70.0 Z-19.6 I0.025 J-0.0433
G2 X119.475 Y-70.0433 Z-19.7333 I-0.05 J0.0
G2 Y-69.9567 Z-19.8667 I0.025 J0.0433
G2 X119.55 Y-70.0 Z-20.0 I0.025 J-0.0433
G2 X119.475 Y-70.0433 I-0.05 J0.0
G2 Y-69.9567 I0.025 J0.0433
G2 X119.55 Y-70.0 I0.025 J-0.0433
G0 Z40.0
G0 Y-90.0
G0 Z1.0
G1 F300.0 Z0.0
G2 F800.0 X119.475 Y-90.0433 Z-0.1333 I-0.05 J0.0
G2 Y-89.9567 Z-0.2667 I0.025 J0.0433
G2 X119.55 Y-90.0 Z-0.4 I0.025 J-0.0433
G2 X119.475 Y-90.0433 Z-0.5333 I-0.05 J0.0
G2 Y-89.9567 Z-0.6667 I0.025 J0.0433
G2 X119.55 Y-90.0 Z-0.8 I0.025 J-0.0433
G2 X119.475 Y-90.0433 Z-0.9333 I-0.05 J0.0
G2 Y-89.9567 Z-1.0667 I0.025 J0.0433
G2 X119.55 Y-90.0 Z-1.2 I0.025 J-0.0433
G2 X119.475 Y-90.0433 Z-1.3333 I-0.05 J0.0
G2 Y-89.9567 Z-1.4667 I0.025 J0.0433
G2 X119.55 Y-90.0 Z-1.6 I0.025 J-0.0433
G2 X119.475 Y-90.0433 Z-1.7333 I-0.05 J0.0
G2 Y-89.9567 Z-1.8667 I0.025 J0.0433
G2 X119.55 Y-90.0 Z-2.0 I0.025 J-0.0433
G2 X119.475 Y-90.0433 Z-2.1333 I-0.05 J0.0
G2 Y-89.9567 Z-2.2667 I0.025 J0.0433
G2 X119.55 Y-90.0 Z-2.4 I0.025 J-0.0433
G2 X119.475 Y-90.0433 Z-2.5333 I-0.05 J0.0
G2 Y-89.9567 Z-2.6667 I0.025 J0.0433
G2 X119.55 Y-90.0 Z-2.8 I0.025 J-0.0433
G2 X119.475 Y-90.0433 Z-2.9333 I-0.05 J0.0
G2 Y-89.9567 Z-3.0667 I0.025 J0.0433
G2 X119.55 Y-90.0 Z-3.2 I0.025 J-0.0433
G2 X119.475 Y-90.0433 Z-3.3333 I-0.05 J0.0
G2 Y-89.9567 Z-3.4667 I0.025 J0.0433
G2 X119.55 Y-90.0 Z-3.6 I0.025 J-0.0433
G2 X119.475 Y-90.0433 Z-3.7333 I-0.05 J0.0
G2 Y-89.9567 Z-3.8667 I0.025 J0.0433
G2 X119.55 Y-90.0 Z-4.0 I0.025 J-0.0433
G2 X119.475 Y-90.0433 Z-4.1333 I-0.05 J0.0
G2 Y-89.9567 Z-4.2667 I0.025 J0.0433
G2 X119.55 Y-90.0 Z-4.4 I0.025 J-0.0433
G2 X119.475 Y-90.0433 Z-4.5333 I-0.05 J0.0
G2 Y-89.9567 Z-4.6667 I0.025 J0.0433
G2 X119.55 Y-90.0 Z-4.8 I0.025 J-0.0433
G2 X119.475 Y-90.0433 Z-4.9333 I-0.05 J0.0
G2 Y-89.9567 Z-5.0667 I0.025 J0.0433
G2 X119.55 Y-90.0 Z-5.2 I0.025 J-0.0433
G2 X119.475 Y-90.0433 Z-5.3333 I-0.05 J0.0
G2 Y-89.9567 Z-5.4667 I0.025 J0.0433
G2 X119.55 Y-90.0 Z-5.6 I0.025 J-0.0433
G2 X119.475 Y-90.0433 Z-5.7333 I-0.05 J0.0
G2 Y-89.9567 Z-5.8667 I0.025 J0.0433
G2 X119.55 Y-90.0 Z-6.0 I0.025 J-0.0433
G2 X119.475 Y-90.0433 Z-6.1333 I-0.05 J0.0
G2 Y-89.9567 Z-6.2667 I0.025 J0.0433
G2 X119.55 Y-90.0 Z-6.4 I0.025 J-0.0433
G2 X119.475 Y-90.0433 Z-6.5333 I-0.05 J0.0
G2 Y-89.9567 Z-6.6667 I0.025 J0.0433
G2 X119.55 Y-90.0 Z-6.8 I0.025 J-0.0433
G2 X119.475 Y-90.0433 Z-6.9333 I-0.05 J0.0
G2 Y-89.9567 Z-7.0667 I0.025 J0.0433
G2 X119.55 Y-90.0 Z-7.2 I0.025 J-0.0433
G2 X119.475 Y-90.0433 Z-7.3333 I-0.05 J0.0
G2 Y-89.9567 Z-7.4667 I0.025 J0.0433
G2 X119.55 Y-90.0 Z-7.6 I0.025 J-0.0433
G2 X119.475 Y-90.0433 Z-7.7333 I-0.05 J0.0
G2 Y-89.9567 Z-7.8667 I0.025 J0.0433
G2 X119.55 Y-90.0 Z-8.0 I0.025 J-0.0433
G2 X119.475 Y-90.0433 Z-8.1333 I-0.05 J0.0
G2 Y-89.9567 Z-8.2667 I0.025 J0.0433
G2 X119.55 Y-90.0 Z-8.4 I0.025 J-0.0433
G2 X119.475 Y-90.0433 Z-8.5333 I-0.05 J0.0
G2 Y-89.9567 Z-8.6667 I0.025 J0.0433
G2 X119.55 Y-90.0 Z-8.8 I0.025 J-0.0433
G2 X119.475 Y-90.0433 Z-8.9333 I-0.05 J0.0
G2 Y-89.9567 Z-9.0667 I0.025 J0.0433
G2 X119.55 Y-90.0 Z-9.2 I0.025 J-0.0433
G2 X119.475 Y-90.0433 Z-9.3333 I-0.05 J0.0
G2 Y-89.9567 Z-9.4667 I0.025 J0.0433
G2 X119.55 Y-90.0 Z-9.6 I0.025 J-0.0433
G2 X119.475 Y-90.0433 Z-9.7333 I-0.05 J0.0
G2 Y-89.9567 Z-9.8667 I0.025 J0.0433
G2 X119.55 Y-90.0 Z-10.0 I0.025 J-0.0433
G2 X119.475 Y-90.0433 Z-10.1333 I-0.05 J0.0
G2 Y-89.9567 Z-10.2667 I0.025 J0.0433
G2 X119.55 Y-90.0 Z-10.4 I0.025 J-0.0433
G2 X119.475 Y-90.0433 Z-10.5333 I-0.05 J0.0
G2 Y-89.9567 Z-10.6667 I0.025 J0.0433
G2 X119.55 Y-90.0 Z-10.8 I0.025 J-0.0433
G2 X119.475 Y-90.0433 Z-10.9333 I-0.05 J0.0
G2 Y-89.9567 Z-11.0667 I0.025 J0.0433
G2 X119.55 Y-90.0 Z-11.2 I0.025 J-0.0433
G2 X119.475 Y-90.0433 Z-11.3333 I-0.05 J0.0
G2 Y-89.9567 Z-11.4667 I0.025 J0.0433
G2 X119.55 Y-90.0 Z-11.6 I0.025 J-0.0433
G2 X119.475 Y-90.0433 Z-11.7333 I-0.05 J0.0
G2 Y-89.9567 Z-11.8667 I0.025 J0.0433
G2 X119.55 Y-90.0 Z-12.0 I0.025 J-0.0433
G2 X119.475 Y-90.0433 Z-12.1333 I-0.05 J0.0
G2 Y-89.9567 Z-12.2667 I0.025 J0.0433
G2 X119.55 Y-90.0 Z-12.4 I0.025 J-0.0433
G2 X119.475 Y-90.0433 Z-12.5333 I-0.05 J0.0
G2 Y-89.9567 Z-12.6667 I0.025 J0.0433
G2 X119.55 Y-90.0 Z-12.8 I0.025 J-0.0433
G2 X119.475 Y-90.0433 Z-12.9333 I-0.05 J0.0
G2 Y-89.9567 Z-13.0667 I0.025 J0.0433
G2 X119.55 Y-90.0 Z-13.2 I0.025 J-0.0433
G2 X119.475 Y-90.0433 Z-13.3333 I-0.05 J0.0
G2 Y-89.9567 Z-13.4667 I0.025 J0.0433
G2 X119.55 Y-90.0 Z-13.6 I0.025 J-0.0433
G2 X119.475 Y-90.0433 Z-13.7333 I-0.05 J0.0
G2 Y-89.9567 Z-13.8667 I0.025 J0.0433
G2 X119.55 Y-90.0 Z-14.0 I0.025 J-0.0433
G2 X119.475 Y-90.0433 Z-14.1333 I-0.05 J0.0
G2 Y-89.9567 Z-14.2667 I0.025 J0.0433
G2 X119.55 Y-90.0 Z-14.4 I0.025 J-0.0433
G2 X119.475 Y-90.0433 Z-14.5333 I-0.05 J0.0
G2 Y-89.9567 Z-14.6667 I0.025 J0.0433
G2 X119.55 Y-90.0 Z-14.8 I0.025 J-0.0433
G2 X119.475 Y-90.0433 Z-14.9333 I-0.05 J0.0
G2 Y-89.9567 Z-15.0667 I0.025 J0.0433
G2 X119.55 Y-90.0 Z-15.2 I0.025 J-0.0433
G2 X119.475 Y-90.0433 Z-15.3333 I-0.05 J0.0
G2 Y-89.9567 Z-15.4667 I0.025 J0.0433
G2 X119.55 Y-90.0 Z-15.6 I0.025 J-0.0433
G2 X119.475 Y-90.0433 Z-15.7333 I-0.05 J0.0
G2 Y-89.9567 Z-15.8667 I0.025 J0.0433
G2 X119.55 Y-90.0 Z-16.0 I0.025 J-0.0433
G2 X119.475 Y-90.0433 Z-16.1333 I-0.05 J0.0
G2 Y-89.9567 Z-16.2667 I0.025 J0.0433
G2 X119.55 Y-90.0 Z-16.4 I0.025 J-0.0433
G2 X119.475 Y-90.0433 Z-16.5333 I-0.05 J0.0
G2 Y-89.9567 Z-16.6667 I0.025 J0.0433
G2 X119.55 Y-90.0 Z-16.8 I0.025 J-0.0433
G2 X119.475 Y-90.0433 Z-16.9333 I-0.05 J0.0
G2 Y-89.9567 Z-17.0667 I0.025 J0.0433
G2 X119.55 Y-90.0 Z-17.2 I0.025 J-0.0433
G2 X119.475 Y-90.0433 Z-17.3333 I-0.05 J0.0
G2 Y-89.9567 Z-17.4667 I0.025 J0.0433
G2 X119.55 Y-90.0 Z-17.6 I0.025 J-0.0433
G2 X119.475 Y-90.0433 Z-17.7333 I-0.05 J0.0
G2 Y-89.9567 Z-17.8667 I0.025 J0.0433
G2 X119.55 Y-90.0 Z-18.0 I0.025 J-0.0433
G2 X119.475 Y-90.0433 Z-18.1333 I-0.05 J0.0
G2 Y-89.9567 Z-18.2667 I0.025 J0.0433
G2 X119.55 Y-90.0 Z-18.4 I0.025 J-0.0433
G2 X119.475 Y-90.0433 Z-18.5333 I-0.05 J0.0
G2 Y-89.9567 Z-18.6667 I0.025 J0.0433
G2 X119.55 Y-90.0 Z-18.8 I0.025 J-0.0433
G2 X119.475 Y-90.0433 Z-18.9333 I-0.05 J0.0
G2 Y-89.9567 Z-19.0667 I0.025 J0.0433
G2 X119.55 Y-90.0 Z-19.2 I0.025 J-0.0433
G2 X119.475 Y-90.0433 Z-19.3333 I-0.05 J0.0
G2 Y-89.9567 Z-19.4667 I0.025 J0.0433
G2 X119.55 Y-90.0 Z-19.6 I0.025 J-0.0433
G2 X119.475 Y-90.0433 Z-19.7333 I-0.05 J0.0
G2 Y-89.9567 Z-19.8667 I0.025 J0.0433
G2 X119.55 Y-90.0 Z-20.0 I0.025 J-0.0433
G2 X119.475 Y-90.0433 I-0.05 J0.0
G2 Y-89.9567 I0.025 J0.0433
G2 X119.55 Y-90.0 I0.025 J-0.0433
G0 Z40.0
G0 X80.55
G0 Z1.0
G1 F300.0 Z0.0
G2 F800.0 X80.475 Y-90.0433 Z-0.1333 I-0.05 J0.0
G2 Y-89.9567 Z-0.2667 I0.025 J0.0433
G2 X80.55 Y-90.0 Z-0.4 I0.025 J-0.0433
G2 X80.475 Y-90.0433 Z-0.5333 I-0.05 J0.0
G2 Y-89.9567 Z-0.6667 I0.025 J0.0433
G2 X80.55 Y-90.0 Z-0.8 I0.025 J-0.0433
G2 X80.475 Y-90.0433 Z-0.9333 I-0.05 J0.0
G2 Y-89.9567 Z-1.0667 I0.025 J0.0433
G2 X80.55 Y-90.0 Z-1.2 I0.025 J-0.0433
G2 X80.475 Y-90.0433 Z-1.3333 I-0.05 J0.0
G2 Y-89.9567 Z-1.4667 I0.025 J0.0433
G2 X80.55 Y-90.0 Z-1.6 I0.025 J-0.0433
G2 X80.475 Y-90.0433 Z-1.7333 I-0.05 J0.0
G2 Y-89.9567 Z-1.8667 I0.025 J0.0433
G2 X80.55 Y-90.0 Z-2.0 I0.025 J-0.0433
G2 X80.475 Y-90.0433 Z-2.1333 I-0.05 J0.0
G2 Y-89.9567 Z-2.2667 I0.025 J0.0433
G2 X80.55 Y-90.0 Z-2.4 I0.025 J-0.0433
G2 X80.475 Y-90.0433 Z-2.5333 I-0.05 J0.0
G2 Y-89.9567 Z-2.6667 I0.025 J0.0433
G2 X80.55 Y-90.0 Z-2.8 I0.025 J-0.0433
G2 X80.475 Y-90.0433 Z-2.9333 I-0.05 J0.0
G2 Y-89.9567 Z-3.0667 I0.025 J0.0433
G2 X80.55 Y-90.0 Z-3.2 I0.025 J-0.0433
G2 X80.475 Y-90.0433 Z-3.3333 I-0.05 J0.0
G2 Y-89.9567 Z-3.4667 I0.025 J0.0433
G2 X80.55 Y-90.0 Z-3.6 I0.025 J-0.0433
G2 X80.475 Y-90.0433 Z-3.7333 I-0.05 J0.0
G2 Y-89.9567 Z-3.8667 I0.025 J0.0433
G2 X80.55 Y-90.0 Z-4.0 I0.025 J-0.0433
G2 X80.475 Y-90.0433 Z-4.1333 I-0.05 J0.0
G2 Y-89.9567 Z-4.2667 I0.025 J0.0433
G2 X80.55 Y-90.0 Z-4.4 I0.025 J-0.0433
G2 X80.475 Y-90.0433 Z-4.5333 I-0.05 J0.0
G2 Y-89.9567 Z-4.6667 I0.025 J0.0433
G2 X80.55 Y-90.0 Z-4.8 I0.025 J-0.0433
G2 X80.475 Y-90.0433 Z-4.9333 I-0.05 J0.0
G2 Y-89.9567 Z-5.0667 I0.025 J0.0433
G2 X80.55 Y-90.0 Z-5.2 I0.025 J-0.0433
G2 X80.475 Y-90.0433 Z-5.3333 I-0.05 J0.0
G2 Y-89.9567 Z-5.4667 I0.025 J0.0433
G2 X80.55 Y-90.0 Z-5.6 I0.025 J-0.0433
G2 X80.475 Y-90.0433 Z-5.7333 I-0.05 J0.0
G2 Y-89.9567 Z-5.8667 I0.025 J0.0433
G2 X80.55 Y-90.0 Z-6.0 I0.025 J-0.0433
G2 X80.475 Y-90.0433 Z-6.1333 I-0.05 J0.0
G2 Y-89.9567 Z-6.2667 I0.025 J0.0433
G2 X80.55 Y-90.0 Z-6.4 I0.025 J-0.0433
G2 X80.475 Y-90.0433 Z-6.5333 I-0.05 J0.0
G2 Y-89.9567 Z-6.6667 I0.025 J0.0433
G2 X80.55 Y-90.0 Z-6.8 I0.025 J-0.0433
G2 X80.475 Y-90.0433 Z-6.9333 I-0.05 J0.0
G2 Y-89.9567 Z-7.0667 I0.025 J0.0433
G2 X80.55 Y-90.0 Z-7.2 I0.025 J-0.0433
G2 X80.475 Y-90.0433 Z-7.3333 I-0.05 J0.0
G2 Y-89.9567 Z-7.4667 I0.025 J0.0433
G2 X80.55 Y-90.0 Z-7.6 I0.025 J-0.0433
G2 X80.475 Y-90.0433 Z-7.7333 I-0.05 J0.0
G2 Y-89.9567 Z-7.8667 I0.025 J0.0433
G2 X80.55 Y-90.0 Z-8.0 I0.025 J-0.0433
G2 X80.475 Y-90.0433 Z-8.1333 I-0.05 J0.0
G2 Y-89.9567 Z-8.2667 I0.025 J0.0433
G2 X80.55 Y-90.0 Z-8.4 I0.025 J-0.0433
G2 X80.475 Y-90.0433 Z-8.5333 I-0.05 J0.0
G2 Y-89.9567 Z-8.6667 I0.025 J0.0433
G2 X80.55 Y-90.0 Z-8.8 I0.025 J-0.0433
G2 X80.475 Y-90.0433 Z-8.9333 I-0.05 J0.0
G2 Y-89.9567 Z-9.0667 I0.025 J0.0433
G2 X80.55 Y-90.0 Z-9.2 I0.025 J-0.0433
G2 X80.475 Y-90.0433 Z-9.3333 I-0.05 J0.0
G2 Y-89.9567 Z-9.4667 I0.025 J0.0433
G2 X80.55 Y-90.0 Z-9.6 I0.025 J-0.0433
G2 X80.475 Y-90.0433 Z-9.7333 I-0.05 J0.0
G2 Y-89.9567 Z-9.8667 I0.025 J0.0433
G2 X80.55 Y-90.0 Z-10.0 I0.025 J-0.0433
G2 X80.475 Y-90.0433 Z-10.1333 I-0.05 J0.0
G2 Y-89.9567 Z-10.2667 I0.025 J0.0433
G2 X80.55 Y-90.0 Z-10.4 I0.025 J-0.0433
G2 X80.475 Y-90.0433 Z-10.5333 I-0.05 J0.0
G2 Y-89.9567 Z-10.6667 I0.025 J0.0433
G2 X80.55 Y-90.0 Z-10.8 I0.025 J-0.0433
G2 X80.475 Y-90.0433 Z-10.9333 I-0.05 J0.0
G2 Y-89.9567 Z-11.0667 I0.025 J0.0433
G2 X80.55 Y-90.0 Z-11.2 I0.025 J-0.0433
G2 X80.475 Y-90.0433 Z-11.3333 I-0.05 J0.0
G2 Y-89.9567 Z-11.4667 I0.025 J0.0433
G2 X80.55 Y-90.0 Z-11.6 I0.025 J-0.0433
G2 X80.475 Y-90.0433 Z-11.7333 I-0.05 J0.0
G2 Y-89.9567 Z-11.8667 I0.025 J0.0433
G2 X80.55 Y-90.0 Z-12.0 I0.025 J-0.0433
G2 X80.475 Y-90.0433 Z-12.1333 I-0.05 J0.0
G2 Y-89.9567 Z-12.2667 I0.025 J0.0433
G2 X80.55 Y-90.0 Z-12.4 I0.025 J-0.0433
G2 X80.475 Y-90.0433 Z-12.5333 I-0.05 J0.0
G2 Y-89.9567 Z-12.6667 I0.025 J0.0433
G2 X80.55 Y-90.0 Z-12.8 I0.025 J-0.0433
G2 X80.475 Y-90.0433 Z-12.9333 I-0.05 J0.0
G2 Y-89.9567 Z-13.0667 I0.025 J0.0433
G2 X80.55 Y-90.0 Z-13.2 I0.025 J-0.0433
G2 X80.475 Y-90.0433 Z-13.3333 I-0.05 J0.0
G2 Y-89.9567 Z-13.4667 I0.025 J0.0433
G2 X80.55 Y-90.0 Z-13.6 I0.025 J-0.0433
G2 X80.475 Y-90.0433 Z-13.7333 I-0.05 J0.0
G2 Y-89.9567 Z-13.8667 I0.025 J0.0433
G2 X80.55 Y-90.0 Z-14.0 I0.025 J-0.0433
G2 X80.475 Y-90.0433 Z-14.1333 I-0.05 J0.0
G2 Y-89.9567 Z-14.2667 I0.025 J0.0433
G2 X80.55 Y-90.0 Z-14.4 I0.025 J-0.0433
G2 X80.475 Y-90.0433 Z-14.5333 I-0.05 J0.0
G2 Y-89.9567 Z-14.6667 I0.025 J0.0433
G2 X80.55 Y-90.0 Z-14.8 I0.025 J-0.0433
G2 X80.475 Y-90.0433 Z-14.9333 I-0.05 J0.0
G2 Y-89.9567 Z-15.0667 I0.025 J0.0433
G2 X80.55 Y-90.0 Z-15.2 I0.025 J-0.0433
G2 X80.475 Y-90.0433 Z-15.3333 I-0.05 J0.0
G2 Y-89.9567 Z-15.4667 I0.025 J0.0433
G2 X80.55 Y-90.0 Z-15.6 I0.025 J-0.0433
G2 X80.475 Y-90.0433 Z-15.7333 I-0.05 J0.0
G2 Y-89.9567 Z-15.8667 I0.025 J0.0433
G2 X80.55 Y-90.0 Z-16.0 I0.025 J-0.0433
G2 X80.475 Y-90.0433 Z-16.1333 I-0.05 J0.0
G2 Y-89.9567 Z-16.2667 I0.025 J0.0433
G2 X80.55 Y-90.0 Z-16.4 I0.025 J-0.0433
G2 X80.475 Y-90.0433 Z-16.5333 I-0.05 J0.0
G2 Y-89.9567 Z-16.6667 I0.025 J0.0433
G2 X80.55 Y-90.0 Z-16.8 I0.025 J-0.0433
G2 X80.475 Y-90.0433 Z-16.9333 I-0.05 J0.0
G2 Y-89.9567 Z-17.0667 I0.025 J0.0433
G2 X80.55 Y-90.0 Z-17.2 I0.025 J-0.0433
G2 X80.475 Y-90.0433 Z-17.3333 I-0.05 J0.0
G2 Y-89.9567 Z-17.4667 I0.025 J0.0433
G2 X80.55 Y-90.0 Z-17.6 I0.025 J-0.0433
G2 X80.475 Y-90.0433 Z-17.7333 I-0.05 J0.0
G2 Y-89.9567 Z-17.8667 I0.025 J0.0433
G2 X80.55 Y-90.0 Z-18.0 I0.025 J-0.0433
G2 X80.475 Y-90.0433 Z-18.1333 I-0.05 J0.0
G2 Y-89.9567 Z-18.2667 I0.025 J0.0433
G2 X80.55 Y-90.0 Z-18.4 I0.025 J-0.0433
G2 X80.475 Y-90.0433 Z-18.5333 I-0.05 J0.0
G2 Y-89.9567 Z-18.6667 I0.025 J0.0433
G2 X80.55 Y-90.0 Z-18.8 I0.025 J-0.0433
G2 X80.475 Y-90.0433 Z-18.9333 I-0.05 J0.0
G2 Y-89.9567 Z-19.0667 I0.025 J0.0433
G2 X80.55 Y-90.0 Z-19.2 I0.025 J-0.0433
G2 X80.475 Y-90.0433 Z-19.3333 I-0.05 J0.0
G2 Y-89.9567 Z-19.4667 I0.025 J0.0433
G2 X80.55 Y-90.0 Z-19.6 I0.025 J-0.0433
G2 X80.475 Y-90.0433 Z-19.7333 I-0.05 J0.0
G2 Y-89.9567 Z-19.8667 I0.025 J0.0433
G2 X80.55 Y-90.0 Z-20.0 I0.025 J-0.0433
G2 X80.475 Y-90.0433 I-0.05 J0.0
G2 Y-89.9567 I0.025 J0.0433
G2 X80.55 Y-90.0 I0.025 J-0.0433
G0 Z40.0
G0 X-80.45
G0 Z1.0
G1 F300.0 Z0.0
G2 F800.0 X-80.525 Y-90.0433 Z-0.1333 I-0.05 J0.0
G2 Y-89.9567 Z-0.2667 I0.025 J0.0433
G2 X-80.45 Y-90.0 Z-0.4 I0.025 J-0.0433
G2 X-80.525 Y-90.0433 Z-0.5333 I-0.05 J0.0
G2 Y-89.9567 Z-0.6667 I0.025 J0.0433
G2 X-80.45 Y-90.0 Z-0.8 I0.025 J-0.0433
G2 X-80.525 Y-90.0433 Z-0.9333 I-0.05 J0.0
G2 Y-89.9567 Z-1.0667 I0.025 J0.0433
G2 X-80.45 Y-90.0 Z-1.2 I0.025 J-0.0433
G2 X-80.525 Y-90.0433 Z-1.3333 I-0.05 J0.0
G2 Y-89.9567 Z-1.4667 I0.025 J0.0433
G2 X-80.45 Y-90.0 Z-1.6 I0.025 J-0.0433
G2 X-80.525 Y-90.0433 Z-1.7333 I-0.05 J0.0
G2 Y-89.9567 Z-1.8667 I0.025 J0.0433
G2 X-80.45 Y-90.0 Z-2.0 I0.025 J-0.0433
G2 X-80.525 Y-90.0433 Z-2.1333 I-0.05 J0.0
G2 Y-89.9567 Z-2.2667 I0.025 J0.0433
G2 X-80.45 Y-90.0 Z-2.4 I0.025 J-0.0433
G2 X-80.525 Y-90.0433 Z-2.5333 I-0.05 J0.0
G2 Y-89.9567 Z-2.6667 I0.025 J0.0433
G2 X-80.45 Y-90.0 Z-2.8 I0.025 J-0.0433
G2 X-80.525 Y-90.0433 Z-2.9333 I-0.05 J0.0
G2 Y-89.9567 Z-3.0667 I0.025 J0.0433
G2 X-80.45 Y-90.0 Z-3.2 I0.025 J-0.0433
G2 X-80.525 Y-90.0433 Z-3.3333 I-0.05 J0.0
G2 Y-89.9567 Z-3.4667 I0.025 J0.0433
G2 X-80.45 Y-90.0 Z-3.6 I0.025 J-0.0433
G2 X-80.525 Y-90.0433 Z-3.7333 I-0.05 J0.0
G2 Y-89.9567 Z-3.8667 I0.025 J0.0433
G2 X-80.45 Y-90.0 Z-4.0 I0.025 J-0.0433
G2 X-80.525 Y-90.0433 Z-4.1333 I-0.05 J0.0
G2 Y-89.9567 Z-4.2667 I0.025 J0.0433
G2 X-80.45 Y-90.0 Z-4.4 I0.025 J-0.0433
G2 X-80.525 Y-90.0433 Z-4.5333 I-0.05 J0.0
G2 Y-89.9567 Z-4.6667 I0.025 J0.0433
G2 X-80.45 Y-90.0 Z-4.8 I0.025 J-0.0433
G2 X-80.525 Y-90.0433 Z-4.9333 I-0.05 J0.0
G2 Y-89.9567 Z-5.0667 I0.025 J0.0433
G2 X-80.45 Y-90.0 Z-5.2 I0.025 J-0.0433
G2 X-80.525 Y-90.0433 Z-5.3333 I-0.05 J0.0
G2 Y-89.9567 Z-5.4667 I0.025 J0.0433
G2 X-80.45 Y-90.0 Z-5.6 I0.025 J-0.0433
G2 X-80.525 Y-90.0433 Z-5.7333 I-0.05 J0.0
G2 Y-89.9567 Z-5.8667 I0.025 J0.0433
G2 X-80.45 Y-90.0 Z-6.0 I0.025 J-0.0433
G2 X-80.525 Y-90.0433 Z-6.1333 I-0.05 J0.0
G2 Y-89.9567 Z-6.2667 I0.025 J0.0433
G2 X-80.45 Y-90.0 Z-6.4 I0.025 J-0.0433
G2 X-80.525 Y-90.0433 Z-6.5333 I-0.05 J0.0
G2 Y-89.9567 Z-6.6667 I0.025 J0.0433
G2 X-80.45 Y-90.0 Z-6.8 I0.025 J-0.0433
G2 X-80.525 Y-90.0433 Z-6.9333 I-0.05 J0.0
G2 Y-89.9567 Z-7.0667 I0.025 J0.0433
G2 X-80.45 Y-90.0 Z-7.2 I0.025 J-0.0433
G2 X-80.525 Y-90.0433 Z-7.3333 I-0.05 J0.0
G2 Y-89.9567 Z-7.4667 I0.025 J0.0433
G2 X-80.45 Y-90.0 Z-7.6 I0.025 J-0.0433
G2 X-80.525 Y-90.0433 Z-7.7333 I-0.05 J0.0
G2 Y-89.9567 Z-7.8667 I0.025 J0.0433
G2 X-80.45 Y-90.0 Z-8.0 I0.025 J-0.0433
G2 X-80.525 Y-90.0433 Z-8.1333 I-0.05 J0.0
G2 Y-89.9567 Z-8.2667 I0.025 J0.0433
G2 X-80.45 Y-90.0 Z-8.4 I0.025 J-0.0433
G2 X-80.525 Y-90.0433 Z-8.5333 I-0.05 J0.0
G2 Y-89.9567 Z-8.6667 I0.025 J0.0433
G2 X-80.45 Y-90.0 Z-8.8 I0.025 J-0.0433
G2 X-80.525 Y-90.0433 Z-8.9333 I-0.05 J0.0
G2 Y-89.9567 Z-9.0667 I0.025 J0.0433
G2 X-80.45 Y-90.0 Z-9.2 I0.025 J-0.0433
G2 X-80.525 Y-90.0433 Z-9.3333 I-0.05 J0.0
G2 Y-89.9567 Z-9.4667 I0.025 J0.0433
G2 X-80.45 Y-90.0 Z-9.6 I0.025 J-0.0433
G2 X-80.525 Y-90.0433 Z-9.7333 I-0.05 J0.0
G2 Y-89.9567 Z-9.8667 I0.025 J0.0433
G2 X-80.45 Y-90.0 Z-10.0 I0.025 J-0.0433
G2 X-80.525 Y-90.0433 Z-10.1333 I-0.05 J0.0
G2 Y-89.9567 Z-10.2667 I0.025 J0.0433
G2 X-80.45 Y-90.0 Z-10.4 I0.025 J-0.0433
G2 X-80.525 Y-90.0433 Z-10.5333 I-0.05 J0.0
G2 Y-89.9567 Z-10.6667 I0.025 J0.0433
G2 X-80.45 Y-90.0 Z-10.8 I0.025 J-0.0433
G2 X-80.525 Y-90.0433 Z-10.9333 I-0.05 J0.0
G2 Y-89.9567 Z-11.0667 I0.025 J0.0433
G2 X-80.45 Y-90.0 Z-11.2 I0.025 J-0.0433
G2 X-80.525 Y-90.0433 Z-11.3333 I-0.05 J0.0
G2 Y-89.9567 Z-11.4667 I0.025 J0.0433
G2 X-80.45 Y-90.0 Z-11.6 I0.025 J-0.0433
G2 X-80.525 Y-90.0433 Z-11.7333 I-0.05 J0.0
G2 Y-89.9567 Z-11.8667 I0.025 J0.0433
G2 X-80.45 Y-90.0 Z-12.0 I0.025 J-0.0433
G2 X-80.525 Y-90.0433 Z-12.1333 I-0.05 J0.0
G2 Y-89.9567 Z-12.2667 I0.025 J0.0433
G2 X-80.45 Y-90.0 Z-12.4 I0.025 J-0.0433
G2 X-80.525 Y-90.0433 Z-12.5333 I-0.05 J0.0
G2 Y-89.9567 Z-12.6667 I0.025 J0.0433
G2 X-80.45 Y-90.0 Z-12.8 I0.025 J-0.0433
G2 X-80.525 Y-90.0433 Z-12.9333 I-0.05 J0.0
G2 Y-89.9567 Z-13.0667 I0.025 J0.0433
G2 X-80.45 Y-90.0 Z-13.2 I0.025 J-0.0433
G2 X-80.525 Y-90.0433 Z-13.3333 I-0.05 J0.0
G2 Y-89.9567 Z-13.4667 I0.025 J0.0433
G2 X-80.45 Y-90.0 Z-13.6 I0.025 J-0.0433
G2 X-80.525 Y-90.0433 Z-13.7333 I-0.05 J0.0
G2 Y-89.9567 Z-13.8667 I0.025 J0.0433
G2 X-80.45 Y-90.0 Z-14.0 I0.025 J-0.0433
G2 X-80.525 Y-90.0433 Z-14.1333 I-0.05 J0.0
G2 Y-89.9567 Z-14.2667 I0.025 J0.0433
G2 X-80.45 Y-90.0 Z-14.4 I0.025 J-0.0433
G2 X-80.525 Y-90.0433 Z-14.5333 I-0.05 J0.0
G2 Y-89.9567 Z-14.6667 I0.025 J0.0433
G2 X-80.45 Y-90.0 Z-14.8 I0.025 J-0.0433
G2 X-80.525 Y-90.0433 Z-14.9333 I-0.05 J0.0
G2 Y-89.9567 Z-15.0667 I0.025 J0.0433
G2 X-80.45 Y-90.0 Z-15.2 I0.025 J-0.0433
G2 X-80.525 Y-90.0433 Z-15.3333 I-0.05 J0.0
G2 Y-89.9567 Z-15.4667 I0.025 J0.0433
G2 X-80.45 Y-90.0 Z-15.6 I0.025 J-0.0433
G2 X-80.525 Y-90.0433 Z-15.7333 I-0.05 J0.0
G2 Y-89.9567 Z-15.8667 I0.025 J0.0433
G2 X-80.45 Y-90.0 Z-16.0 I0.025 J-0.0433
G2 X-80.525 Y-90.0433 Z-16.1333 I-0.05 J0.0
G2 Y-89.9567 Z-16.2667 I0.025 J0.0433
G2 X-80.45 Y-90.0 Z-16.4 I0.025 J-0.0433
G2 X-80.525 Y-90.0433 Z-16.5333 I-0.05 J0.0
G2 Y-89.9567 Z-16.6667 I0.025 J0.0433
G2 X-80.45 Y-90.0 Z-16.8 I0.025 J-0.0433
G2 X-80.525 Y-90.0433 Z-16.9333 I-0.05 J0.0
G2 Y-89.9567 Z-17.0667 I0.025 J0.0433
G2 X-80.45 Y-90.0 Z-17.2 I0.025 J-0.0433
G2 X-80.525 Y-90.0433 Z-17.3333 I-0.05 J0.0
G2 Y-89.9567 Z-17.4667 I0.025 J0.0433
G2 X-80.45 Y-90.0 Z-17.6 I0.025 J-0.0433
G2 X-80.525 Y-90.0433 Z-17.7333 I-0.05 J0.0
G2 Y-89.9567 Z-17.8667 I0.025 J0.0433
G2 X-80.45 Y-90.0 Z-18.0 I0.025 J-0.0433
G2 X-80.525 Y-90.0433 Z-18.1333 I-0.05 J0.0
G2 Y-89.9567 Z-18.2667 I0.025 J0.0433
G2 X-80.45 Y-90.0 Z-18.4 I0.025 J-0.0433
G2 X-80.525 Y-90.0433 Z-18.5333 I-0.05 J0.0
G2 Y-89.9567 Z-18.6667 I0.025 J0.0433
G2 X-80.45 Y-90.0 Z-18.8 I0.025 J-0.0433
G2 X-80.525 Y-90.0433 Z-18.9333 I-0.05 J0.0
G2 Y-89.9567 Z-19.0667 I0.025 J0.0433
G2 X-80.45 Y-90.0 Z-19.2 I0.025 J-0.0433
G2 X-80.525 Y-90.0433 Z-19.3333 I-0.05 J0.0
G2 Y-89.9567 Z-19.4667 I0.025 J0.0433
G2 X-80.45 Y-90.0 Z-19.6 I0.025 J-0.0433
G2 X-80.525 Y-90.0433 Z-19.7333 I-0.05 J0.0
G2 Y-89.9567 Z-19.8667 I0.025 J0.0433
G2 X-80.45 Y-90.0 Z-20.0 I0.025 J-0.0433
G2 X-80.525 Y-90.0433 I-0.05 J0.0
G2 Y-89.9567 I0.025 J0.0433
G2 X-80.45 Y-90.0 I0.025 J-0.0433
G0 Z40.0
G0 X-119.45
G0 Z1.0
G1 F300.0 Z0.0
G2 F800.0 X-119.525 Y-90.0433 Z-0.1333 I-0.05 J0.0
G2 Y-89.9567 Z-0.2667 I0.025 J0.0433
G2 X-119.45 Y-90.0 Z-0.4 I0.025 J-0.0433
G2 X-119.525 Y-90.0433 Z-0.5333 I-0.05 J0.0
G2 Y-89.9567 Z-0.6667 I0.025 J0.0433
G2 X-119.45 Y-90.0 Z-0.8 I0.025 J-0.0433
G2 X-119.525 Y-90.0433 Z-0.9333 I-0.05 J0.0
G2 Y-89.9567 Z-1.0667 I0.025 J0.0433
G2 X-119.45 Y-90.0 Z-1.2 I0.025 J-0.0433
G2 X-119.525 Y-90.0433 Z-1.3333 I-0.05 J0.0
G2 Y-89.9567 Z-1.4667 I0.025 J0.0433
G2 X-119.45 Y-90.0 Z-1.6 I0.025 J-0.0433
G2 X-119.525 Y-90.0433 Z-1.7333 I-0.05 J0.0
G2 Y-89.9567 Z-1.8667 I0.025 J0.0433
G2 X-119.45 Y-90.0 Z-2.0 I0.025 J-0.0433
G2 X-119.525 Y-90.0433 Z-2.1333 I-0.05 J0.0
G2 Y-89.9567 Z-2.2667 I0.025 J0.0433
G2 X-119.45 Y-90.0 Z-2.4 I0.025 J-0.0433
G2 X-119.525 Y-90.0433 Z-2.5333 I-0.05 J0.0
G2 Y-89.9567 Z-2.6667 I0.025 J0.0433
G2 X-119.45 Y-90.0 Z-2.8 I0.025 J-0.0433
G2 X-119.525 Y-90.0433 Z-2.9333 I-0.05 J0.0
G2 Y-89.9567 Z-3.0667 I0.025 J0.0433
G2 X-119.45 Y-90.0 Z-3.2 I0.025 J-0.0433
G2 X-119.525 Y-90.0433 Z-3.3333 I-0.05 J0.0
G2 Y-89.9567 Z-3.4667 I0.025 J0.0433
G2 X-119.45 Y-90.0 Z-3.6 I0.025 J-0.0433
G2 X-119.525 Y-90.0433 Z-3.7333 I-0.05 J0.0
G2 Y-89.9567 Z-3.8667 I0.025 J0.0433
G2 X-119.45 Y-90.0 Z-4.0 I0.025 J-0.0433
G2 X-119.525 Y-90.0433 Z-4.1333 I-0.05 J0.0
G2 Y-89.9567 Z-4.2667 I0.025 J0.0433
G2 X-119.45 Y-90.0 Z-4.4 I0.025 J-0.0433
G2 X-119.525 Y-90.0433 Z-4.5333 I-0.05 J0.0
G2 Y-89.9567 Z-4.6667 I0.025 J0.0433
G2 X-119.45 Y-90.0 Z-4.8 I0.025 J-0.0433
G2 X-119.525 Y-90.0433 Z-4.9333 I-0.05 J0.0
G2 Y-89.9567 Z-5.0667 I0.025 J0.0433
G2 X-119.45 Y-90.0 Z-5.2 I0.025 J-0.0433
G2 X-119.525 Y-90.0433 Z-5.3333 I-0.05 J0.0
G2 Y-89.9567 Z-5.4667 I0.025 J0.0433
G2 X-119.45 Y-90.0 Z-5.6 I0.025 J-0.0433
G2 X-119.525 Y-90.0433 Z-5.7333 I-0.05 J0.0
G2 Y-89.9567 Z-5.8667 I0.025 J0.0433
G2 X-119.45 Y-90.0 Z-6.0 I0.025 J-0.0433
G2 X-119.525 Y-90.0433 Z-6.1333 I-0.05 J0.0
G2 Y-89.9567 Z-6.2667 I0.025 J0.0433
G2 X-119.45 Y-90.0 Z-6.4 I0.025 J-0.0433
G2 X-119.525 Y-90.0433 Z-6.5333 I-0.05 J0.0
G2 Y-89.9567 Z-6.6667 I0.025 J0.0433
G2 X-119.45 Y-90.0 Z-6.8 I0.025 J-0.0433
G2 X-119.525 Y-90.0433 Z-6.9333 I-0.05 J0.0
G2 Y-89.9567 Z-7.0667 I0.025 J0.0433
G2 X-119.45 Y-90.0 Z-7.2 I0.025 J-0.0433
G2 X-119.525 Y-90.0433 Z-7.3333 I-0.05 J0.0
G2 Y-89.9567 Z-7.4667 I0.025 J0.0433
G2 X-119.45 Y-90.0 Z-7.6 I0.025 J-0.0433
G2 X-119.525 Y-90.0433 Z-7.7333 I-0.05 J0.0
G2 Y-89.9567 Z-7.8667 I0.025 J0.0433
G2 X-119.45 Y-90.0 Z-8.0 I0.025 J-0.0433
G2 X-119.525 Y-90.0433 Z-8.1333 I-0.05 J0.0
G2 Y-89.9567 Z-8.2667 I0.025 J0.0433
G2 X-119.45 Y-90.0 Z-8.4 I0.025 J-0.0433
G2 X-119.525 Y-90.0433 Z-8.5333 I-0.05 J0.0
G2 Y-89.9567 Z-8.6667 I0.025 J0.0433
G2 X-119.45 Y-90.0 Z-8.8 I0.025 J-0.0433
G2 X-119.525 Y-90.0433 Z-8.9333 I-0.05 J0.0
G2 Y-89.9567 Z-9.0667 I0.025 J0.0433
G2 X-119.45 Y-90.0 Z-9.2 I0.025 J-0.0433
G2 X-119.525 Y-90.0433 Z-9.3333 I-0.05 J0.0
G2 Y-89.9567 Z-9.4667 I0.025 J0.0433
G2 X-119.45 Y-90.0 Z-9.6 I0.025 J-0.0433
G2 X-119.525 Y-90.0433 Z-9.7333 I-0.05 J0.0
G2 Y-89.9567 Z-9.8667 I0.025 J0.0433
G2 X-119.45 Y-90.0 Z-10.0 I0.025 J-0.0433
G2 X-119.525 Y-90.0433 Z-10.1333 I-0.05 J0.0
G2 Y-89.9567 Z-10.2667 I0.025 J0.0433
G2 X-119.45 Y-90.0 Z-10.4 I0.025 J-0.0433
G2 X-119.525 Y-90.0433 Z-10.5333 I-0.05 J0.0
G2 Y-89.9567 Z-10.6667 I0.025 J0.0433
G2 X-119.45 Y-90.0 Z-10.8 I0.025 J-0.0433
G2 X-119.525 Y-90.0433 Z-10.9333 I-0.05 J0.0
G2 Y-89.9567 Z-11.0667 I0.025 J0.0433
G2 X-119.45 Y-90.0 Z-11.2 I0.025 J-0.0433
G2 X-119.525 Y-90.0433 Z-11.3333 I-0.05 J0.0
G2 Y-89.9567 Z-11.4667 I0.025 J0.0433
G2 X-119.45 Y-90.0 Z-11.6 I0.025 J-0.0433
G2 X-119.525 Y-90.0433 Z-11.7333 I-0.05 J0.0
G2 Y-89.9567 Z-11.8667 I0.025 J0.0433
G2 X-119.45 Y-90.0 Z-12.0 I0.025 J-0.0433
G2 X-119.525 Y-90.0433 Z-12.1333 I-0.05 J0.0
G2 Y-89.9567 Z-12.2667 I0.025 J0.0433
G2 X-119.45 Y-90.0 Z-12.4 I0.025 J-0.0433
G2 X-119.525 Y-90.0433 Z-12.5333 I-0.05 J0.0
G2 Y-89.9567 Z-12.6667 I0.025 J0.0433
G2 X-119.45 Y-90.0 Z-12.8 I0.025 J-0.0433
G2 X-119.525 Y-90.0433 Z-12.9333 I-0.05 J0.0
G2 Y-89.9567 Z-13.0667 I0.025 J0.0433
G2 X-119.45 Y-90.0 Z-13.2 I0.025 J-0.0433
G2 X-119.525 Y-90.0433 Z-13.3333 I-0.05 J0.0
G2 Y-89.9567 Z-13.4667 I0.025 J0.0433
G2 X-119.45 Y-90.0 Z-13.6 I0.025 J-0.0433
G2 X-119.525 Y-90.0433 Z-13.7333 I-0.05 J0.0
G2 Y-89.9567 Z-13.8667 I0.025 J0.0433
G2 X-119.45 Y-90.0 Z-14.0 I0.025 J-0.0433
G2 X-119.525 Y-90.0433 Z-14.1333 I-0.05 J0.0
G2 Y-89.9567 Z-14.2667 I0.025 J0.0433
G2 X-119.45 Y-90.0 Z-14.4 I0.025 J-0.0433
G2 X-119.525 Y-90.0433 Z-14.5333 I-0.05 J0.0
G2 Y-89.9567 Z-14.6667 I0.025 J0.0433
G2 X-119.45 Y-90.0 Z-14.8 I0.025 J-0.0433
G2 X-119.525 Y-90.0433 Z-14.9333 I-0.05 J0.0
G2 Y-89.9567 Z-15.0667 I0.025 J0.0433
G2 X-119.45 Y-90.0 Z-15.2 I0.025 J-0.0433
G2 X-119.525 Y-90.0433 Z-15.3333 I-0.05 J0.0
G2 Y-89.9567 Z-15.4667 I0.025 J0.0433
G2 X-119.45 Y-90.0 Z-15.6 I0.025 J-0.0433
G2 X-119.525 Y-90.0433 Z-15.7333 I-0.05 J0.0
G2 Y-89.9567 Z-15.8667 I0.025 J0.0433
G2 X-119.45 Y-90.0 Z-16.0 I0.025 J-0.0433
G2 X-119.525 Y-90.0433 Z-16.1333 I-0.05 J0.0
G2 Y-89.9567 Z-16.2667 I0.025 J0.0433
G2 X-119.45 Y-90.0 Z-16.4 I0.025 J-0.0433
G2 X-119.525 Y-90.0433 Z-16.5333 I-0.05 J0.0
G2 Y-89.9567 Z-16.6667 I0.025 J0.0433
G2 X-119.45 Y-90.0 Z-16.8 I0.025 J-0.0433
G2 X-119.525 Y-90.0433 Z-16.9333 I-0.05 J0.0
G2 Y-89.9567 Z-17.0667 I0.025 J0.0433
G2 X-119.45 Y-90.0 Z-17.2 I0.025 J-0.0433
G2 X-119.525 Y-90.0433 Z-17.3333 I-0.05 J0.0
G2 Y-89.9567 Z-17.4667 I0.025 J0.0433
G2 X-119.45 Y-90.0 Z-17.6 I0.025 J-0.0433
G2 X-119.525 Y-90.0433 Z-17.7333 I-0.05 J0.0
G2 Y-89.9567 Z-17.8667 I0.025 J0.0433
G2 X-119.45 Y-90.0 Z-18.0 I0.025 J-0.0433
G2 X-119.525 Y-90.0433 Z-18.1333 I-0.05 J0.0
G2 Y-89.9567 Z-18.2667 I0.025 J0.0433
G2 X-119.45 Y-90.0 Z-18.4 I0.025 J-0.0433
G2 X-119.525 Y-90.0433 Z-18.5333 I-0.05 J0.0
G2 Y-89.9567 Z-18.6667 I0.025 J0.0433
G2 X-119.45 Y-90.0 Z-18.8 I0.025 J-0.0433
G2 X-119.525 Y-90.0433 Z-18.9333 I-0.05 J0.0
G2 Y-89.9567 Z-19.0667 I0.025 J0.0433
G2 X-119.45 Y-90.0 Z-19.2 I0.025 J-0.0433
G2 X-119.525 Y-90.0433 Z-19.3333 I-0.05 J0.0
G2 Y-89.9567 Z-19.4667 I0.025 J0.0433
G2 X-119.45 Y-90.0 Z-19.6 I0.025 J-0.0433
G2 X-119.525 Y-90.0433 Z-19.7333 I-0.05 J0.0
G2 Y-89.9567 Z-19.8667 I0.025 J0.0433
G2 X-119.45 Y-90.0 Z-20.0 I0.025 J-0.0433
G2 X-119.525 Y-90.0433 I-0.05 J0.0
G2 Y-89.9567 I0.025 J0.0433
G2 X-119.45 Y-90.0 I0.025 J-0.0433
G0 Z40.0
G0 Y-70.0
G0 Z1.0
G1 F300.0 Z0.0
G2 F800.0 X-119.525 Y-70.0433 Z-0.1333 I-0.05 J0.0
G2 Y-69.9567 Z-0.2667 I0.025 J0.0433
G2 X-119.45 Y-70.0 Z-0.4 I0.025 J-0.0433
G2 X-119.525 Y-70.0433 Z-0.5333 I-0.05 J0.0
G2 Y-69.9567 Z-0.6667 I0.025 J0.0433
G2 X-119.45 Y-70.0 Z-0.8 I0.025 J-0.0433
G2 X-119.525 Y-70.0433 Z-0.9333 I-0.05 J0.0
G2 Y-69.9567 Z-1.0667 I0.025 J0.0433
G2 X-119.45 Y-70.0 Z-1.2 I0.025 J-0.0433
G2 X-119.525 Y-70.0433 Z-1.3333 I-0.05 J0.0
G2 Y-69.9567 Z-1.4667 I0.025 J0.0433
G2 X-119.45 Y-70.0 Z-1.6 I0.025 J-0.0433
G2 X-119.525 Y-70.0433 Z-1.7333 I-0.05 J0.0
G2 Y-69.9567 Z-1.8667 I0.025 J0.0433
G2 X-119.45 Y-70.0 Z-2.0 I0.025 J-0.0433
G2 X-119.525 Y-70.0433 Z-2.1333 I-0.05 J0.0
G2 Y-69.9567 Z-2.2667 I0.025 J0.0433
G2 X-119.45 Y-70.0 Z-2.4 I0.025 J-0.0433
G2 X-119.525 Y-70.0433 Z-2.5333 I-0.05 J0.0
G2 Y-69.9567 Z-2.6667 I0.025 J0.0433
G2 X-119.45 Y-70.0 Z-2.8 I0.025 J-0.0433
G2 X-119.525 Y-70.0433 Z-2.9333 I-0.05 J0.0
G2 Y-69.9567 Z-3.0667 I0.025 J0.0433
G2 X-119.45 Y-70.0 Z-3.2 I0.025 J-0.0433
G2 X-119.525 Y-70.0433 Z-3.3333 I-0.05 J0.0
G2 Y-69.9567 Z-3.4667 I0.025 J0.0433
G2 X-119.45 Y-70.0 Z-3.6 I0.025 J-0.0433
G2 X-119.525 Y-70.0433 Z-3.7333 I-0.05 J0.0
G2 Y-69.9567 Z-3.8667 I0.025 J0.0433
G2 X-119.45 Y-70.0 Z-4.0 I0.025 J-0.0433
G2 X-119.525 Y-70.0433 Z-4.1333 I-0.05 J0.0
G2 Y-69.9567 Z-4.2667 I0.025 J0.0433
G2 X-119.45 Y-70.0 Z-4.4 I0.025 J-0.0433
G2 X-119.525 Y-70.0433 Z-4.5333 I-0.05 J0.0
G2 Y-69.9567 Z-4.6667 I0.025 J0.0433
G2 X-119.45 Y-70.0 Z-4.8 I0.025 J-0.0433
G2 X-119.525 Y-70.0433 Z-4.9333 I-0.05 J0.0
G2 Y-69.9567 Z-5.0667 I0.025 J0.0433
G2 X-119.45 Y-70.0 Z-5.2 I0.025 J-0.0433
G2 X-119.525 Y-70.0433 Z-5.3333 I-0.05 J0.0
G2 Y-69.9567 Z-5.4667 I0.025 J0.0433
G2 X-119.45 Y-70.0 Z-5.6 I0.025 J-0.0433
G2 X-119.525 Y-70.0433 Z-5.7333 I-0.05 J0.0
G2 Y-69.9567 Z-5.8667 I0.025 J0.0433
G2 X-119.45 Y-70.0 Z-6.0 I0.025 J-0.0433
G2 X-119.525 Y-70.0433 Z-6.1333 I-0.05 J0.0
G2 Y-69.9567 Z-6.2667 I0.025 J0.0433
G2 X-119.45 Y-70.0 Z-6.4 I0.025 J-0.0433
G2 X-119.525 Y-70.0433 Z-6.5333 I-0.05 J0.0
G2 Y-69.9567 Z-6.6667 I0.025 J0.0433
G2 X-119.45 Y-70.0 Z-6.8 I0.025 J-0.0433
G2 X-119.525 Y-70.0433 Z-6.9333 I-0.05 J0.0
G2 Y-69.9567 Z-7.0667 I0.025 J0.0433
G2 X-119.45 Y-70.0 Z-7.2 I0.025 J-0.0433
G2 X-119.525 Y-70.0433 Z-7.3333 I-0.05 J0.0
G2 Y-69.9567 Z-7.4667 I0.025 J0.0433
G2 X-119.45 Y-70.0 Z-7.6 I0.025 J-0.0433
G2 X-119.525 Y-70.0433 Z-7.7333 I-0.05 J0.0
G2 Y-69.9567 Z-7.8667 I0.025 J0.0433
G2 X-119.45 Y-70.0 Z-8.0 I0.025 J-0.0433
G2 X-119.525 Y-70.0433 Z-8.1333 I-0.05 J0.0
G2 Y-69.9567 Z-8.2667 I0.025 J0.0433
G2 X-119.45 Y-70.0 Z-8.4 I0.025 J-0.0433
G2 X-119.525 Y-70.0433 Z-8.5333 I-0.05 J0.0
G2 Y-69.9567 Z-8.6667 I0.025 J0.0433
G2 X-119.45 Y-70.0 Z-8.8 I0.025 J-0.0433
G2 X-119.525 Y-70.0433 Z-8.9333 I-0.05 J0.0
G2 Y-69.9567 Z-9.0667 I0.025 J0.0433
G2 X-119.45 Y-70.0 Z-9.2 I0.025 J-0.0433
G2 X-119.525 Y-70.0433 Z-9.3333 I-0.05 J0.0
G2 Y-69.9567 Z-9.4667 I0.025 J0.0433
G2 X-119.45 Y-70.0 Z-9.6 I0.025 J-0.0433
G2 X-119.525 Y-70.0433 Z-9.7333 I-0.05 J0.0
G2 Y-69.9567 Z-9.8667 I0.025 J0.0433
G2 X-119.45 Y-70.0 Z-10.0 I0.025 J-0.0433
G2 X-119.525 Y-70.0433 Z-10.1333 I-0.05 J0.0
G2 Y-69.9567 Z-10.2667 I0.025 J0.0433
G2 X-119.45 Y-70.0 Z-10.4 I0.025 J-0.0433
G2 X-119.525 Y-70.0433 Z-10.5333 I-0.05 J0.0
G2 Y-69.9567 Z-10.6667 I0.025 J0.0433
G2 X-119.45 Y-70.0 Z-10.8 I0.025 J-0.0433
G2 X-119.525 Y-70.0433 Z-10.9333 I-0.05 J0.0
G2 Y-69.9567 Z-11.0667 I0.025 J0.0433
G2 X-119.45 Y-70.0 Z-11.2 I0.025 J-0.0433
G2 X-119.525 Y-70.0433 Z-11.3333 I-0.05 J0.0
G2 Y-69.9567 Z-11.4667 I0.025 J0.0433
G2 X-119.45 Y-70.0 Z-11.6 I0.025 J-0.0433
G2 X-119.525 Y-70.0433 Z-11.7333 I-0.05 J0.0
G2 Y-69.9567 Z-11.8667 I0.025 J0.0433
G2 X-119.45 Y-70.0 Z-12.0 I0.025 J-0.0433
G2 X-119.525 Y-70.0433 Z-12.1333 I-0.05 J0.0
G2 Y-69.9567 Z-12.2667 I0.025 J0.0433
G2 X-119.45 Y-70.0 Z-12.4 I0.025 J-0.0433
G2 X-119.525 Y-70.0433 Z-12.5333 I-0.05 J0.0
G2 Y-69.9567 Z-12.6667 I0.025 J0.0433
G2 X-119.45 Y-70.0 Z-12.8 I0.025 J-0.0433
G2 X-119.525 Y-70.0433 Z-12.9333 I-0.05 J0.0
G2 Y-69.9567 Z-13.0667 I0.025 J0.0433
G2 X-119.45 Y-70.0 Z-13.2 I0.025 J-0.0433
G2 X-119.525 Y-70.0433 Z-13.3333 I-0.05 J0.0
G2 Y-69.9567 Z-13.4667 I0.025 J0.0433
G2 X-119.45 Y-70.0 Z-13.6 I0.025 J-0.0433
G2 X-119.525 Y-70.0433 Z-13.7333 I-0.05 J0.0
G2 Y-69.9567 Z-13.8667 I0.025 J0.0433
G2 X-119.45 Y-70.0 Z-14.0 I0.025 J-0.0433
G2 X-119.525 Y-70.0433 Z-14.1333 I-0.05 J0.0
G2 Y-69.9567 Z-14.2667 I0.025 J0.0433
G2 X-119.45 Y-70.0 Z-14.4 I0.025 J-0.0433
G2 X-119.525 Y-70.0433 Z-14.5333 I-0.05 J0.0
G2 Y-69.9567 Z-14.6667 I0.025 J0.0433
G2 X-119.45 Y-70.0 Z-14.8 I0.025 J-0.0433
G2 X-119.525 Y-70.0433 Z-14.9333 I-0.05 J0.0
G2 Y-69.9567 Z-15.0667 I0.025 J0.0433
G2 X-119.45 Y-70.0 Z-15.2 I0.025 J-0.0433
G2 X-119.525 Y-70.0433 Z-15.3333 I-0.05 J0.0
G2 Y-69.9567 Z-15.4667 I0.025 J0.0433
G2 X-119.45 Y-70.0 Z-15.6 I0.025 J-0.0433
G2 X-119.525 Y-70.0433 Z-15.7333 I-0.05 J0.0
G2 Y-69.9567 Z-15.8667 I0.025 J0.0433
G2 X-119.45 Y-70.0 Z-16.0 I0.025 J-0.0433
G2 X-119.525 Y-70.0433 Z-16.1333 I-0.05 J0.0
G2 Y-69.9567 Z-16.2667 I0.025 J0.0433
G2 X-119.45 Y-70.0 Z-16.4 I0.025 J-0.0433
G2 X-119.525 Y-70.0433 Z-16.5333 I-0.05 J0.0
G2 Y-69.9567 Z-16.6667 I0.025 J0.0433
G2 X-119.45 Y-70.0 Z-16.8 I0.025 J-0.0433
G2 X-119.525 Y-70.0433 Z-16.9333 I-0.05 J0.0
G2 Y-69.9567 Z-17.0667 I0.025 J0.0433
G2 X-119.45 Y-70.0 Z-17.2 I0.025 J-0.0433
G2 X-119.525 Y-70.0433 Z-17.3333 I-0.05 J0.0
G2 Y-69.9567 Z-17.4667 I0.025 J0.0433
G2 X-119.45 Y-70.0 Z-17.6 I0.025 J-0.0433
G2 X-119.525 Y-70.0433 Z-17.7333 I-0.05 J0.0
G2 Y-69.9567 Z-17.8667 I0.025 J0.0433
G2 X-119.45 Y-70.0 Z-18.0 I0.025 J-0.0433
G2 X-119.525 Y-70.0433 Z-18.1333 I-0.05 J0.0
G2 Y-69.9567 Z-18.2667 I0.025 J0.0433
G2 X-119.45 Y-70.0 Z-18.4 I0.025 J-0.0433
G2 X-119.525 Y-70.0433 Z-18.5333 I-0.05 J0.0
G2 Y-69.9567 Z-18.6667 I0.025 J0.0433
G2 X-119.45 Y-70.0 Z-18.8 I0.025 J-0.0433
G2 X-119.525 Y-70.0433 Z-18.9333 I-0.05 J0.0
G2 Y-69.9567 Z-19.0667 I0.025 J0.0433
G2 X-119.45 Y-70.0 Z-19.2 I0.025 J-0.0433
G2 X-119.525 Y-70.0433 Z-19.3333 I-0.05 J0.0
G2 Y-69.9567 Z-19.4667 I0.025 J0.0433
G2 X-119.45 Y-70.0 Z-19.6 I0.025 J-0.0433
G2 X-119.525 Y-70.0433 Z-19.7333 I-0.05 J0.0
G2 Y-69.9567 Z-19.8667 I0.025 J0.0433
G2 X-119.45 Y-70.0 Z-20.0 I0.025 J-0.0433
G2 X-119.525 Y-70.0433 I-0.05 J0.0
G2 Y-69.9567 I0.025 J0.0433
G2 X-119.45 Y-70.0 I0.025 J-0.0433
G0 Z40.0
M5
M30
