( Made using CamBam - http://www.cambam.co.uk )
( vacuum20x20 7/10/2016 8:02:53 PM )
( T0 : 6.0 )
G21 G90 G64 G40
G0 Z10.0
( T0 : 6.0 )
T0 M6
( Pocket1 )
G17
M3 S12000
G0 X-20.2 Y-0.2
G0 Z1.0
G1 F100.0 Z-1.0
G1 F800.0 Y0.2
G1 X20.2
G1 Y-0.2
G1 X-20.2
G1 F100.0 Y-0.8
G1 F800.0 X-20.8
G1 Y0.8
G1 X20.8
G1 Y-0.8
G1 X-20.2
G1 F100.0 Y-1.4
G1 F800.0 X-21.4
G1 Y1.4
G1 X21.4
G1 Y-1.4
G1 X-20.2
G1 F100.0 Y-2.0
G1 F800.0 X-22.0
G1 Y2.0
G1 X22.0
G1 Y-2.0
G1 X-20.2
G1 F100.0 Y-2.6
G1 F800.0 X-22.6
G1 Y2.6
G1 X22.6
G1 Y-2.6
G1 X-20.2
G1 F100.0 Y-3.2
G1 F800.0 X-23.2
G1 Y3.2
G1 X23.2
G1 Y-3.2
G1 X-20.2
G1 F100.0 Y-3.8
G1 F800.0 X-23.8
G1 Y3.8
G1 X23.8
G1 Y-3.8
G1 X-20.2
G1 F100.0 Y-4.4
G1 F800.0 X-24.4
G1 Y4.4
G1 X24.4
G1 Y-4.4
G1 X-20.2
G1 F100.0 Y-5.0
G1 F800.0 X-25.0
G1 Y5.0
G1 X25.0
G1 Y-5.0
G1 X-20.2
G1 F100.0 Y-5.6
G1 F800.0 X-25.6
G1 Y5.6
G1 X25.6
G1 Y-5.6
G1 X-20.2
G1 F100.0 Y-6.2
G1 F800.0 X-26.2
G1 Y6.2
G1 X26.2
G1 Y-6.2
G1 X-20.2
G1 F100.0 Y-6.8
G1 F800.0 X-26.8
G1 Y6.8
G1 X26.8
G1 Y-6.8
G1 X-20.2
G1 F100.0 Y-7.4
G1 F800.0 X-27.4
G1 Y7.4
G1 X27.4
G1 Y-7.4
G1 X-20.2
G1 F100.0 Y-8.0
G1 F800.0 X-28.0
G1 Y8.0
G1 X28.0
G1 Y-8.0
G1 X-20.2
G1 F100.0 Y-8.6
G1 F800.0 X-28.6
G1 Y8.6
G1 X28.6
G1 Y-8.6
G1 X-20.2
G1 F100.0 Y-9.2
G1 F800.0 X-29.2
G1 Y9.2
G1 X29.2
G1 Y-9.2
G1 X-20.2
G1 F100.0 Y-9.8
G1 F800.0 X-29.8
G1 Y9.8
G1 X29.8
G1 Y-9.8
G1 X-20.2
G1 F100.0 Y-10.4
G1 F800.0 X-30.4
G1 Y10.4
G1 X30.4
G1 Y-10.4
G1 X-20.2
G1 F100.0 Y-11.0
G1 F800.0 X-31.0
G1 Y11.0
G1 X31.0
G1 Y-11.0
G1 X-20.2
G1 F100.0 Y-11.6
G1 F800.0 X-31.6
G1 Y11.6
G1 X31.6
G1 Y-11.6
G1 X-20.2
G1 F100.0 Y-12.2
G1 F800.0 X-32.2
G1 Y12.2
G1 X32.2
G1 Y-12.2
G1 X-20.2
G1 F100.0 Y-12.8
G1 F800.0 X-32.8
G1 Y12.8
G1 X32.8
G1 Y-12.8
G1 X-20.2
G1 F100.0 Y-13.4
G1 F800.0 X-33.4
G1 Y13.4
G1 X33.4
G1 Y-13.4
G1 X-20.2
G1 F100.0 Y-14.0
G1 F800.0 X-34.0
G1 Y14.0
G1 X34.0
G1 Y-14.0
G1 X-20.2
G1 F100.0 Y-14.6
G1 F800.0 X-34.6
G1 Y14.6
G1 X34.6
G1 Y-14.6
G1 X-20.2
G1 F100.0 Y-15.2
G1 F800.0 X-35.2
G1 Y15.2
G1 X35.2
G1 Y-15.2
G1 X-20.2
G1 F100.0 Y-15.8
G1 F800.0 X-35.8
G1 Y15.8
G1 X35.8
G1 Y-15.8
G1 X-20.2
G1 F100.0 Y-16.4
G1 F800.0 X-36.4
G1 Y16.4
G1 X36.4
G1 Y-16.4
G1 X-20.2
G1 F100.0 Y-17.0
G1 F800.0 X-37.0
G1 Y17.0
G1 X37.0
G1 Y-17.0
G1 X-20.2
G1 F100.0 Y-17.6
G1 F800.0 X-37.6
G1 Y17.6
G1 X37.6
G1 Y-17.6
G1 X-20.2
G1 F100.0 Y-18.2
G1 F800.0 X-38.2
G1 Y18.2
G1 X38.2
G1 Y-18.2
G1 X-20.2
G1 F100.0 Y-18.8
G1 F800.0 X-38.8
G1 Y18.8
G1 X38.8
G1 Y-18.8
G1 X-20.2
G1 F100.0 Y-19.4
G1 F800.0 X-39.4
G1 Y19.4
G1 X39.4
G1 Y-19.4
G1 X-20.2
G1 F100.0 Y-20.0
G1 F800.0 X-40.0
G1 Y20.0
G1 X40.0
G1 Y-20.0
G1 X-20.2
G1 F100.0 Y-20.6
G1 F800.0 X-40.6
G1 Y20.6
G1 X40.6
G1 Y-20.6
G1 X-20.2
G1 F100.0 Y-21.2
G1 F800.0 X-41.2
G1 Y21.2
G1 X41.2
G1 Y-21.2
G1 X-20.2
G1 F100.0 Y-21.8
G1 F800.0 X-41.8
G1 Y21.8
G1 X41.8
G1 Y-21.8
G1 X-20.2
G1 F100.0 Y-22.4
G1 F800.0 X-42.4
G1 Y22.4
G1 X42.4
G1 Y-22.4
G1 X-20.2
G1 F100.0 Y-23.0
G1 F800.0 X-43.0
G1 Y23.0
G1 X43.0
G1 Y-23.0
G1 X-20.2
G1 F100.0 Y-23.6
G1 F800.0 X-43.6
G1 Y23.6
G1 X43.6
G1 Y-23.6
G1 X-20.2
G1 F100.0 Y-24.2
G1 F800.0 X-44.2
G1 Y24.2
G1 X44.2
G1 Y-24.2
G1 X-20.2
G1 F100.0 Y-24.8
G1 F800.0 X-44.8
G1 Y24.8
G1 X44.8
G1 Y-24.8
G1 X-20.2
G1 F100.0 Y-25.4
G1 F800.0 X-45.4
G1 Y25.4
G1 X45.4
G1 Y-25.4
G1 X-20.2
G1 F100.0 Y-26.0
G1 F800.0 X-46.0
G1 Y26.0
G1 X46.0
G1 Y-26.0
G1 X-20.2
G1 F100.0 Y-26.6
G1 F800.0 X-46.6
G1 Y26.6
G1 X46.6
G1 Y-26.6
G1 X-20.2
G1 F100.0 Y-27.2
G1 F800.0 X-47.2
G1 Y27.2
G1 X47.2
G1 Y-27.2
G1 X-20.2
G1 F100.0 Y-27.8
G1 F800.0 X-47.8
G1 Y27.8
G1 X47.8
G1 Y-27.8
G1 X-20.2
G1 F100.0 Y-28.4
G1 F800.0 X-48.4
G1 Y28.4
G1 X48.4
G1 Y-28.4
G1 X-20.2
G1 F100.0 Y-29.0
G1 F800.0 X-49.0
G1 Y29.0
G1 X49.0
G1 Y-29.0
G1 X-20.2
G1 F100.0 Y-29.6
G1 F800.0 X-49.6
G1 Y29.6
G1 X49.6
G1 Y-29.6
G1 X-20.2
G1 F100.0 Y-30.2
G1 F800.0 X-50.2
G1 Y30.2
G1 X50.2
G1 Y-30.2
G1 X-20.2
G1 F100.0 Y-30.8
G1 F800.0 X-50.8
G1 Y30.8
G1 X50.8
G1 Y-30.8
G1 X-20.2
G1 F100.0 Y-31.4
G1 F800.0 X-51.4
G1 Y31.4
G1 X51.4
G1 Y-31.4
G1 X-20.2
G1 F100.0 Y-32.0
G1 F800.0 X-52.0
G1 Y32.0
G1 X52.0
G1 Y-32.0
G1 X-20.2
G1 F100.0 Y-32.6
G1 F800.0 X-52.6
G1 Y32.6
G1 X52.6
G1 Y-32.6
G1 X-20.2
G1 F100.0 Y-33.2
G1 F800.0 X-53.2
G1 Y33.2
G1 X53.2
G1 Y-33.2
G1 X-20.2
G1 F100.0 Y-33.8
G1 F800.0 X-53.8
G1 Y33.8
G1 X53.8
G1 Y-33.8
G1 X-20.2
G1 F100.0 Y-34.4
G1 F800.0 X-54.4
G1 Y34.4
G1 X54.4
G1 Y-34.4
G1 X-20.2
G1 F100.0 Y-35.0
G1 F800.0 X-55.0
G1 Y35.0
G1 X55.0
G1 Y-35.0
G1 X-20.2
G1 F100.0 Y-35.6
G1 F800.0 X-55.6
G1 Y35.6
G1 X55.6
G1 Y-35.6
G1 X-20.2
G1 F100.0 Y-36.2
G1 F800.0 X-56.2
G1 Y36.2
G1 X56.2
G1 Y-36.2
G1 X-20.2
G1 F100.0 Y-36.8
G1 F800.0 X-56.8
G1 Y36.8
G1 X56.8
G1 Y-36.8
G1 X-20.2
G1 F100.0 Y-37.4
G1 F800.0 X-57.4
G1 Y37.4
G1 X57.4
G1 Y-37.4
G1 X-20.2
G1 F100.0 Y-38.0
G1 F800.0 X-58.0
G1 Y38.0
G1 X58.0
G1 Y-38.0
G1 X-20.2
G1 F100.0 Y-38.6
G1 F800.0 X-58.6
G1 Y38.6
G1 X58.6
G1 Y-38.6
G1 X-20.2
G1 F100.0 Y-39.2
G1 F800.0 X-59.2
G1 Y39.2
G1 X59.2
G1 Y-39.2
G1 X-20.2
G1 F100.0 Y-39.8
G1 F800.0 X-59.8
G1 Y39.8
G1 X59.8
G1 Y-39.8
G1 X-20.2
G1 F100.0 Y-40.4
G1 F800.0 X-60.4
G1 Y40.4
G1 X60.4
G1 Y-40.4
G1 X-20.2
G1 F100.0 Y-41.0
G1 F800.0 X-61.0
G1 Y41.0
G1 X61.0
G1 Y-41.0
G1 X-20.2
G1 F100.0 Y-41.6
G1 F800.0 X-61.6
G1 Y41.6
G1 X61.6
G1 Y-41.6
G1 X-20.2
G1 F100.0 Y-42.2
G1 F800.0 X-62.2
G1 Y42.2
G1 X62.2
G1 Y-42.2
G1 X-20.2
G1 F100.0 Y-42.8
G1 F800.0 X-62.8
G1 Y42.8
G1 X62.8
G1 Y-42.8
G1 X-20.2
G1 F100.0 Y-43.4
G1 F800.0 X-63.4
G1 Y43.4
G1 X63.4
G1 Y-43.4
G1 X-20.2
G1 F100.0 Y-44.0
G1 F800.0 X-64.0
G1 Y44.0
G1 X64.0
G1 Y-44.0
G1 X-20.2
G1 F100.0 Y-44.6
G1 F800.0 X-64.6
G1 Y44.6
G1 X64.6
G1 Y-44.6
G1 X-20.2
G1 F100.0 Y-45.2
G1 F800.0 X-65.2
G1 Y45.2
G1 X65.2
G1 Y-45.2
G1 X-20.2
G1 F100.0 Y-45.8
G1 F800.0 X-65.8
G1 Y45.8
G1 X65.8
G1 Y-45.8
G1 X-20.2
G1 F100.0 Y-46.4
G1 F800.0 X-66.4
G1 Y46.4
G1 X66.4
G1 Y-46.4
G1 X-20.2
G1 F100.0 Y-47.0
G1 F800.0 X-67.0
G1 Y47.0
G1 X67.0
G1 Y-47.0
G1 X-20.2
G1 F100.0 Y-47.6
G1 F800.0 X-67.6
G1 Y47.6
G1 X67.6
G1 Y-47.6
G1 X-20.2
G1 F100.0 Y-48.2
G1 F800.0 X-68.2
G1 Y48.2
G1 X68.2
G1 Y-48.2
G1 X-20.2
G1 F100.0 Y-48.8
G1 F800.0 X-68.8
G1 Y48.8
G1 X68.8
G1 Y-48.8
G1 X-20.2
G1 F100.0 Y-49.4
G1 F800.0 X-69.4
G1 Y49.4
G1 X69.4
G1 Y-49.4
G1 X-20.2
G1 F100.0 Y-50.0
G1 F800.0 X-70.0
G1 Y50.0
G1 X70.0
G1 Y-50.0
G1 X-20.2
G1 F100.0 Y-50.6
G1 F800.0 X-70.6
G1 Y50.6
G1 X70.6
G1 Y-50.6
G1 X-20.2
G1 F100.0 Y-51.2
G1 F800.0 X-71.2
G1 Y51.2
G1 X71.2
G1 Y-51.2
G1 X-20.2
G1 F100.0 Y-51.8
G1 F800.0 X-71.8
G1 Y51.8
G1 X71.8
G1 Y-51.8
G1 X-20.2
G1 F100.0 Y-52.4
G1 F800.0 X-72.4
G1 Y52.4
G1 X72.4
G1 Y-52.4
G1 X-20.2
G1 F100.0 Y-53.0
G1 F800.0 X-73.0
G1 Y53.0
G1 X73.0
G1 Y-53.0
G1 X-20.2
G1 F100.0 Y-53.6
G1 F800.0 X-73.6
G1 Y53.6
G1 X73.6
G1 Y-53.6
G1 X-20.2
G1 F100.0 Y-54.2
G1 F800.0 X-74.2
G1 Y54.2
G1 X74.2
G1 Y-54.2
G1 X-20.2
G1 F100.0 Y-54.8
G1 F800.0 X-74.8
G1 Y54.8
G1 X74.8
G1 Y-54.8
G1 X-20.2
G1 F100.0 Y-55.4
G1 F800.0 X-75.4
G1 Y55.4
G1 X75.4
G1 Y-55.4
G1 X-20.2
G1 F100.0 Y-56.0
G1 F800.0 X-76.0
G1 Y56.0
G1 X76.0
G1 Y-56.0
G1 X-20.2
G1 F100.0 Y-56.6
G1 F800.0 X-76.6
G1 Y56.6
G1 X76.6
G1 Y-56.6
G1 X-20.2
G1 F100.0 Y-57.2
G1 F800.0 X-77.2
G1 Y57.2
G1 X77.2
G1 Y-57.2
G1 X-20.2
G1 F100.0 Y-57.8
G1 F800.0 X-77.8
G1 Y57.8
G1 X77.8
G1 Y-57.8
G1 X-20.2
G1 F100.0 Y-58.4
G1 F800.0 X-78.4
G1 Y58.4
G1 X78.4
G1 Y-58.4
G1 X-20.2
G1 F100.0 Y-59.0
G1 F800.0 X-79.0
G1 Y59.0
G1 X79.0
G1 Y-59.0
G1 X-20.2
G1 F100.0 Y-59.6
G1 F800.0 X-79.6
G1 Y59.6
G1 X79.6
G1 Y-59.6
G1 X-20.2
G1 F100.0 Y-60.2
G1 F800.0 X-80.2
G1 Y60.2
G1 X80.2
G1 Y-60.2
G1 X-20.2
G1 F100.0 Y-60.8
G1 F800.0 X-80.8
G1 Y60.8
G1 X80.8
G1 Y-60.8
G1 X-20.2
G1 F100.0 Y-61.4
G1 F800.0 X-81.4
G1 Y61.4
G1 X81.4
G1 Y-61.4
G1 X-20.2
G1 F100.0 Y-62.0
G1 F800.0 X-82.0
G1 Y62.0
G1 X82.0
G1 Y-62.0
G1 X-20.2
G1 F100.0 Y-62.6
G1 F800.0 X-82.6
G1 Y62.6
G1 X82.6
G1 Y-62.6
G1 X-20.2
G1 F100.0 Y-63.2
G1 F800.0 X-83.2
G1 Y63.2
G1 X83.2
G1 Y-63.2
G1 X-20.2
G1 F100.0 Y-63.8
G1 F800.0 X-83.8
G1 Y63.8
G1 X83.8
G1 Y-63.8
G1 X-20.2
G1 F100.0 Y-64.4
G1 F800.0 X-84.4
G1 Y64.4
G1 X84.4
G1 Y-64.4
G1 X-20.2
G1 F100.0 Y-65.0
G1 F800.0 X-85.0
G1 Y65.0
G1 X85.0
G1 Y-65.0
G1 X-20.2
G1 F100.0 Y-65.6
G1 F800.0 X-85.6
G1 Y65.6
G1 X85.6
G1 Y-65.6
G1 X-20.2
G1 F100.0 Y-66.2
G1 F800.0 X-86.2
G1 Y66.2
G1 X86.2
G1 Y-66.2
G1 X-20.2
G1 F100.0 Y-66.8
G1 F800.0 X-86.8
G1 Y66.8
G1 X86.8
G1 Y-66.8
G1 X-20.2
G1 F100.0 Y-67.4
G1 F800.0 X-87.4
G1 Y67.4
G1 X87.4
G1 Y-67.4
G1 X-20.2
G1 F100.0 Y-68.0
G1 F800.0 X-88.0
G1 Y68.0
G1 X88.0
G1 Y-68.0
G1 X-20.2
G1 F100.0 Y-68.6
G1 F800.0 X-88.6
G1 Y68.6
G1 X88.6
G1 Y-68.6
G1 X-20.2
G1 F100.0 Y-69.2
G1 F800.0 X-89.2
G1 Y69.2
G1 X89.2
G1 Y-69.2
G1 X-20.2
G1 F100.0 Y-69.8
G1 F800.0 X-89.8
G1 Y69.8
G1 X89.8
G1 Y-69.8
G1 X-20.2
G1 F100.0 Y-70.4
G1 F800.0 X-90.4
G1 Y70.4
G1 X90.4
G1 Y-70.4
G1 X-20.2
G1 F100.0 Y-71.0
G1 F800.0 X-91.0
G1 Y71.0
G1 X91.0
G1 Y-71.0
G1 X-20.2
G1 F100.0 Y-71.6
G1 F800.0 X-91.6
G1 Y71.6
G1 X91.6
G1 Y-71.6
G1 X-20.2
G1 F100.0 Y-72.2
G1 F800.0 X-92.2
G1 Y72.2
G1 X92.2
G1 Y-72.2
G1 X-20.2
G1 F100.0 Y-72.8
G1 F800.0 X-92.8
G1 Y72.8
G1 X92.8
G1 Y-72.8
G1 X-20.2
G1 F100.0 Y-73.4
G1 F800.0 X-93.4
G1 Y73.4
G1 X93.4
G1 Y-73.4
G1 X-20.2
G1 F100.0 Y-74.0
G1 F800.0 X-94.0
G1 Y74.0
G1 X94.0
G1 Y-74.0
G1 X-20.2
G1 F100.0 Y-74.6
G1 F800.0 X-94.6
G1 Y74.6
G1 X94.6
G1 Y-74.6
G1 X-20.2
G1 F100.0 Y-75.2
G1 F800.0 X-95.2
G1 Y75.2
G1 X95.2
G1 Y-75.2
G1 X-20.2
G1 F100.0 Y-75.8
G1 F800.0 X-95.8
G1 Y75.8
G1 X95.8
G1 Y-75.8
G1 X-20.2
G1 F100.0 Y-76.4
G1 F800.0 X-96.4
G1 Y76.4
G1 X96.4
G1 Y-76.4
G1 X-20.2
G1 F100.0 Y-77.0
G1 F800.0 X-97.0
G1 Y77.0
G1 X97.0
G1 Y-77.0
G1 X-20.2
G0 Z10.0
G0 Y-0.2
G0 Z0.0
G1 F100.0 Z-1.3
G1 F800.0 Y0.2
G1 X20.2
G1 Y-0.2
G1 X-20.2
G1 F100.0 Y-0.8
G1 F800.0 X-20.8
G1 Y0.8
G1 X20.8
G1 Y-0.8
G1 X-20.2
G1 F100.0 Y-1.4
G1 F800.0 X-21.4
G1 Y1.4
G1 X21.4
G1 Y-1.4
G1 X-20.2
G1 F100.0 Y-2.0
G1 F800.0 X-22.0
G1 Y2.0
G1 X22.0
G1 Y-2.0
G1 X-20.2
G1 F100.0 Y-2.6
G1 F800.0 X-22.6
G1 Y2.6
G1 X22.6
G1 Y-2.6
G1 X-20.2
G1 F100.0 Y-3.2
G1 F800.0 X-23.2
G1 Y3.2
G1 X23.2
G1 Y-3.2
G1 X-20.2
G1 F100.0 Y-3.8
G1 F800.0 X-23.8
G1 Y3.8
G1 X23.8
G1 Y-3.8
G1 X-20.2
G1 F100.0 Y-4.4
G1 F800.0 X-24.4
G1 Y4.4
G1 X24.4
G1 Y-4.4
G1 X-20.2
G1 F100.0 Y-5.0
G1 F800.0 X-25.0
G1 Y5.0
G1 X25.0
G1 Y-5.0
G1 X-20.2
G1 F100.0 Y-5.6
G1 F800.0 X-25.6
G1 Y5.6
G1 X25.6
G1 Y-5.6
G1 X-20.2
G1 F100.0 Y-6.2
G1 F800.0 X-26.2
G1 Y6.2
G1 X26.2
G1 Y-6.2
G1 X-20.2
G1 F100.0 Y-6.8
G1 F800.0 X-26.8
G1 Y6.8
G1 X26.8
G1 Y-6.8
G1 X-20.2
G1 F100.0 Y-7.4
G1 F800.0 X-27.4
G1 Y7.4
G1 X27.4
G1 Y-7.4
G1 X-20.2
G1 F100.0 Y-8.0
G1 F800.0 X-28.0
G1 Y8.0
G1 X28.0
G1 Y-8.0
G1 X-20.2
G1 F100.0 Y-8.6
G1 F800.0 X-28.6
G1 Y8.6
G1 X28.6
G1 Y-8.6
G1 X-20.2
G1 F100.0 Y-9.2
G1 F800.0 X-29.2
G1 Y9.2
G1 X29.2
G1 Y-9.2
G1 X-20.2
G1 F100.0 Y-9.8
G1 F800.0 X-29.8
G1 Y9.8
G1 X29.8
G1 Y-9.8
G1 X-20.2
G1 F100.0 Y-10.4
G1 F800.0 X-30.4
G1 Y10.4
G1 X30.4
G1 Y-10.4
G1 X-20.2
G1 F100.0 Y-11.0
G1 F800.0 X-31.0
G1 Y11.0
G1 X31.0
G1 Y-11.0
G1 X-20.2
G1 F100.0 Y-11.6
G1 F800.0 X-31.6
G1 Y11.6
G1 X31.6
G1 Y-11.6
G1 X-20.2
G1 F100.0 Y-12.2
G1 F800.0 X-32.2
G1 Y12.2
G1 X32.2
G1 Y-12.2
G1 X-20.2
G1 F100.0 Y-12.8
G1 F800.0 X-32.8
G1 Y12.8
G1 X32.8
G1 Y-12.8
G1 X-20.2
G1 F100.0 Y-13.4
G1 F800.0 X-33.4
G1 Y13.4
G1 X33.4
G1 Y-13.4
G1 X-20.2
G1 F100.0 Y-14.0
G1 F800.0 X-34.0
G1 Y14.0
G1 X34.0
G1 Y-14.0
G1 X-20.2
G1 F100.0 Y-14.6
G1 F800.0 X-34.6
G1 Y14.6
G1 X34.6
G1 Y-14.6
G1 X-20.2
G1 F100.0 Y-15.2
G1 F800.0 X-35.2
G1 Y15.2
G1 X35.2
G1 Y-15.2
G1 X-20.2
G1 F100.0 Y-15.8
G1 F800.0 X-35.8
G1 Y15.8
G1 X35.8
G1 Y-15.8
G1 X-20.2
G1 F100.0 Y-16.4
G1 F800.0 X-36.4
G1 Y16.4
G1 X36.4
G1 Y-16.4
G1 X-20.2
G1 F100.0 Y-17.0
G1 F800.0 X-37.0
G1 Y17.0
G1 X37.0
G1 Y-17.0
G1 X-20.2
G1 F100.0 Y-17.6
G1 F800.0 X-37.6
G1 Y17.6
G1 X37.6
G1 Y-17.6
G1 X-20.2
G1 F100.0 Y-18.2
G1 F800.0 X-38.2
G1 Y18.2
G1 X38.2
G1 Y-18.2
G1 X-20.2
G1 F100.0 Y-18.8
G1 F800.0 X-38.8
G1 Y18.8
G1 X38.8
G1 Y-18.8
G1 X-20.2
G1 F100.0 Y-19.4
G1 F800.0 X-39.4
G1 Y19.4
G1 X39.4
G1 Y-19.4
G1 X-20.2
G1 F100.0 Y-20.0
G1 F800.0 X-40.0
G1 Y20.0
G1 X40.0
G1 Y-20.0
G1 X-20.2
G1 F100.0 Y-20.6
G1 F800.0 X-40.6
G1 Y20.6
G1 X40.6
G1 Y-20.6
G1 X-20.2
G1 F100.0 Y-21.2
G1 F800.0 X-41.2
G1 Y21.2
G1 X41.2
G1 Y-21.2
G1 X-20.2
G1 F100.0 Y-21.8
G1 F800.0 X-41.8
G1 Y21.8
G1 X41.8
G1 Y-21.8
G1 X-20.2
G1 F100.0 Y-22.4
G1 F800.0 X-42.4
G1 Y22.4
G1 X42.4
G1 Y-22.4
G1 X-20.2
G1 F100.0 Y-23.0
G1 F800.0 X-43.0
G1 Y23.0
G1 X43.0
G1 Y-23.0
G1 X-20.2
G1 F100.0 Y-23.6
G1 F800.0 X-43.6
G1 Y23.6
G1 X43.6
G1 Y-23.6
G1 X-20.2
G1 F100.0 Y-24.2
G1 F800.0 X-44.2
G1 Y24.2
G1 X44.2
G1 Y-24.2
G1 X-20.2
G1 F100.0 Y-24.8
G1 F800.0 X-44.8
G1 Y24.8
G1 X44.8
G1 Y-24.8
G1 X-20.2
G1 F100.0 Y-25.4
G1 F800.0 X-45.4
G1 Y25.4
G1 X45.4
G1 Y-25.4
G1 X-20.2
G1 F100.0 Y-26.0
G1 F800.0 X-46.0
G1 Y26.0
G1 X46.0
G1 Y-26.0
G1 X-20.2
G1 F100.0 Y-26.6
G1 F800.0 X-46.6
G1 Y26.6
G1 X46.6
G1 Y-26.6
G1 X-20.2
G1 F100.0 Y-27.2
G1 F800.0 X-47.2
G1 Y27.2
G1 X47.2
G1 Y-27.2
G1 X-20.2
G1 F100.0 Y-27.8
G1 F800.0 X-47.8
G1 Y27.8
G1 X47.8
G1 Y-27.8
G1 X-20.2
G1 F100.0 Y-28.4
G1 F800.0 X-48.4
G1 Y28.4
G1 X48.4
G1 Y-28.4
G1 X-20.2
G1 F100.0 Y-29.0
G1 F800.0 X-49.0
G1 Y29.0
G1 X49.0
G1 Y-29.0
G1 X-20.2
G1 F100.0 Y-29.6
G1 F800.0 X-49.6
G1 Y29.6
G1 X49.6
G1 Y-29.6
G1 X-20.2
G1 F100.0 Y-30.2
G1 F800.0 X-50.2
G1 Y30.2
G1 X50.2
G1 Y-30.2
G1 X-20.2
G1 F100.0 Y-30.8
G1 F800.0 X-50.8
G1 Y30.8
G1 X50.8
G1 Y-30.8
G1 X-20.2
G1 F100.0 Y-31.4
G1 F800.0 X-51.4
G1 Y31.4
G1 X51.4
G1 Y-31.4
G1 X-20.2
G1 F100.0 Y-32.0
G1 F800.0 X-52.0
G1 Y32.0
G1 X52.0
G1 Y-32.0
G1 X-20.2
G1 F100.0 Y-32.6
G1 F800.0 X-52.6
G1 Y32.6
G1 X52.6
G1 Y-32.6
G1 X-20.2
G1 F100.0 Y-33.2
G1 F800.0 X-53.2
G1 Y33.2
G1 X53.2
G1 Y-33.2
G1 X-20.2
G1 F100.0 Y-33.8
G1 F800.0 X-53.8
G1 Y33.8
G1 X53.8
G1 Y-33.8
G1 X-20.2
G1 F100.0 Y-34.4
G1 F800.0 X-54.4
G1 Y34.4
G1 X54.4
G1 Y-34.4
G1 X-20.2
G1 F100.0 Y-35.0
G1 F800.0 X-55.0
G1 Y35.0
G1 X55.0
G1 Y-35.0
G1 X-20.2
G1 F100.0 Y-35.6
G1 F800.0 X-55.6
G1 Y35.6
G1 X55.6
G1 Y-35.6
G1 X-20.2
G1 F100.0 Y-36.2
G1 F800.0 X-56.2
G1 Y36.2
G1 X56.2
G1 Y-36.2
G1 X-20.2
G1 F100.0 Y-36.8
G1 F800.0 X-56.8
G1 Y36.8
G1 X56.8
G1 Y-36.8
G1 X-20.2
G1 F100.0 Y-37.4
G1 F800.0 X-57.4
G1 Y37.4
G1 X57.4
G1 Y-37.4
G1 X-20.2
G1 F100.0 Y-38.0
G1 F800.0 X-58.0
G1 Y38.0
G1 X58.0
G1 Y-38.0
G1 X-20.2
G1 F100.0 Y-38.6
G1 F800.0 X-58.6
G1 Y38.6
G1 X58.6
G1 Y-38.6
G1 X-20.2
G1 F100.0 Y-39.2
G1 F800.0 X-59.2
G1 Y39.2
G1 X59.2
G1 Y-39.2
G1 X-20.2
G1 F100.0 Y-39.8
G1 F800.0 X-59.8
G1 Y39.8
G1 X59.8
G1 Y-39.8
G1 X-20.2
G1 F100.0 Y-40.4
G1 F800.0 X-60.4
G1 Y40.4
G1 X60.4
G1 Y-40.4
G1 X-20.2
G1 F100.0 Y-41.0
G1 F800.0 X-61.0
G1 Y41.0
G1 X61.0
G1 Y-41.0
G1 X-20.2
G1 F100.0 Y-41.6
G1 F800.0 X-61.6
G1 Y41.6
G1 X61.6
G1 Y-41.6
G1 X-20.2
G1 F100.0 Y-42.2
G1 F800.0 X-62.2
G1 Y42.2
G1 X62.2
G1 Y-42.2
G1 X-20.2
G1 F100.0 Y-42.8
G1 F800.0 X-62.8
G1 Y42.8
G1 X62.8
G1 Y-42.8
G1 X-20.2
G1 F100.0 Y-43.4
G1 F800.0 X-63.4
G1 Y43.4
G1 X63.4
G1 Y-43.4
G1 X-20.2
G1 F100.0 Y-44.0
G1 F800.0 X-64.0
G1 Y44.0
G1 X64.0
G1 Y-44.0
G1 X-20.2
G1 F100.0 Y-44.6
G1 F800.0 X-64.6
G1 Y44.6
G1 X64.6
G1 Y-44.6
G1 X-20.2
G1 F100.0 Y-45.2
G1 F800.0 X-65.2
G1 Y45.2
G1 X65.2
G1 Y-45.2
G1 X-20.2
G1 F100.0 Y-45.8
G1 F800.0 X-65.8
G1 Y45.8
G1 X65.8
G1 Y-45.8
G1 X-20.2
G1 F100.0 Y-46.4
G1 F800.0 X-66.4
G1 Y46.4
G1 X66.4
G1 Y-46.4
G1 X-20.2
G1 F100.0 Y-47.0
G1 F800.0 X-67.0
G1 Y47.0
G1 X67.0
G1 Y-47.0
G1 X-20.2
G1 F100.0 Y-47.6
G1 F800.0 X-67.6
G1 Y47.6
G1 X67.6
G1 Y-47.6
G1 X-20.2
G1 F100.0 Y-48.2
G1 F800.0 X-68.2
G1 Y48.2
G1 X68.2
G1 Y-48.2
G1 X-20.2
G1 F100.0 Y-48.8
G1 F800.0 X-68.8
G1 Y48.8
G1 X68.8
G1 Y-48.8
G1 X-20.2
G1 F100.0 Y-49.4
G1 F800.0 X-69.4
G1 Y49.4
G1 X69.4
G1 Y-49.4
G1 X-20.2
G1 F100.0 Y-50.0
G1 F800.0 X-70.0
G1 Y50.0
G1 X70.0
G1 Y-50.0
G1 X-20.2
G1 F100.0 Y-50.6
G1 F800.0 X-70.6
G1 Y50.6
G1 X70.6
G1 Y-50.6
G1 X-20.2
G1 F100.0 Y-51.2
G1 F800.0 X-71.2
G1 Y51.2
G1 X71.2
G1 Y-51.2
G1 X-20.2
G1 F100.0 Y-51.8
G1 F800.0 X-71.8
G1 Y51.8
G1 X71.8
G1 Y-51.8
G1 X-20.2
G1 F100.0 Y-52.4
G1 F800.0 X-72.4
G1 Y52.4
G1 X72.4
G1 Y-52.4
G1 X-20.2
G1 F100.0 Y-53.0
G1 F800.0 X-73.0
G1 Y53.0
G1 X73.0
G1 Y-53.0
G1 X-20.2
G1 F100.0 Y-53.6
G1 F800.0 X-73.6
G1 Y53.6
G1 X73.6
G1 Y-53.6
G1 X-20.2
G1 F100.0 Y-54.2
G1 F800.0 X-74.2
G1 Y54.2
G1 X74.2
G1 Y-54.2
G1 X-20.2
G1 F100.0 Y-54.8
G1 F800.0 X-74.8
G1 Y54.8
G1 X74.8
G1 Y-54.8
G1 X-20.2
G1 F100.0 Y-55.4
G1 F800.0 X-75.4
G1 Y55.4
G1 X75.4
G1 Y-55.4
G1 X-20.2
G1 F100.0 Y-56.0
G1 F800.0 X-76.0
G1 Y56.0
G1 X76.0
G1 Y-56.0
G1 X-20.2
G1 F100.0 Y-56.6
G1 F800.0 X-76.6
G1 Y56.6
G1 X76.6
G1 Y-56.6
G1 X-20.2
G1 F100.0 Y-57.2
G1 F800.0 X-77.2
G1 Y57.2
G1 X77.2
G1 Y-57.2
G1 X-20.2
G1 F100.0 Y-57.8
G1 F800.0 X-77.8
G1 Y57.8
G1 X77.8
G1 Y-57.8
G1 X-20.2
G1 F100.0 Y-58.4
G1 F800.0 X-78.4
G1 Y58.4
G1 X78.4
G1 Y-58.4
G1 X-20.2
G1 F100.0 Y-59.0
G1 F800.0 X-79.0
G1 Y59.0
G1 X79.0
G1 Y-59.0
G1 X-20.2
G1 F100.0 Y-59.6
G1 F800.0 X-79.6
G1 Y59.6
G1 X79.6
G1 Y-59.6
G1 X-20.2
G1 F100.0 Y-60.2
G1 F800.0 X-80.2
G1 Y60.2
G1 X80.2
G1 Y-60.2
G1 X-20.2
G1 F100.0 Y-60.8
G1 F800.0 X-80.8
G1 Y60.8
G1 X80.8
G1 Y-60.8
G1 X-20.2
G1 F100.0 Y-61.4
G1 F800.0 X-81.4
G1 Y61.4
G1 X81.4
G1 Y-61.4
G1 X-20.2
G1 F100.0 Y-62.0
G1 F800.0 X-82.0
G1 Y62.0
G1 X82.0
G1 Y-62.0
G1 X-20.2
G1 F100.0 Y-62.6
G1 F800.0 X-82.6
G1 Y62.6
G1 X82.6
G1 Y-62.6
G1 X-20.2
G1 F100.0 Y-63.2
G1 F800.0 X-83.2
G1 Y63.2
G1 X83.2
G1 Y-63.2
G1 X-20.2
G1 F100.0 Y-63.8
G1 F800.0 X-83.8
G1 Y63.8
G1 X83.8
G1 Y-63.8
G1 X-20.2
G1 F100.0 Y-64.4
G1 F800.0 X-84.4
G1 Y64.4
G1 X84.4
G1 Y-64.4
G1 X-20.2
G1 F100.0 Y-65.0
G1 F800.0 X-85.0
G1 Y65.0
G1 X85.0
G1 Y-65.0
G1 X-20.2
G1 F100.0 Y-65.6
G1 F800.0 X-85.6
G1 Y65.6
G1 X85.6
G1 Y-65.6
G1 X-20.2
G1 F100.0 Y-66.2
G1 F800.0 X-86.2
G1 Y66.2
G1 X86.2
G1 Y-66.2
G1 X-20.2
G1 F100.0 Y-66.8
G1 F800.0 X-86.8
G1 Y66.8
G1 X86.8
G1 Y-66.8
G1 X-20.2
G1 F100.0 Y-67.4
G1 F800.0 X-87.4
G1 Y67.4
G1 X87.4
G1 Y-67.4
G1 X-20.2
G1 F100.0 Y-68.0
G1 F800.0 X-88.0
G1 Y68.0
G1 X88.0
G1 Y-68.0
G1 X-20.2
G1 F100.0 Y-68.6
G1 F800.0 X-88.6
G1 Y68.6
G1 X88.6
G1 Y-68.6
G1 X-20.2
G1 F100.0 Y-69.2
G1 F800.0 X-89.2
G1 Y69.2
G1 X89.2
G1 Y-69.2
G1 X-20.2
G1 F100.0 Y-69.8
G1 F800.0 X-89.8
G1 Y69.8
G1 X89.8
G1 Y-69.8
G1 X-20.2
G1 F100.0 Y-70.4
G1 F800.0 X-90.4
G1 Y70.4
G1 X90.4
G1 Y-70.4
G1 X-20.2
G1 F100.0 Y-71.0
G1 F800.0 X-91.0
G1 Y71.0
G1 X91.0
G1 Y-71.0
G1 X-20.2
G1 F100.0 Y-71.6
G1 F800.0 X-91.6
G1 Y71.6
G1 X91.6
G1 Y-71.6
G1 X-20.2
G1 F100.0 Y-72.2
G1 F800.0 X-92.2
G1 Y72.2
G1 X92.2
G1 Y-72.2
G1 X-20.2
G1 F100.0 Y-72.8
G1 F800.0 X-92.8
G1 Y72.8
G1 X92.8
G1 Y-72.8
G1 X-20.2
G1 F100.0 Y-73.4
G1 F800.0 X-93.4
G1 Y73.4
G1 X93.4
G1 Y-73.4
G1 X-20.2
G1 F100.0 Y-74.0
G1 F800.0 X-94.0
G1 Y74.0
G1 X94.0
G1 Y-74.0
G1 X-20.2
G1 F100.0 Y-74.6
G1 F800.0 X-94.6
G1 Y74.6
G1 X94.6
G1 Y-74.6
G1 X-20.2
G1 F100.0 Y-75.2
G1 F800.0 X-95.2
G1 Y75.2
G1 X95.2
G1 Y-75.2
G1 X-20.2
G1 F100.0 Y-75.8
G1 F800.0 X-95.8
G1 Y75.8
G1 X95.8
G1 Y-75.8
G1 X-20.2
G1 F100.0 Y-76.4
G1 F800.0 X-96.4
G1 Y76.4
G1 X96.4
G1 Y-76.4
G1 X-20.2
G1 F100.0 Y-77.0
G1 F800.0 X-97.0
G1 Y77.0
G1 X97.0
G1 Y-77.0
G1 X-20.2
G0 Z10.0
M5
M30
